%
(--------------------------------)
( Postprozessor: Cut2D PP v1.3   )
(--------------------------------)
N40G00 G53 G17 G21
N50G40 G49 G90
(--------------------------------)
( Materialinfo:                  )
(--------------------------------)
(  X Laenge = 150.000)
(  Y Laenge = 220.000)
(  Z Laenge = 6.000)
(  X Min = -75.000 X Max = 75.000)
(  Y Min = -110.000 Y Max = 110.000)
(  Z Min = -6.000 Z Max = 0.000)
( Parkpos: X = X0.000 Y = Y0.000 Z = Z20.000)
( Sicherheitshoehe: Z = Z5.000)
(--------------------------------)
( Erstes Werkzeug                )
(--------------------------------)
(  Werkzeug      = 6 End Mill {6 mm})
(  Vorschub      = 2700 mm/min)
(  Einstechen    = 900 mm/min)
(  Drehzahl      = S24000 U/min)
(--------------------------------)
N250 T6 M06
N260 G43 H6
N270 S24000 M03
N280 G94
N290 G00 Z20.000
N300 G00 X0.000 Y0.000
(--------------------------------)
( Konturname = Tasche 1)
(--------------------------------)
N340G00X-3.628Y2.059Z5.000
N350G1Z-1.200F900.0
N360G1X-2.556Y1.452F2700.0
N370G1X-2.939Y-0.023
N380G1X-4.170Y-0.033
N390G1X-2.939Y-0.023
N400G1X-2.533Y-1.495
N410G1X-3.595Y-2.118
N420G1X-2.533Y-1.495
N430G1X-1.454Y-2.557
N440G1X-2.061Y-3.628
N450G1X-1.454Y-2.557
N460G1X0.031Y-2.942
N470G1X0.040Y-4.174
N480G1X0.031Y-2.942
N490G1X1.482Y-2.541
N500G1X2.107Y-3.603
N510G1X1.482Y-2.541
N520G1X2.559Y-1.447
N530G1X3.631Y-2.055
N540G1X2.559Y-1.447
N550G1X2.941Y0.023
N560G1X4.173Y0.033
N570G1X2.941Y0.023
N580G1X2.537Y1.484
N590G1X3.599Y2.108
N600G1X2.537Y1.484
N610G1X1.440Y2.565
N620G1X2.049Y3.635
N630G1X1.440Y2.565
N640G1X-0.015Y2.943
N650G1X-0.025Y4.174
N660G1X-0.015Y2.943
N670G1X-1.491Y2.534
N680G1X-2.115Y3.596
N690G1X-1.491Y2.534
N700G1X-2.556Y1.452
N710G1X-3.628Y2.059
N720G1X-6.559Y3.720
N730G1X-7.773Y4.409
N740G1X-6.559Y3.720
N750G2X-7.540Y-0.059I-7.198J-0.148
N760G1X-8.936Y-0.070
N770G1X-7.540Y-0.059
N780G2X-6.500Y-3.825I-6.160J-3.727
N790G1X-7.704Y-4.532
N800G1X-6.500Y-3.825
N810G2X-3.722Y-6.560I-3.473J-6.307
N820G1X-4.410Y-7.775
N830G1X-3.722Y-6.560
N840G2X0.064Y-7.543I0.151J-7.198
N850G1X0.074Y-8.940
N860G1X0.064Y-7.543
N870G2X3.817Y-6.506I3.723J-6.163
N880G1X4.526Y-7.709
N890G1X3.817Y-6.506
N900G2X6.561Y-3.718I6.311J-3.466
N910G1X7.775Y-4.407
N920G1X6.561Y-3.718
N930G2X7.542Y0.059I7.199J0.146
N940G1X8.938Y0.070
N950G1X7.542Y0.059
N960G2X6.502Y3.817I6.160J3.727
N970G1X7.706Y4.525
N980G1X6.502Y3.817
N990G2X3.714Y6.565I3.469J6.309
N1000G1X4.404Y7.779
N1010G1X3.714Y6.565
N1020G2X-0.054Y7.543I-0.141J7.199
N1030G1X-0.065Y8.940
N1040G1X-0.054Y7.543
N1050G2X-3.822Y6.501I-3.731J6.158
N1060G1X-4.530Y7.705
N1070G1X-3.822Y6.501
N1080G2X-6.559Y3.720I-6.308J3.471
N1090G00Z5.000
N1100G00X-41.735Y22.883
N1110G1Z-1.200F900.0
N1120G1X-12.277Y6.182F2700.0
N1130G2X-13.734Y0.572I-1.480J-2.610
N1140G1X-33.284Y0.420
N1150G2X-35.894Y1.899I-0.023J3.000
N1160G1X-45.801Y18.753
N1170G2X-41.735Y22.883I2.586J1.520
N1180G00Z5.000
N1190G00X-39.606Y29.673
N1200G1Z-1.200F900.0
N1210G1X-20.058Y29.826F2700.0
N1220G2X-17.448Y28.346I0.023J-3.000
N1230G1X-7.544Y11.492
N1240G2X-11.610Y7.363I-2.586J-1.520
N1250G1X-41.062Y24.064
N1260G2X-39.606Y29.673I1.480J2.610
N1270G00Z5.000
N1280G00X-50.920Y22.431
N1290G1Z-1.200F900.0
N1300G1X-50.346Y23.118F2700.0
N1310G1X-49.772Y23.741
N1320G1X-49.522Y23.744
N1330G1X-48.815Y22.541
N1340G1X-49.522Y23.744
N1350G2X-46.781Y26.528I6.308J-3.471
N1360G1X-45.567Y25.839
N1370G1X-46.781Y26.528
N1380G2X-45.801Y30.302I7.199J0.146
N1390G1X-44.405Y30.314
N1400G1X-45.801Y30.302
N1410G1X-45.928Y30.520
N1420G1X-45.688Y31.332
N1430G1X-45.393Y32.177
N1440G1X-45.688Y31.332
N1450G1X-45.928Y30.520
N1460G1X-49.807Y28.240
N1470G1X-50.970Y28.899
N1480G1X-49.807Y28.240
N1490G1X-49.772Y23.741
N1500G1X-50.346Y23.118
N1510G1X-50.920Y22.431
N1520G00Z5.000
N1530G00X-46.971Y18.065
N1540G1Z-1.200F900.0
N1550G1X-37.064Y1.211F2700.0
N1560G2X-37.040Y-1.789I-2.586J-1.520
N1570G1X-46.684Y-18.795
N1580G2X-52.293Y-17.338I-2.610J1.480
N1590G1X-52.557Y16.521
N1600G2X-46.971Y18.065I3.000J0.023
N1610G00Z5.000
N1620G00X-45.503Y-19.465
N1630G1Z-1.200F900.0
N1640G1X-35.860Y-2.459F2700.0
N1650G2X-33.273Y-0.939I2.610J-1.480
N1660G1X-13.723Y-0.786
N1670G2X-12.180Y-6.372I0.023J-3.000
N1680G1X-41.373Y-23.531
N1690G2X-45.503Y-19.465I-1.520J2.586
N1700G00Z5.000
N1710G00X-40.685Y-24.701
N1720G1Z-1.200F900.0
N1730G1X-11.493Y-7.545F2700.0
N1740G2X-7.364Y-11.611I1.520J-2.586
N1750G1X-17.007Y-28.615
N1760G2X-19.593Y-30.135I-2.610J1.480
N1770G1X-39.141Y-30.287
N1780G2X-40.685Y-24.701I-0.023J3.000
N1790G00Z5.000
N1800G00X-39.130Y-31.646
N1810G1Z-1.200F900.0
N1820G1X-19.580Y-31.493F2700.0
N1830G2X-16.970Y-32.973I0.023J-3.000
N1840G1X-7.066Y-49.827
N1850G2X-11.132Y-53.956I-2.586J-1.520
N1860G1X-40.587Y-37.255
N1870G2X-39.130Y-31.646I1.480J2.610
N1880G00Z5.000
N1890G00X-50.513Y-29.690
N1900G1Z-1.200F900.0
N1910G1X-49.361Y-29.013F2700.0
N1920G1X-45.446Y-31.232
N1930G1X-45.194Y-32.041
N1940G1X-44.886Y-32.881
N1950G1X-45.194Y-32.041
N1960G1X-45.446Y-31.232
N1970G1X-45.324Y-31.015
N1980G1X-43.928Y-31.004
N1990G1X-45.324Y-31.015
N2000G2X-46.364Y-27.253I6.160J3.727
N2010G1X-45.161Y-26.545
N2020G1X-46.364Y-27.253
N2030G2X-49.146Y-24.513I3.471J6.308
N2040G1X-48.458Y-23.299
N2050G1X-49.146Y-24.513
N2060G1X-49.396Y-24.514
N2070G1X-49.979Y-23.900
N2080G1X-50.564Y-23.222
N2090G1X-49.979Y-23.900
N2100G1X-49.396Y-24.514
N2110G1X-49.361Y-29.013
N2120G1X-50.513Y-29.690
N2130G00Z5.000
N2140G00X-53.342Y-31.493
N2150G1Z-1.200F900.0
N2160G1X-53.015Y-31.769F2700.0
N2170G1X-0.099Y-61.771
N2180G1X0.075Y-61.823
N2190G1X0.413Y-61.953
N2200G1X0.617Y-61.939
N2210G1X0.804Y-61.851
N2220G1X1.076Y-61.755
N2230G1X53.416Y-30.990
N2240G1X53.804Y-30.651
N2250G1X53.905Y-30.492
N2260G1X53.945Y-30.369
N2270G1X54.020Y-29.925
N2280G1X53.548Y30.587
N2290G1X53.469Y31.141
N2300G1X53.463Y31.242
N2310G1X53.353Y31.457
N2320G1X53.001Y31.777
N2330G1X-0.047Y61.856
N2340G1X-0.268Y61.957
N2350G1X-0.485Y61.990
N2360G1X-0.725Y61.944
N2370G1X-0.915Y61.849
N2380G1X-53.594Y30.883
N2390G1X-53.780Y30.756
N2400G1X-53.875Y30.655
N2410G1X-53.965Y30.494
N2420G1X-54.016Y30.265
N2430G1X-53.546Y-30.867
N2440G1X-53.452Y-31.310
N2450G1X-53.342Y-31.493
N2460G00Z5.000
N2470G00X-5.893Y-49.138
N2480G1Z-1.200F900.0
N2490G1X-15.800Y-32.285F2700.0
N2500G2X-15.824Y-29.285I2.586J1.520
N2510G1X-6.181Y-12.279
N2520G2X-0.571Y-13.735I2.610J-1.480
N2530G1X-0.307Y-47.594
N2540G2X-5.893Y-49.138I-3.000J-0.023
N2550G00Z5.000
N2560G00X-5.171Y-55.399
N2570G1Z-1.200F900.0
N2580G1X-4.291Y-55.232F2700.0
N2590G1X-3.468Y-55.033
N2600G1X0.447Y-57.253
N2610G1X0.458Y-58.590
N2620G1X0.447Y-57.253
N2630G1X4.323Y-54.975
N2640G1X5.149Y-55.161
N2650G1X6.031Y-55.314
N2660G1X5.149Y-55.161
N2670G1X4.323Y-54.975
N2680G1X4.192Y-54.754
N2690G1X4.882Y-53.540
N2700G1X4.192Y-54.754
N2710G2X0.424Y-53.776I-0.141J7.199
N2720G1X0.413Y-52.379
N2730G1X0.424Y-53.776
N2740G2X-3.344Y-54.818I-3.731J6.158
N2750G1X-4.052Y-53.614
N2760G1X-3.344Y-54.818
N2770G1X-3.468Y-55.033
N2780G1X-4.291Y-55.232
N2790G1X-5.171Y-55.399
N2800G00Z5.000
N2810G00X1.051Y-47.579
N2820G1Z-1.200F900.0
N2830G1X0.787Y-13.729F2700.0
N2840G2X6.374Y-12.185I3.000J0.023
N2850G1X16.278Y-29.034
N2860G2X16.302Y-32.034I-2.586J-1.520
N2870G1X6.661Y-49.036
N2880G2X1.051Y-47.579I-2.610J1.480
N2890G00Z5.000
N2900G00X7.839Y-49.713
N2910G1Z-1.200F900.0
N2920G1X17.482Y-32.704F2700.0
N2930G2X20.069Y-31.184I2.610J-1.480
N2940G1X39.619Y-31.032
N2950G2X41.163Y-36.618I0.023J-3.000
N2960G1X11.969Y-53.779
N2970G2X7.839Y-49.713I-1.520J2.586
N2980G00Z5.000
N2990G00X39.608Y-29.673
N3000G1Z-1.200F900.0
N3010G1X20.058Y-29.826F2700.0
N3020G2X17.448Y-28.346I-0.023J3.000
N3030G1X7.541Y-11.493
N3040G2X11.607Y-7.362I2.586J1.520
N3050G1X41.065Y-24.064
N3060G2X39.608Y-29.673I-1.480J-2.610
N3070G00Z5.000
N3080G00X45.393Y-32.178
N3090G1Z-1.200F900.0
N3100G1X45.688Y-31.332F2700.0
N3110G1X45.928Y-30.520
N3120G1X49.807Y-28.240
N3130G1X50.970Y-28.899
N3140G1X49.807Y-28.240
N3150G1X49.772Y-23.741
N3160G1X50.346Y-23.118
N3170G1X50.920Y-22.431
N3180G1X50.346Y-23.118
N3190G1X49.772Y-23.741
N3200G1X49.522Y-23.744
N3210G1X48.815Y-22.541
N3220G1X49.522Y-23.744
N3230G2X46.783Y-26.526I-6.308J3.471
N3240G1X45.569Y-25.838
N3250G1X46.783Y-26.526
N3260G2X45.802Y-30.304I-7.198J-0.147
N3270G1X44.406Y-30.315
N3280G1X45.802Y-30.304
N3290G1X45.928Y-30.520
N3300G1X45.688Y-31.332
N3310G1X45.393Y-32.178
N3320G00Z5.000
N3330G00X41.735Y-22.883
N3340G1Z-1.200F900.0
N3350G1X12.280Y-6.182F2700.0
N3360G2X13.736Y-0.572I1.480J2.610
N3370G1X33.284Y-0.420
N3380G2X35.894Y-1.899I0.023J-3.000
N3390G1X45.801Y-18.753
N3400G2X41.735Y-22.883I-2.586J-1.520
N3410G00Z5.000
N3420G00X46.971Y-18.065
N3430G1Z-1.200F900.0
N3440G1X37.064Y-1.211F2700.0
N3450G2X37.040Y1.789I2.586J1.520
N3460G1X46.684Y18.795
N3470G2X52.293Y17.338I2.610J-1.480
N3480G1X52.557Y-16.521
N3490G2X46.971Y-18.065I-3.000J-0.023
N3500G00Z5.000
N3510G00X45.500Y19.462
N3520G1Z-1.200F900.0
N3530G1X35.857Y2.459F2700.0
N3540G2X33.271Y0.939I-2.610J1.480
N3550G1X13.726Y0.786
N3560G2X12.182Y6.372I-0.023J3.000
N3570G1X41.371Y23.528
N3580G2X45.500Y19.462I1.520J-2.586
N3590G00Z5.000
N3600G00X48.454Y23.298
N3610G1Z-1.200F900.0
N3620G1X49.143Y24.513F2700.0
N3630G1X49.396Y24.514
N3640G1X49.979Y23.900
N3650G1X50.564Y23.222
N3660G1X49.979Y23.900
N3670G1X49.396Y24.514
N3680G1X49.361Y29.013
N3690G1X50.513Y29.690
N3700G1X49.361Y29.013
N3710G1X45.446Y31.232
N3720G1X45.194Y32.041
N3730G1X44.886Y32.881
N3740G1X45.194Y32.041
N3750G1X45.446Y31.232
N3760G1X45.324Y31.015
N3770G1X43.928Y31.004
N3780G1X45.324Y31.015
N3790G2X46.364Y27.249I-6.160J-3.727
N3800G1X45.160Y26.542
N3810G1X46.364Y27.249
N3820G2X49.143Y24.513I-3.473J-6.307
N3830G1X48.454Y23.298
N3840G00Z5.000
N3850G00X40.685Y24.701
N3860G1Z-1.200F900.0
N3870G1X11.491Y7.540F2700.0
N3880G2X7.361Y11.606I-1.520J2.586
N3890G1X17.004Y28.614
N3900G2X19.591Y30.135I2.610J-1.480
N3910G1X39.141Y30.287
N3920G2X40.685Y24.701I0.023J-3.000
N3930G00Z5.000
N3940G00X39.130Y31.646
N3950G1Z-1.200F900.0
N3960G1X19.580Y31.493F2700.0
N3970G2X16.970Y32.973I-0.023J3.000
N3980G1X7.063Y49.829
N3990G2X11.130Y53.959I2.586J1.520
N4000G1X40.587Y37.255
N4010G2X39.130Y31.646I-1.480J-2.610
N4020G00Z5.000
N4030G00X5.896Y49.133
N4040G1Z-1.200F900.0
N4050G1X15.800Y32.285F2700.0
N4060G2X15.824Y29.284I-2.586J-1.520
N4070G1X6.183Y12.283
N4080G2X0.573Y13.740I-2.610J1.480
N4090G1X0.310Y47.590
N4100G2X5.896Y49.133I3.000J0.023
N4110G00Z5.000
N4120G00X-1.049Y47.584
N4130G1Z-1.200F900.0
N4140G1X-0.785Y13.724F2700.0
N4150G2X-6.371Y12.181I-3.000J-0.023
N4160G1X-16.278Y29.034
N4170G2X-16.302Y32.034I2.586J1.520
N4180G1X-6.659Y49.040
N4190G2X-1.049Y47.584I2.610J-1.480
N4200G00Z5.000
N4210G00X-7.842Y49.708
N4220G1Z-1.200F900.0
N4230G1X-17.485Y32.704F2700.0
N4240G2X-20.071Y31.184I-2.610J1.480
N4250G1X-39.619Y31.032
N4260G2X-41.162Y36.618I-0.023J3.000
N4270G1X-11.971Y53.774
N4280G2X-7.842Y49.708I1.520J-2.586
N4290G00Z5.000
N4300G00X-6.035Y55.311
N4310G1Z-1.200F900.0
N4320G1X-5.153Y55.158F2700.0
N4330G1X-4.326Y54.972
N4340G1X-4.200Y54.759
N4350G1X-4.888Y53.544
N4360G1X-4.200Y54.759
N4370G2X-0.414Y53.776I0.151J-7.198
N4380G1X-0.404Y52.379
N4390G1X-0.414Y53.776
N4400G2X3.338Y54.813I3.723J-6.163
N4410G1X4.047Y53.610
N4420G1X3.338Y54.813
N4430G1X3.465Y55.036
N4440G1X4.289Y55.235
N4450G1X5.168Y55.401
N4460G1X4.289Y55.235
N4470G1X3.465Y55.036
N4480G1X-0.445Y57.253
N4490G1X-0.456Y58.590
N4500G1X-0.445Y57.253
N4510G1X-4.326Y54.972
N4520G1X-5.153Y55.158
N4530G1X-6.035Y55.311
N4540G00Z5.000
N4550S24000M03
(Kontur 1)
()
N4580G00X-33.482Y-59.131Z5.000
N4590G1Z-3.050F800.0
N4600G1X-41.311Y-54.692F3000.0
N4610G1X-63.603Y-42.052
N4620G2X-67.680Y-35.142I3.923J6.972
N4630G1X-68.219Y34.056
N4640G2X-64.274Y41.042I8.000J0.089
N4650G1X-38.863Y55.978
N4660G1X-31.104Y60.538
N4670G1X-4.616Y76.108
N4680G2X3.406Y76.184I4.077J-6.883
N4690G1X27.711Y62.403
N4700G1X35.540Y57.964
N4710G1X63.603Y42.052
N4720G2X67.680Y35.142I-3.923J-6.972
N4730G1X68.219Y-34.056
N4740G2X64.274Y-41.042I-8.000J-0.089
N4750G1X45.874Y-51.857
N4760G1X38.115Y-56.418
N4770G1X4.576Y-76.132
N4780G1X4.565Y-76.138
N4790G2X-3.406Y-76.184I-4.025J6.913
N4800G1X-33.482Y-59.131
N4810G1Z-6.100F800.0
N4820G1Z-3.100F3000.0
N4830G1X-41.311Y-54.692
N4840G1Z-6.100F800.0
N4850G1X-63.603Y-42.052F3000.0
N4860G2X-67.680Y-35.142I3.923J6.972
N4870G1X-68.219Y34.056
N4880G2X-64.274Y41.042I8.000J0.089
N4890G1X-38.863Y55.978
N4900G1Z-3.100
N4910G1X-31.104Y60.538
N4920G1Z-6.100F800.0
N4930G1X-4.616Y76.108F3000.0
N4940G2X3.406Y76.184I4.077J-6.883
N4950G1X27.711Y62.403
N4960G1Z-3.100
N4970G1X35.540Y57.964
N4980G1Z-6.100F800.0
N4990G1X63.603Y42.052F3000.0
N5000G2X67.680Y35.142I-3.923J-6.972
N5010G1X68.219Y-34.056
N5020G2X64.274Y-41.042I-8.000J-0.089
N5030G1X45.874Y-51.857
N5040G1Z-3.100
N5050G1X38.115Y-56.418
N5060G1Z-6.100F800.0
N5070G1X4.576Y-76.132F3000.0
N5080G1X4.565Y-76.138
N5090G2X-3.406Y-76.184I-4.025J6.913
N5100G1X-33.482Y-59.131
N5110G00Z5.000
N5120G00Z20.000
N5130G00X0.000Y0.000
N5140M09
N5150M30
%
