%
(--------------------------------)
( Postprozessor: Cut2D PP v1.3   )
(--------------------------------)
N40G00 G53 G17 G21
N50G40 G49 G90
(--------------------------------)
( Materialinfo:                  )
(--------------------------------)
(  X Laenge = 310.000)
(  Y Laenge = 310.000)
(  Z Laenge = 15.000)
(  X Min = 0.000 X Max = 310.000)
(  Y Min = 0.000 Y Max = 310.000)
(  Z Min = -15.000 Z Max = 0.000)
( Parkpos: X = X0.000 Y = Y0.000 Z = Z20.000)
( Sicherheitshoehe: Z = Z5.000)
(--------------------------------)
( Erstes Werkzeug                )
(--------------------------------)
(  Werkzeug      = 6 End Mill {6 mm})
(  Vorschub      = 1750 mm/min)
(  Einstechen    = 900 mm/min)
(  Drehzahl      = S24000 U/min)
(--------------------------------)
N250 T6 M06
N260 G43 H6
N270 S24000 M03
N280 G94
N290 G00 Z20.000
N300 G00 X0.000 Y0.000
(--------------------------------)
( Konturname = c3)
(--------------------------------)
N340G00X17.894Y15.726Z5.000
N350G1Z-3.100F900.0
N360G1X34.656F1750.0
N370G1X46.656
N380G1X196.701
N390G1X208.701
N400G1X225.521
N410G1X225.733Y39.059
N420G1X127.844
N430G1X115.844
N440G1X17.894
N450G1Y15.726
N460G1Z-6.200F900.0
N470G1X34.656F1750.0
N480G1X46.656
N490G1X196.701
N500G1X208.701
N510G1X225.521
N520G1X225.733Y39.059
N530G1X127.844
N540G1X115.844
N550G1X17.894
N560G1Y15.726
N570G1Z-9.300F900.0
N580G1X34.656F1750.0
N590G1X46.656
N600G1X196.701
N610G1X208.701
N620G1X225.521
N630G1X225.733Y39.059
N640G1X127.844
N650G1X115.844
N660G1X17.894
N670G1Y15.726
N680G1Z-12.400F900.0
N690G1X34.656F1750.0
N700G1Z-11.500
N710G1X46.656
N720G1Z-12.400F900.0
N730G1X196.701F1750.0
N740G1Z-11.500
N750G1X208.701
N760G1Z-12.400F900.0
N770G1X225.521F1750.0
N780G1X225.733Y39.059
N790G1X127.844
N800G1Z-11.500
N810G1X115.844
N820G1Z-12.400F900.0
N830G1X17.894F1750.0
N840G1Y15.726
N850G1Z-15.500F900.0
N860G1X34.656F1750.0
N870G1Z-11.500
N880G1X46.656
N890G1Z-15.500F900.0
N900G1X196.701F1750.0
N910G1Z-11.500
N920G1X208.701
N930G1Z-15.500F900.0
N940G1X225.521F1750.0
N950G1X225.733Y39.059
N960G1X127.844
N970G1Z-11.500
N980G1X115.844
N990G1Z-15.500F900.0
N1000G1X17.894F1750.0
N1010G1Y15.726
N1020G00Z5.000
N1030G00X35.463Y56.234
N1040G1Z-3.100F900.0
N1050G1X36.250Y55.919F1750.0
N1060G1X37.059Y55.622
N1070G1X37.891Y55.344
N1080G1X38.745Y55.084
N1090G1X39.623Y54.844
N1100G1X40.524Y54.625
N1110G1X41.449Y54.425
N1120G1X42.399Y54.248
N1130G1X43.373Y54.092
N1140G1X44.372Y53.958
N1150G1X45.397Y53.847
N1160G1X46.446Y53.760
N1170G1X47.522Y53.697
N1180G1X48.624Y53.659
N1190G1X49.769Y53.646
N1200G1X107.146
N1210G1X119.146
N1220G1X170.297
N1230G1X167.893Y55.080
N1240G1X165.860Y56.293
N1250G1X163.642Y57.631
N1260G1X161.255Y59.096
N1270G1X158.712Y60.693
N1280G1X156.026Y62.426
N1290G1X153.207Y64.299
N1300G1X150.275Y66.313
N1310G1X148.760Y67.382
N1320G1X147.225Y68.484
N1330G1X145.666Y69.625
N1340G1X144.084Y70.805
N1350G1X142.481Y72.025
N1360G1X140.859Y73.285
N1370G1X139.220Y74.585
N1380G1X137.563Y75.927
N1390G1X135.892Y77.311
N1400G1X134.207Y78.737
N1410G1X132.510Y80.207
N1420G1X130.803Y81.720
N1430G1X129.087Y83.277
N1440G1X127.362Y84.880
N1450G1X125.632Y86.527
N1460G1X123.898Y88.221
N1470G1X122.160Y89.961
N1480G1X120.420Y91.748
N1490G1X118.680Y93.584
N1500G1X116.942Y95.467
N1510G1X115.206Y97.399
N1520G1X113.476Y99.379
N1530G1X110.878Y102.427
N1540G1X108.359Y105.442
N1550G1X105.912Y108.426
N1560G1X103.902Y110.917
N1570G1X103.532Y111.376
N1580G1X101.213Y114.293
N1590G1X98.948Y117.176
N1600G1X96.488Y120.352
N1610G1X94.570Y122.827
N1620G1X90.347Y128.328
N1630G1X86.236Y133.673
N1640G1X84.211Y136.281
N1650G1X82.198Y138.847
N1660G1X80.191Y141.370
N1670G1X78.185Y143.848
N1680G1X76.175Y146.282
N1690G1X74.156Y148.669
N1700G1X72.121Y151.010
N1710G1X70.066Y153.304
N1720G1X67.980Y155.555
N1730G1X66.933Y156.655
N1740G1X65.872Y157.748
N1750G1X64.803Y158.829
N1760G1X63.723Y159.897
N1770G1X62.633Y160.954
N1780G1X61.531Y161.998
N1790G1X60.417Y163.029
N1800G1X59.291Y164.048
N1810G1X58.151Y165.055
N1820G1X56.997Y166.049
N1830G1X55.828Y167.030
N1840G1X54.644Y167.999
N1850G1X53.443Y168.955
N1860G1X52.225Y169.899
N1870G1X50.989Y170.830
N1880G1X49.735Y171.748
N1890G1X48.461Y172.653
N1900G1X47.168Y173.545
N1910G1X45.854Y174.425
N1920G1X44.518Y175.292
N1930G1X43.160Y176.145
N1940G1X41.776Y176.987
N1950G1X40.623Y177.669
N1960G1X39.502Y178.315
N1970G1X38.416Y178.923
N1980G1X37.365Y179.494
N1990G1X36.349Y180.028
N2000G1X35.367Y180.526
N2010G1X34.418Y180.989
N2020G1X33.504Y181.417
N2030G1X32.623Y181.810
N2040G1X31.776Y182.169
N2050G1X30.962Y182.494
N2060G1X30.182Y182.787
N2070G1X29.435Y183.048
N2080G1X28.721Y183.277
N2090G1X28.041Y183.475
N2100G1X27.394Y183.644
N2110G1X26.781Y183.784
N2120G1X26.201Y183.896
N2130G1X25.655Y183.982
N2140G1X25.142Y184.042
N2150G1X24.663Y184.078
N2160G1X24.217Y184.092
N2170G1X23.804Y184.086
N2180G1X23.423Y184.061
N2190G1X23.073Y184.019
N2200G1X22.752Y183.962
N2210G1X22.458Y183.892
N2220G1X22.189Y183.810
N2230G1X21.942Y183.717
N2240G1X21.715Y183.614
N2250G1X21.503Y183.500
N2260G1X21.304Y183.376
N2270G1X21.115Y183.239
N2280G1X20.933Y183.089
N2290G1X20.757Y182.923
N2300G1X20.586Y182.740
N2310G1X20.418Y182.538
N2320G1X20.253Y182.315
N2330G1X20.092Y182.070
N2340G1X19.935Y181.802
N2350G1X19.782Y181.511
N2360G1X19.634Y181.196
N2370G1X19.492Y180.858
N2380G1X19.356Y180.496
N2390G1X19.227Y180.111
N2400G1X19.111Y179.724
N2410G1X18.884Y178.822
N2420G1X18.695Y177.863
N2430G1X18.537Y176.829
N2440G1X18.410Y175.727
N2450G1X18.312Y174.562
N2460G1X18.241Y173.341
N2470G1X18.194Y172.069
N2480G1X18.169Y170.752
N2490G1X18.161Y169.387
N2500G1Y138.836
N2510G1Y126.836
N2520G1Y85.611
N2530G1X18.185Y84.166
N2540G1X18.259Y82.737
N2550G1X18.384Y81.301
N2560G1X18.560Y79.864
N2570G1X18.792Y78.416
N2580G1X18.924Y77.714
N2590G1X19.073Y77.001
N2600G1X19.235Y76.291
N2610G1X19.412Y75.584
N2620G1X19.603Y74.881
N2630G1X19.807Y74.182
N2640G1X20.027Y73.488
N2650G1X20.260Y72.798
N2660G1X20.509Y72.115
N2670G1X20.771Y71.437
N2680G1X21.049Y70.766
N2690G1X21.342Y70.103
N2700G1X21.649Y69.446
N2710G1X21.972Y68.797
N2720G1X22.310Y68.157
N2730G1X22.664Y67.526
N2740G1X23.033Y66.903
N2750G1X23.417Y66.290
N2760G1X23.818Y65.687
N2770G1X24.234Y65.094
N2780G1X24.666Y64.512
N2790G1X25.115Y63.941
N2800G1X25.580Y63.381
N2810G1X26.061Y62.832
N2820G1X26.560Y62.296
N2830G1X27.076Y61.772
N2840G1X27.608Y61.261
N2850G1X28.159Y60.762
N2860G1X28.727Y60.277
N2870G1X29.314Y59.806
N2880G1X29.918Y59.348
N2890G1X30.542Y58.905
N2900G1X31.185Y58.476
N2910G1X31.847Y58.063
N2920G1X32.529Y57.665
N2930G1X33.231Y57.282
N2940G1X33.954Y56.916
N2950G1X34.698Y56.566
N2960G1X35.463Y56.234
N2970G1Z-6.200F900.0
N2980G1X36.250Y55.919F1750.0
N2990G1X37.059Y55.622
N3000G1X37.891Y55.344
N3010G1X38.745Y55.084
N3020G1X39.623Y54.844
N3030G1X40.524Y54.625
N3040G1X41.449Y54.425
N3050G1X42.399Y54.248
N3060G1X43.373Y54.092
N3070G1X44.372Y53.958
N3080G1X45.397Y53.847
N3090G1X46.446Y53.760
N3100G1X47.522Y53.697
N3110G1X48.624Y53.659
N3120G1X49.769Y53.646
N3130G1X107.146
N3140G1X119.146
N3150G1X170.297
N3160G1X167.893Y55.080
N3170G1X165.860Y56.293
N3180G1X163.642Y57.631
N3190G1X161.255Y59.096
N3200G1X158.712Y60.693
N3210G1X156.026Y62.426
N3220G1X153.207Y64.299
N3230G1X150.275Y66.313
N3240G1X148.760Y67.382
N3250G1X147.225Y68.484
N3260G1X145.666Y69.625
N3270G1X144.084Y70.805
N3280G1X142.481Y72.025
N3290G1X140.859Y73.285
N3300G1X139.220Y74.585
N3310G1X137.563Y75.927
N3320G1X135.892Y77.311
N3330G1X134.207Y78.737
N3340G1X132.510Y80.207
N3350G1X130.803Y81.720
N3360G1X129.087Y83.277
N3370G1X127.362Y84.880
N3380G1X125.632Y86.527
N3390G1X123.898Y88.221
N3400G1X122.160Y89.961
N3410G1X120.420Y91.748
N3420G1X118.680Y93.584
N3430G1X116.942Y95.467
N3440G1X115.206Y97.399
N3450G1X113.476Y99.379
N3460G1X110.878Y102.427
N3470G1X108.359Y105.442
N3480G1X105.912Y108.426
N3490G1X103.902Y110.917
N3500G1X103.532Y111.376
N3510G1X101.213Y114.293
N3520G1X98.948Y117.176
N3530G1X96.488Y120.352
N3540G1X94.570Y122.827
N3550G1X90.347Y128.328
N3560G1X86.236Y133.673
N3570G1X84.211Y136.281
N3580G1X82.198Y138.847
N3590G1X80.191Y141.370
N3600G1X78.185Y143.848
N3610G1X76.175Y146.282
N3620G1X74.156Y148.669
N3630G1X72.121Y151.010
N3640G1X70.066Y153.304
N3650G1X67.980Y155.555
N3660G1X66.933Y156.655
N3670G1X65.872Y157.748
N3680G1X64.803Y158.829
N3690G1X63.723Y159.897
N3700G1X62.633Y160.954
N3710G1X61.531Y161.998
N3720G1X60.417Y163.029
N3730G1X59.291Y164.048
N3740G1X58.151Y165.055
N3750G1X56.997Y166.049
N3760G1X55.828Y167.030
N3770G1X54.644Y167.999
N3780G1X53.443Y168.955
N3790G1X52.225Y169.899
N3800G1X50.989Y170.830
N3810G1X49.735Y171.748
N3820G1X48.461Y172.653
N3830G1X47.168Y173.545
N3840G1X45.854Y174.425
N3850G1X44.518Y175.292
N3860G1X43.160Y176.145
N3870G1X41.776Y176.987
N3880G1X40.623Y177.669
N3890G1X39.502Y178.315
N3900G1X38.416Y178.923
N3910G1X37.365Y179.494
N3920G1X36.349Y180.028
N3930G1X35.367Y180.526
N3940G1X34.418Y180.989
N3950G1X33.504Y181.417
N3960G1X32.623Y181.810
N3970G1X31.776Y182.169
N3980G1X30.962Y182.494
N3990G1X30.182Y182.787
N4000G1X29.435Y183.048
N4010G1X28.721Y183.277
N4020G1X28.041Y183.475
N4030G1X27.394Y183.644
N4040G1X26.781Y183.784
N4050G1X26.201Y183.896
N4060G1X25.655Y183.982
N4070G1X25.142Y184.042
N4080G1X24.663Y184.078
N4090G1X24.217Y184.092
N4100G1X23.804Y184.086
N4110G1X23.423Y184.061
N4120G1X23.073Y184.019
N4130G1X22.752Y183.962
N4140G1X22.458Y183.892
N4150G1X22.189Y183.810
N4160G1X21.942Y183.717
N4170G1X21.715Y183.614
N4180G1X21.503Y183.500
N4190G1X21.304Y183.376
N4200G1X21.115Y183.239
N4210G1X20.933Y183.089
N4220G1X20.757Y182.923
N4230G1X20.586Y182.740
N4240G1X20.418Y182.538
N4250G1X20.253Y182.315
N4260G1X20.092Y182.070
N4270G1X19.935Y181.802
N4280G1X19.782Y181.511
N4290G1X19.634Y181.196
N4300G1X19.492Y180.858
N4310G1X19.356Y180.496
N4320G1X19.227Y180.111
N4330G1X19.111Y179.724
N4340G1X18.884Y178.822
N4350G1X18.695Y177.863
N4360G1X18.537Y176.829
N4370G1X18.410Y175.727
N4380G1X18.312Y174.562
N4390G1X18.241Y173.341
N4400G1X18.194Y172.069
N4410G1X18.169Y170.752
N4420G1X18.161Y169.387
N4430G1Y138.836
N4440G1Y126.836
N4450G1Y85.611
N4460G1X18.185Y84.166
N4470G1X18.259Y82.737
N4480G1X18.384Y81.301
N4490G1X18.560Y79.864
N4500G1X18.792Y78.416
N4510G1X18.924Y77.714
N4520G1X19.073Y77.001
N4530G1X19.235Y76.291
N4540G1X19.412Y75.584
N4550G1X19.603Y74.881
N4560G1X19.807Y74.182
N4570G1X20.027Y73.488
N4580G1X20.260Y72.798
N4590G1X20.509Y72.115
N4600G1X20.771Y71.437
N4610G1X21.049Y70.766
N4620G1X21.342Y70.103
N4630G1X21.649Y69.446
N4640G1X21.972Y68.797
N4650G1X22.310Y68.157
N4660G1X22.664Y67.526
N4670G1X23.033Y66.903
N4680G1X23.417Y66.290
N4690G1X23.818Y65.687
N4700G1X24.234Y65.094
N4710G1X24.666Y64.512
N4720G1X25.115Y63.941
N4730G1X25.580Y63.381
N4740G1X26.061Y62.832
N4750G1X26.560Y62.296
N4760G1X27.076Y61.772
N4770G1X27.608Y61.261
N4780G1X28.159Y60.762
N4790G1X28.727Y60.277
N4800G1X29.314Y59.806
N4810G1X29.918Y59.348
N4820G1X30.542Y58.905
N4830G1X31.185Y58.476
N4840G1X31.847Y58.063
N4850G1X32.529Y57.665
N4860G1X33.231Y57.282
N4870G1X33.954Y56.916
N4880G1X34.698Y56.566
N4890G1X35.463Y56.234
N4900G1Z-9.300F900.0
N4910G1X36.250Y55.919F1750.0
N4920G1X37.059Y55.622
N4930G1X37.891Y55.344
N4940G1X38.745Y55.084
N4950G1X39.623Y54.844
N4960G1X40.524Y54.625
N4970G1X41.449Y54.425
N4980G1X42.399Y54.248
N4990G1X43.373Y54.092
N5000G1X44.372Y53.958
N5010G1X45.397Y53.847
N5020G1X46.446Y53.760
N5030G1X47.522Y53.697
N5040G1X48.624Y53.659
N5050G1X49.769Y53.646
N5060G1X107.146
N5070G1X119.146
N5080G1X170.297
N5090G1X167.893Y55.080
N5100G1X165.860Y56.293
N5110G1X163.642Y57.631
N5120G1X161.255Y59.096
N5130G1X158.712Y60.693
N5140G1X156.026Y62.426
N5150G1X153.207Y64.299
N5160G1X150.275Y66.313
N5170G1X148.760Y67.382
N5180G1X147.225Y68.484
N5190G1X145.666Y69.625
N5200G1X144.084Y70.805
N5210G1X142.481Y72.025
N5220G1X140.859Y73.285
N5230G1X139.220Y74.585
N5240G1X137.563Y75.927
N5250G1X135.892Y77.311
N5260G1X134.207Y78.737
N5270G1X132.510Y80.207
N5280G1X130.803Y81.720
N5290G1X129.087Y83.277
N5300G1X127.362Y84.880
N5310G1X125.632Y86.527
N5320G1X123.898Y88.221
N5330G1X122.160Y89.961
N5340G1X120.420Y91.748
N5350G1X118.680Y93.584
N5360G1X116.942Y95.467
N5370G1X115.206Y97.399
N5380G1X113.476Y99.379
N5390G1X110.878Y102.427
N5400G1X108.359Y105.442
N5410G1X105.912Y108.426
N5420G1X103.902Y110.917
N5430G1X103.532Y111.376
N5440G1X101.213Y114.293
N5450G1X98.948Y117.176
N5460G1X96.488Y120.352
N5470G1X94.570Y122.827
N5480G1X90.347Y128.328
N5490G1X86.236Y133.673
N5500G1X84.211Y136.281
N5510G1X82.198Y138.847
N5520G1X80.191Y141.370
N5530G1X78.185Y143.848
N5540G1X76.175Y146.282
N5550G1X74.156Y148.669
N5560G1X72.121Y151.010
N5570G1X70.066Y153.304
N5580G1X67.980Y155.555
N5590G1X66.933Y156.655
N5600G1X65.872Y157.748
N5610G1X64.803Y158.829
N5620G1X63.723Y159.897
N5630G1X62.633Y160.954
N5640G1X61.531Y161.998
N5650G1X60.417Y163.029
N5660G1X59.291Y164.048
N5670G1X58.151Y165.055
N5680G1X56.997Y166.049
N5690G1X55.828Y167.030
N5700G1X54.644Y167.999
N5710G1X53.443Y168.955
N5720G1X52.225Y169.899
N5730G1X50.989Y170.830
N5740G1X49.735Y171.748
N5750G1X48.461Y172.653
N5760G1X47.168Y173.545
N5770G1X45.854Y174.425
N5780G1X44.518Y175.292
N5790G1X43.160Y176.145
N5800G1X41.776Y176.987
N5810G1X40.623Y177.669
N5820G1X39.502Y178.315
N5830G1X38.416Y178.923
N5840G1X37.365Y179.494
N5850G1X36.349Y180.028
N5860G1X35.367Y180.526
N5870G1X34.418Y180.989
N5880G1X33.504Y181.417
N5890G1X32.623Y181.810
N5900G1X31.776Y182.169
N5910G1X30.962Y182.494
N5920G1X30.182Y182.787
N5930G1X29.435Y183.048
N5940G1X28.721Y183.277
N5950G1X28.041Y183.475
N5960G1X27.394Y183.644
N5970G1X26.781Y183.784
N5980G1X26.201Y183.896
N5990G1X25.655Y183.982
N6000G1X25.142Y184.042
N6010G1X24.663Y184.078
N6020G1X24.217Y184.092
N6030G1X23.804Y184.086
N6040G1X23.423Y184.061
N6050G1X23.073Y184.019
N6060G1X22.752Y183.962
N6070G1X22.458Y183.892
N6080G1X22.189Y183.810
N6090G1X21.942Y183.717
N6100G1X21.715Y183.614
N6110G1X21.503Y183.500
N6120G1X21.304Y183.376
N6130G1X21.115Y183.239
N6140G1X20.933Y183.089
N6150G1X20.757Y182.923
N6160G1X20.586Y182.740
N6170G1X20.418Y182.538
N6180G1X20.253Y182.315
N6190G1X20.092Y182.070
N6200G1X19.935Y181.802
N6210G1X19.782Y181.511
N6220G1X19.634Y181.196
N6230G1X19.492Y180.858
N6240G1X19.356Y180.496
N6250G1X19.227Y180.111
N6260G1X19.111Y179.724
N6270G1X18.884Y178.822
N6280G1X18.695Y177.863
N6290G1X18.537Y176.829
N6300G1X18.410Y175.727
N6310G1X18.312Y174.562
N6320G1X18.241Y173.341
N6330G1X18.194Y172.069
N6340G1X18.169Y170.752
N6350G1X18.161Y169.387
N6360G1Y138.836
N6370G1Y126.836
N6380G1Y85.611
N6390G1X18.185Y84.166
N6400G1X18.259Y82.737
N6410G1X18.384Y81.301
N6420G1X18.560Y79.864
N6430G1X18.792Y78.416
N6440G1X18.924Y77.714
N6450G1X19.073Y77.001
N6460G1X19.235Y76.291
N6470G1X19.412Y75.584
N6480G1X19.603Y74.881
N6490G1X19.807Y74.182
N6500G1X20.027Y73.488
N6510G1X20.260Y72.798
N6520G1X20.509Y72.115
N6530G1X20.771Y71.437
N6540G1X21.049Y70.766
N6550G1X21.342Y70.103
N6560G1X21.649Y69.446
N6570G1X21.972Y68.797
N6580G1X22.310Y68.157
N6590G1X22.664Y67.526
N6600G1X23.033Y66.903
N6610G1X23.417Y66.290
N6620G1X23.818Y65.687
N6630G1X24.234Y65.094
N6640G1X24.666Y64.512
N6650G1X25.115Y63.941
N6660G1X25.580Y63.381
N6670G1X26.061Y62.832
N6680G1X26.560Y62.296
N6690G1X27.076Y61.772
N6700G1X27.608Y61.261
N6710G1X28.159Y60.762
N6720G1X28.727Y60.277
N6730G1X29.314Y59.806
N6740G1X29.918Y59.348
N6750G1X30.542Y58.905
N6760G1X31.185Y58.476
N6770G1X31.847Y58.063
N6780G1X32.529Y57.665
N6790G1X33.231Y57.282
N6800G1X33.954Y56.916
N6810G1X34.698Y56.566
N6820G1X35.463Y56.234
N6830G1Z-12.400F900.0
N6840G1X36.250Y55.919F1750.0
N6850G1X37.059Y55.622
N6860G1X37.891Y55.344
N6870G1X38.745Y55.084
N6880G1X39.623Y54.844
N6890G1X40.524Y54.625
N6900G1X41.449Y54.425
N6910G1X42.399Y54.248
N6920G1X43.373Y54.092
N6930G1X44.372Y53.958
N6940G1X45.397Y53.847
N6950G1X46.446Y53.760
N6960G1X47.522Y53.697
N6970G1X48.624Y53.659
N6980G1X49.769Y53.646
N6990G1X107.146
N7000G1Z-11.500
N7010G1X119.146
N7020G1Z-12.400F900.0
N7030G1X170.297F1750.0
N7040G1X167.893Y55.080
N7050G1X165.860Y56.293
N7060G1X163.642Y57.631
N7070G1X161.255Y59.096
N7080G1X158.712Y60.693
N7090G1X156.026Y62.426
N7100G1X153.207Y64.299
N7110G1X150.275Y66.313
N7120G1X148.760Y67.382
N7130G1X147.225Y68.484
N7140G1X145.666Y69.625
N7150G1X144.084Y70.805
N7160G1X142.481Y72.025
N7170G1X140.859Y73.285
N7180G1X139.220Y74.585
N7190G1X137.563Y75.927
N7200G1X135.892Y77.311
N7210G1X134.207Y78.737
N7220G1X132.510Y80.207
N7230G1X130.803Y81.720
N7240G1X129.087Y83.277
N7250G1X127.362Y84.880
N7260G1X125.632Y86.527
N7270G1X123.898Y88.221
N7280G1X122.160Y89.961
N7290G1X120.420Y91.748
N7300G1X118.680Y93.584
N7310G1X116.942Y95.467
N7320G1X115.206Y97.399
N7330G1X113.476Y99.379
N7340G1X110.878Y102.427
N7350G1X108.359Y105.442
N7360G1X105.912Y108.426
N7370G1X103.902Y110.917
N7380G1Z-11.500
N7390G1X103.532Y111.376
N7400G1X101.213Y114.293
N7410G1X98.948Y117.176
N7420G1X96.488Y120.352
N7430G1Z-12.400F900.0
N7440G1X94.570Y122.827F1750.0
N7450G1X90.347Y128.328
N7460G1X86.236Y133.673
N7470G1X84.211Y136.281
N7480G1X82.198Y138.847
N7490G1X80.191Y141.370
N7500G1X78.185Y143.848
N7510G1X76.175Y146.282
N7520G1X74.156Y148.669
N7530G1X72.121Y151.010
N7540G1X70.066Y153.304
N7550G1X67.980Y155.555
N7560G1X66.933Y156.655
N7570G1X65.872Y157.748
N7580G1X64.803Y158.829
N7590G1X63.723Y159.897
N7600G1X62.633Y160.954
N7610G1X61.531Y161.998
N7620G1X60.417Y163.029
N7630G1X59.291Y164.048
N7640G1X58.151Y165.055
N7650G1X56.997Y166.049
N7660G1X55.828Y167.030
N7670G1X54.644Y167.999
N7680G1X53.443Y168.955
N7690G1X52.225Y169.899
N7700G1X50.989Y170.830
N7710G1X49.735Y171.748
N7720G1X48.461Y172.653
N7730G1X47.168Y173.545
N7740G1X45.854Y174.425
N7750G1X44.518Y175.292
N7760G1X43.160Y176.145
N7770G1X41.776Y176.987
N7780G1X40.623Y177.669
N7790G1X39.502Y178.315
N7800G1X38.416Y178.923
N7810G1X37.365Y179.494
N7820G1X36.349Y180.028
N7830G1X35.367Y180.526
N7840G1X34.418Y180.989
N7850G1X33.504Y181.417
N7860G1X32.623Y181.810
N7870G1X31.776Y182.169
N7880G1X30.962Y182.494
N7890G1X30.182Y182.787
N7900G1X29.435Y183.048
N7910G1X28.721Y183.277
N7920G1X28.041Y183.475
N7930G1X27.394Y183.644
N7940G1X26.781Y183.784
N7950G1X26.201Y183.896
N7960G1X25.655Y183.982
N7970G1X25.142Y184.042
N7980G1X24.663Y184.078
N7990G1X24.217Y184.092
N8000G1X23.804Y184.086
N8010G1X23.423Y184.061
N8020G1X23.073Y184.019
N8030G1X22.752Y183.962
N8040G1X22.458Y183.892
N8050G1X22.189Y183.810
N8060G1X21.942Y183.717
N8070G1X21.715Y183.614
N8080G1X21.503Y183.500
N8090G1X21.304Y183.376
N8100G1X21.115Y183.239
N8110G1X20.933Y183.089
N8120G1X20.757Y182.923
N8130G1X20.586Y182.740
N8140G1X20.418Y182.538
N8150G1X20.253Y182.315
N8160G1X20.092Y182.070
N8170G1X19.935Y181.802
N8180G1X19.782Y181.511
N8190G1X19.634Y181.196
N8200G1X19.492Y180.858
N8210G1X19.356Y180.496
N8220G1X19.227Y180.111
N8230G1X19.111Y179.724
N8240G1X18.884Y178.822
N8250G1X18.695Y177.863
N8260G1X18.537Y176.829
N8270G1X18.410Y175.727
N8280G1X18.312Y174.562
N8290G1X18.241Y173.341
N8300G1X18.194Y172.069
N8310G1X18.169Y170.752
N8320G1X18.161Y169.387
N8330G1Y138.836
N8340G1Z-11.500
N8350G1Y126.836
N8360G1Z-12.400F900.0
N8370G1Y85.611F1750.0
N8380G1X18.185Y84.166
N8390G1X18.259Y82.737
N8400G1X18.384Y81.301
N8410G1X18.560Y79.864
N8420G1X18.792Y78.416
N8430G1X18.924Y77.714
N8440G1X19.073Y77.001
N8450G1X19.235Y76.291
N8460G1X19.412Y75.584
N8470G1X19.603Y74.881
N8480G1X19.807Y74.182
N8490G1X20.027Y73.488
N8500G1X20.260Y72.798
N8510G1X20.509Y72.115
N8520G1X20.771Y71.437
N8530G1X21.049Y70.766
N8540G1X21.342Y70.103
N8550G1X21.649Y69.446
N8560G1X21.972Y68.797
N8570G1X22.310Y68.157
N8580G1X22.664Y67.526
N8590G1X23.033Y66.903
N8600G1X23.417Y66.290
N8610G1X23.818Y65.687
N8620G1X24.234Y65.094
N8630G1X24.666Y64.512
N8640G1X25.115Y63.941
N8650G1X25.580Y63.381
N8660G1X26.061Y62.832
N8670G1X26.560Y62.296
N8680G1X27.076Y61.772
N8690G1X27.608Y61.261
N8700G1X28.159Y60.762
N8710G1X28.727Y60.277
N8720G1X29.314Y59.806
N8730G1X29.918Y59.348
N8740G1X30.542Y58.905
N8750G1X31.185Y58.476
N8760G1X31.847Y58.063
N8770G1X32.529Y57.665
N8780G1X33.231Y57.282
N8790G1X33.954Y56.916
N8800G1X34.698Y56.566
N8810G1X35.463Y56.234
N8820G1Z-15.500F900.0
N8830G1X36.250Y55.919F1750.0
N8840G1X37.059Y55.622
N8850G1X37.891Y55.344
N8860G1X38.745Y55.084
N8870G1X39.623Y54.844
N8880G1X40.524Y54.625
N8890G1X41.449Y54.425
N8900G1X42.399Y54.248
N8910G1X43.373Y54.092
N8920G1X44.372Y53.958
N8930G1X45.397Y53.847
N8940G1X46.446Y53.760
N8950G1X47.522Y53.697
N8960G1X48.624Y53.659
N8970G1X49.769Y53.646
N8980G1X107.146
N8990G1Z-11.500
N9000G1X119.146
N9010G1Z-15.500F900.0
N9020G1X170.297F1750.0
N9030G1X167.893Y55.080
N9040G1X165.860Y56.293
N9050G1X163.642Y57.631
N9060G1X161.255Y59.096
N9070G1X158.712Y60.693
N9080G1X156.026Y62.426
N9090G1X153.207Y64.299
N9100G1X150.275Y66.313
N9110G1X148.760Y67.382
N9120G1X147.225Y68.484
N9130G1X145.666Y69.625
N9140G1X144.084Y70.805
N9150G1X142.481Y72.025
N9160G1X140.859Y73.285
N9170G1X139.220Y74.585
N9180G1X137.563Y75.927
N9190G1X135.892Y77.311
N9200G1X134.207Y78.737
N9210G1X132.510Y80.207
N9220G1X130.803Y81.720
N9230G1X129.087Y83.277
N9240G1X127.362Y84.880
N9250G1X125.632Y86.527
N9260G1X123.898Y88.221
N9270G1X122.160Y89.961
N9280G1X120.420Y91.748
N9290G1X118.680Y93.584
N9300G1X116.942Y95.467
N9310G1X115.206Y97.399
N9320G1X113.476Y99.379
N9330G1X110.878Y102.427
N9340G1X108.359Y105.442
N9350G1X105.912Y108.426
N9360G1X103.902Y110.917
N9370G1Z-11.500
N9380G1X103.532Y111.376
N9390G1X101.213Y114.293
N9400G1X98.948Y117.176
N9410G1X96.488Y120.352
N9420G1Z-15.500F900.0
N9430G1X94.570Y122.827F1750.0
N9440G1X90.347Y128.328
N9450G1X86.236Y133.673
N9460G1X84.211Y136.281
N9470G1X82.198Y138.847
N9480G1X80.191Y141.370
N9490G1X78.185Y143.848
N9500G1X76.175Y146.282
N9510G1X74.156Y148.669
N9520G1X72.121Y151.010
N9530G1X70.066Y153.304
N9540G1X67.980Y155.555
N9550G1X66.933Y156.655
N9560G1X65.872Y157.748
N9570G1X64.803Y158.829
N9580G1X63.723Y159.897
N9590G1X62.633Y160.954
N9600G1X61.531Y161.998
N9610G1X60.417Y163.029
N9620G1X59.291Y164.048
N9630G1X58.151Y165.055
N9640G1X56.997Y166.049
N9650G1X55.828Y167.030
N9660G1X54.644Y167.999
N9670G1X53.443Y168.955
N9680G1X52.225Y169.899
N9690G1X50.989Y170.830
N9700G1X49.735Y171.748
N9710G1X48.461Y172.653
N9720G1X47.168Y173.545
N9730G1X45.854Y174.425
N9740G1X44.518Y175.292
N9750G1X43.160Y176.145
N9760G1X41.776Y176.987
N9770G1X40.623Y177.669
N9780G1X39.502Y178.315
N9790G1X38.416Y178.923
N9800G1X37.365Y179.494
N9810G1X36.349Y180.028
N9820G1X35.367Y180.526
N9830G1X34.418Y180.989
N9840G1X33.504Y181.417
N9850G1X32.623Y181.810
N9860G1X31.776Y182.169
N9870G1X30.962Y182.494
N9880G1X30.182Y182.787
N9890G1X29.435Y183.048
N9900G1X28.721Y183.277
N9910G1X28.041Y183.475
N9920G1X27.394Y183.644
N9930G1X26.781Y183.784
N9940G1X26.201Y183.896
N9950G1X25.655Y183.982
N9960G1X25.142Y184.042
N9970G1X24.663Y184.078
N9980G1X24.217Y184.092
N9990G1X23.804Y184.086
N10000G1X23.423Y184.061
N10010G1X23.073Y184.019
N10020G1X22.752Y183.962
N10030G1X22.458Y183.892
N10040G1X22.189Y183.810
N10050G1X21.942Y183.717
N10060G1X21.715Y183.614
N10070G1X21.503Y183.500
N10080G1X21.304Y183.376
N10090G1X21.115Y183.239
N10100G1X20.933Y183.089
N10110G1X20.757Y182.923
N10120G1X20.586Y182.740
N10130G1X20.418Y182.538
N10140G1X20.253Y182.315
N10150G1X20.092Y182.070
N10160G1X19.935Y181.802
N10170G1X19.782Y181.511
N10180G1X19.634Y181.196
N10190G1X19.492Y180.858
N10200G1X19.356Y180.496
N10210G1X19.227Y180.111
N10220G1X19.111Y179.724
N10230G1X18.884Y178.822
N10240G1X18.695Y177.863
N10250G1X18.537Y176.829
N10260G1X18.410Y175.727
N10270G1X18.312Y174.562
N10280G1X18.241Y173.341
N10290G1X18.194Y172.069
N10300G1X18.169Y170.752
N10310G1X18.161Y169.387
N10320G1Y138.836
N10330G1Z-11.500
N10340G1Y126.836
N10350G1Z-15.500F900.0
N10360G1Y85.611F1750.0
N10370G1X18.185Y84.166
N10380G1X18.259Y82.737
N10390G1X18.384Y81.301
N10400G1X18.560Y79.864
N10410G1X18.792Y78.416
N10420G1X18.924Y77.714
N10430G1X19.073Y77.001
N10440G1X19.235Y76.291
N10450G1X19.412Y75.584
N10460G1X19.603Y74.881
N10470G1X19.807Y74.182
N10480G1X20.027Y73.488
N10490G1X20.260Y72.798
N10500G1X20.509Y72.115
N10510G1X20.771Y71.437
N10520G1X21.049Y70.766
N10530G1X21.342Y70.103
N10540G1X21.649Y69.446
N10550G1X21.972Y68.797
N10560G1X22.310Y68.157
N10570G1X22.664Y67.526
N10580G1X23.033Y66.903
N10590G1X23.417Y66.290
N10600G1X23.818Y65.687
N10610G1X24.234Y65.094
N10620G1X24.666Y64.512
N10630G1X25.115Y63.941
N10640G1X25.580Y63.381
N10650G1X26.061Y62.832
N10660G1X26.560Y62.296
N10670G1X27.076Y61.772
N10680G1X27.608Y61.261
N10690G1X28.159Y60.762
N10700G1X28.727Y60.277
N10710G1X29.314Y59.806
N10720G1X29.918Y59.348
N10730G1X30.542Y58.905
N10740G1X31.185Y58.476
N10750G1X31.847Y58.063
N10760G1X32.529Y57.665
N10770G1X33.231Y57.282
N10780G1X33.954Y56.916
N10790G1X34.698Y56.566
N10800G1X35.463Y56.234
N10810G00Z5.000
N10820G00X-2.773Y103.108
N10830G1Z-3.100F900.0
N10840G1Y115.108F1750.0
N10850G1Y199.230
N10860G2X-0.478Y202.146I3.000J0.000
N10870G1X1.421Y202.605
N10880G1X3.426Y203.041
N10890G1X5.499Y203.435
N10900G1X6.582Y203.615
N10910G1X7.674Y203.779
N10920G1X8.785Y203.928
N10930G1X9.916Y204.058
N10940G1X11.067Y204.170
N10950G1X12.238Y204.262
N10960G1X13.428Y204.332
N10970G1X14.637Y204.379
N10980G1X15.866Y204.401
N10990G1X17.115Y204.397
N11000G1X18.382Y204.366
N11010G1X19.669Y204.307
N11020G1X20.975Y204.217
N11030G1X22.299Y204.095
N11040G1X23.643Y203.941
N11050G1X25.005Y203.752
N11060G1X26.386Y203.528
N11070G1X27.785Y203.267
N11080G1X29.203Y202.968
N11090G1X30.639Y202.630
N11100G1X32.093Y202.251
N11110G1X33.565Y201.830
N11120G1X35.055Y201.366
N11130G1X36.564Y200.858
N11140G1X38.090Y200.303
N11150G1X39.634Y199.702
N11160G1X41.196Y199.053
N11170G1X42.776Y198.355
N11180G1X44.373Y197.606
N11190G1X45.989Y196.806
N11200G1X47.622Y195.952
N11210G1X49.273Y195.044
N11220G1X50.943Y194.081
N11230G1X52.630Y193.062
N11240G1X54.335Y191.985
N11250G1X56.058Y190.848
N11260G1X57.800Y189.652
N11270G1X59.560Y188.394
N11280G1X61.338Y187.073
N11290G1X63.135Y185.688
N11300G1X64.950Y184.238
N11310G1X66.784Y182.722
N11320G1X68.637Y181.138
N11330G1X70.509Y179.485
N11340G1X72.400Y177.761
N11350G1X74.310Y175.966
N11360G1X76.239Y174.099
N11370G1X78.188Y172.157
N11380G1X80.156Y170.140
N11390G1X82.144Y168.046
N11400G1X84.151Y165.874
N11410G1X86.179Y163.624
N11420G1X88.227Y161.292
N11430G1X90.294Y158.879
N11440G1X92.382Y156.382
N11450G1X94.490Y153.801
N11460G1X96.619Y151.134
N11470G1X98.762Y148.389
N11480G1X103.471Y142.309
N11490G1X107.844Y136.711
N11500G1X111.926Y131.546
N11510G1X115.754Y126.774
N11520G1X119.369Y122.350
N11530G1X121.104Y120.262
N11540G1X122.803Y118.243
N11550G1X124.467Y116.292
N11560G1X126.101Y114.403
N11570G1X127.710Y112.570
N11580G1X127.870Y112.391
N11590G1X129.300Y110.790
N11600G1X130.874Y109.056
N11610G1X132.438Y107.363
N11620G1X133.998Y105.705
N11630G1X135.557Y104.079
N11640G1X136.030Y103.594
N11650G1X137.121Y102.477
N11660G1X138.695Y100.895
N11670G1X140.284Y99.328
N11680G1X141.893Y97.769
N11690G1X143.527Y96.215
N11700G1X145.191Y94.659
N11710G1X146.890Y93.096
N11720G1X148.629Y91.522
N11730G1X150.413Y89.930
N11740G1X152.244Y88.319
N11750G1X156.086Y85.000
N11760G1X158.674Y82.806
N11770G1X161.198Y80.704
N11780G1X163.661Y78.693
N11790G1X166.068Y76.773
N11800G1X168.423Y74.942
N11810G1X170.731Y73.198
N11820G1X172.996Y71.541
N11830G1X175.223Y69.968
N11840G1X177.416Y68.479
N11850G1X179.581Y67.071
N11860G1X181.730Y65.739
N11870G1X182.785Y65.109
N11880G1X183.844Y64.493
N11890G1X184.899Y63.897
N11900G1X185.952Y63.320
N11910G1X187.001Y62.762
N11920G1X188.050Y62.222
N11930G1X189.097Y61.700
N11940G1X190.143Y61.197
N11950G1X191.190Y60.711
N11960G1X192.238Y60.242
N11970G1X193.287Y59.791
N11980G1X194.339Y59.357
N11990G1X195.394Y58.940
N12000G1X196.452Y58.539
N12010G1X197.514Y58.155
N12020G1X198.582Y57.787
N12030G1X199.655Y57.435
N12040G1X200.734Y57.098
N12050G1X201.821Y56.778
N12060G1X202.915Y56.472
N12070G1X204.018Y56.182
N12080G1X205.130Y55.907
N12090G1X206.252Y55.647
N12100G1X207.384Y55.402
N12110G1X208.528Y55.171
N12120G1X209.683Y54.954
N12130G1X210.851Y54.752
N12140G1X212.033Y54.563
N12150G1X213.228Y54.389
N12160G1X214.438Y54.228
N12170G1X215.663Y54.082
N12180G1X216.905Y53.948
N12190G1X218.162Y53.828
N12200G1X219.429Y53.722
N12210G1X222.041Y53.547
N12220G1X224.721Y53.423
N12230G1X227.482Y53.350
N12240G1X230.379Y53.325
N12250G1X230.839Y53.314
N12260G1X231.346Y53.274
N12270G1X231.847Y53.209
N12280G1X232.342Y53.118
N12290G1X232.828Y53.002
N12300G1X233.305Y52.861
N12310G1X233.772Y52.696
N12320G1X234.227Y52.509
N12330G1X234.671Y52.300
N12340G1X235.102Y52.071
N12350G1X235.521Y51.823
N12360G1X235.926Y51.556
N12370G1X236.318Y51.273
N12380G1X236.720Y50.955
N12390G1X237.416Y50.333
N12400G1X238.087Y49.636
N12410G1X238.710Y48.892
N12420G1X239.291Y48.103
N12430G1X239.832Y47.275
N12440G1X240.337Y46.409
N12450G1X240.806Y45.508
N12460G1X241.243Y44.573
N12470G1X241.650Y43.607
N12480G1X242.028Y42.611
N12490G1X242.378Y41.587
N12500G1X242.702Y40.536
N12510G1X243.000Y39.461
N12520G1X243.273Y38.362
N12530G1X243.522Y37.243
N12540G1X243.747Y36.104
N12550G1X243.949Y34.948
N12560G1X244.128Y33.776
N12570G1X244.285Y32.590
N12580G1X244.419Y31.393
N12590G1X244.532Y30.186
N12600G1X244.623Y28.971
N12610G1X244.692Y27.751
N12620G1X244.741Y26.527
N12630G1X244.768Y25.301
N12640G1X244.775Y24.075
N12650G1X244.761Y22.852
N12660G1X244.726Y21.634
N12670G1X244.671Y20.421
N12680G1X244.596Y19.218
N12690G1X244.500Y18.025
N12700G1X244.384Y16.844
N12710G1X244.247Y15.678
N12720G1X244.091Y14.528
N12730G1X243.914Y13.397
N12740G1X243.716Y12.286
N12750G1X243.498Y11.197
N12760G1X243.259Y10.132
N12770G1X242.999Y9.092
N12780G1X242.717Y8.080
N12790G1X242.413Y7.096
N12800G1X242.086Y6.142
N12810G1X241.735Y5.220
N12820G1X241.358Y4.331
N12830G1X240.954Y3.476
N12840G1X240.521Y2.657
N12850G1X240.055Y1.874
N12860G1X239.553Y1.130
N12870G1X239.010Y0.427
N12880G1X238.422Y-0.231
N12890G1X237.781Y-0.839
N12900G1X237.115Y-1.364
N12910G1X236.713Y-1.634
N12920G1X236.325Y-1.865
N12930G1X235.923Y-2.075
N12940G1X235.505Y-2.263
N12950G1X235.073Y-2.425
N12960G1X234.628Y-2.561
N12970G1X234.172Y-2.669
N12980G1X233.707Y-2.747
N12990G1X233.236Y-2.794
N13000G1X232.810Y-2.808
N13010G1X156.635
N13020G1X144.635
N13030G1X0.227
N13040G2X-2.773Y0.192I0.000J3.000
N13050G1Y103.108
N13060G1Z-6.200F900.0
N13070G1Y115.108F1750.0
N13080G1Y199.230
N13090G2X-0.478Y202.146I3.000J0.000
N13100G1X1.421Y202.605
N13110G1X3.426Y203.041
N13120G1X5.499Y203.435
N13130G1X6.582Y203.615
N13140G1X7.674Y203.779
N13150G1X8.785Y203.928
N13160G1X9.916Y204.058
N13170G1X11.067Y204.170
N13180G1X12.238Y204.262
N13190G1X13.428Y204.332
N13200G1X14.637Y204.379
N13210G1X15.866Y204.401
N13220G1X17.115Y204.397
N13230G1X18.382Y204.366
N13240G1X19.669Y204.307
N13250G1X20.975Y204.217
N13260G1X22.299Y204.095
N13270G1X23.643Y203.941
N13280G1X25.005Y203.752
N13290G1X26.386Y203.528
N13300G1X27.785Y203.267
N13310G1X29.203Y202.968
N13320G1X30.639Y202.630
N13330G1X32.093Y202.251
N13340G1X33.565Y201.830
N13350G1X35.055Y201.366
N13360G1X36.564Y200.858
N13370G1X38.090Y200.303
N13380G1X39.634Y199.702
N13390G1X41.196Y199.053
N13400G1X42.776Y198.355
N13410G1X44.373Y197.606
N13420G1X45.989Y196.806
N13430G1X47.622Y195.952
N13440G1X49.273Y195.044
N13450G1X50.943Y194.081
N13460G1X52.630Y193.062
N13470G1X54.335Y191.985
N13480G1X56.058Y190.848
N13490G1X57.800Y189.652
N13500G1X59.560Y188.394
N13510G1X61.338Y187.073
N13520G1X63.135Y185.688
N13530G1X64.950Y184.238
N13540G1X66.784Y182.722
N13550G1X68.637Y181.138
N13560G1X70.509Y179.485
N13570G1X72.400Y177.761
N13580G1X74.310Y175.966
N13590G1X76.239Y174.099
N13600G1X78.188Y172.157
N13610G1X80.156Y170.140
N13620G1X82.144Y168.046
N13630G1X84.151Y165.874
N13640G1X86.179Y163.624
N13650G1X88.227Y161.292
N13660G1X90.294Y158.879
N13670G1X92.382Y156.382
N13680G1X94.490Y153.801
N13690G1X96.619Y151.134
N13700G1X98.762Y148.389
N13710G1X103.471Y142.309
N13720G1X107.844Y136.711
N13730G1X111.926Y131.546
N13740G1X115.754Y126.774
N13750G1X119.369Y122.350
N13760G1X121.104Y120.262
N13770G1X122.803Y118.243
N13780G1X124.467Y116.292
N13790G1X126.101Y114.403
N13800G1X127.710Y112.570
N13810G1X127.870Y112.391
N13820G1X129.300Y110.790
N13830G1X130.874Y109.056
N13840G1X132.438Y107.363
N13850G1X133.998Y105.705
N13860G1X135.557Y104.079
N13870G1X136.030Y103.594
N13880G1X137.121Y102.477
N13890G1X138.695Y100.895
N13900G1X140.284Y99.328
N13910G1X141.893Y97.769
N13920G1X143.527Y96.215
N13930G1X145.191Y94.659
N13940G1X146.890Y93.096
N13950G1X148.629Y91.522
N13960G1X150.413Y89.930
N13970G1X152.244Y88.319
N13980G1X156.086Y85.000
N13990G1X158.674Y82.806
N14000G1X161.198Y80.704
N14010G1X163.661Y78.693
N14020G1X166.068Y76.773
N14030G1X168.423Y74.942
N14040G1X170.731Y73.198
N14050G1X172.996Y71.541
N14060G1X175.223Y69.968
N14070G1X177.416Y68.479
N14080G1X179.581Y67.071
N14090G1X181.730Y65.739
N14100G1X182.785Y65.109
N14110G1X183.844Y64.493
N14120G1X184.899Y63.897
N14130G1X185.952Y63.320
N14140G1X187.001Y62.762
N14150G1X188.050Y62.222
N14160G1X189.097Y61.700
N14170G1X190.143Y61.197
N14180G1X191.190Y60.711
N14190G1X192.238Y60.242
N14200G1X193.287Y59.791
N14210G1X194.339Y59.357
N14220G1X195.394Y58.940
N14230G1X196.452Y58.539
N14240G1X197.514Y58.155
N14250G1X198.582Y57.787
N14260G1X199.655Y57.435
N14270G1X200.734Y57.098
N14280G1X201.821Y56.778
N14290G1X202.915Y56.472
N14300G1X204.018Y56.182
N14310G1X205.130Y55.907
N14320G1X206.252Y55.647
N14330G1X207.384Y55.402
N14340G1X208.528Y55.171
N14350G1X209.683Y54.954
N14360G1X210.851Y54.752
N14370G1X212.033Y54.563
N14380G1X213.228Y54.389
N14390G1X214.438Y54.228
N14400G1X215.663Y54.082
N14410G1X216.905Y53.948
N14420G1X218.162Y53.828
N14430G1X219.429Y53.722
N14440G1X222.041Y53.547
N14450G1X224.721Y53.423
N14460G1X227.482Y53.350
N14470G1X230.379Y53.325
N14480G1X230.839Y53.314
N14490G1X231.346Y53.274
N14500G1X231.847Y53.209
N14510G1X232.342Y53.118
N14520G1X232.828Y53.002
N14530G1X233.305Y52.861
N14540G1X233.772Y52.696
N14550G1X234.227Y52.509
N14560G1X234.671Y52.300
N14570G1X235.102Y52.071
N14580G1X235.521Y51.823
N14590G1X235.926Y51.556
N14600G1X236.318Y51.273
N14610G1X236.720Y50.955
N14620G1X237.416Y50.333
N14630G1X238.087Y49.636
N14640G1X238.710Y48.892
N14650G1X239.291Y48.103
N14660G1X239.832Y47.275
N14670G1X240.337Y46.409
N14680G1X240.806Y45.508
N14690G1X241.243Y44.573
N14700G1X241.650Y43.607
N14710G1X242.028Y42.611
N14720G1X242.378Y41.587
N14730G1X242.702Y40.536
N14740G1X243.000Y39.461
N14750G1X243.273Y38.362
N14760G1X243.522Y37.243
N14770G1X243.747Y36.104
N14780G1X243.949Y34.948
N14790G1X244.128Y33.776
N14800G1X244.285Y32.590
N14810G1X244.419Y31.393
N14820G1X244.532Y30.186
N14830G1X244.623Y28.971
N14840G1X244.692Y27.751
N14850G1X244.741Y26.527
N14860G1X244.768Y25.301
N14870G1X244.775Y24.075
N14880G1X244.761Y22.852
N14890G1X244.726Y21.634
N14900G1X244.671Y20.421
N14910G1X244.596Y19.218
N14920G1X244.500Y18.025
N14930G1X244.384Y16.844
N14940G1X244.247Y15.678
N14950G1X244.091Y14.528
N14960G1X243.914Y13.397
N14970G1X243.716Y12.286
N14980G1X243.498Y11.197
N14990G1X243.259Y10.132
N15000G1X242.999Y9.092
N15010G1X242.717Y8.080
N15020G1X242.413Y7.096
N15030G1X242.086Y6.142
N15040G1X241.735Y5.220
N15050G1X241.358Y4.331
N15060G1X240.954Y3.476
N15070G1X240.521Y2.657
N15080G1X240.055Y1.874
N15090G1X239.553Y1.130
N15100G1X239.010Y0.427
N15110G1X238.422Y-0.231
N15120G1X237.781Y-0.839
N15130G1X237.115Y-1.364
N15140G1X236.713Y-1.634
N15150G1X236.325Y-1.865
N15160G1X235.923Y-2.075
N15170G1X235.505Y-2.263
N15180G1X235.073Y-2.425
N15190G1X234.628Y-2.561
N15200G1X234.172Y-2.669
N15210G1X233.707Y-2.747
N15220G1X233.236Y-2.794
N15230G1X232.810Y-2.808
N15240G1X156.635
N15250G1X144.635
N15260G1X0.227
N15270G2X-2.773Y0.192I0.000J3.000
N15280G1Y103.108
N15290G1Z-9.300F900.0
N15300G1Y115.108F1750.0
N15310G1Y199.230
N15320G2X-0.478Y202.146I3.000J0.000
N15330G1X1.421Y202.605
N15340G1X3.426Y203.041
N15350G1X5.499Y203.435
N15360G1X6.582Y203.615
N15370G1X7.674Y203.779
N15380G1X8.785Y203.928
N15390G1X9.916Y204.058
N15400G1X11.067Y204.170
N15410G1X12.238Y204.262
N15420G1X13.428Y204.332
N15430G1X14.637Y204.379
N15440G1X15.866Y204.401
N15450G1X17.115Y204.397
N15460G1X18.382Y204.366
N15470G1X19.669Y204.307
N15480G1X20.975Y204.217
N15490G1X22.299Y204.095
N15500G1X23.643Y203.941
N15510G1X25.005Y203.752
N15520G1X26.386Y203.528
N15530G1X27.785Y203.267
N15540G1X29.203Y202.968
N15550G1X30.639Y202.630
N15560G1X32.093Y202.251
N15570G1X33.565Y201.830
N15580G1X35.055Y201.366
N15590G1X36.564Y200.858
N15600G1X38.090Y200.303
N15610G1X39.634Y199.702
N15620G1X41.196Y199.053
N15630G1X42.776Y198.355
N15640G1X44.373Y197.606
N15650G1X45.989Y196.806
N15660G1X47.622Y195.952
N15670G1X49.273Y195.044
N15680G1X50.943Y194.081
N15690G1X52.630Y193.062
N15700G1X54.335Y191.985
N15710G1X56.058Y190.848
N15720G1X57.800Y189.652
N15730G1X59.560Y188.394
N15740G1X61.338Y187.073
N15750G1X63.135Y185.688
N15760G1X64.950Y184.238
N15770G1X66.784Y182.722
N15780G1X68.637Y181.138
N15790G1X70.509Y179.485
N15800G1X72.400Y177.761
N15810G1X74.310Y175.966
N15820G1X76.239Y174.099
N15830G1X78.188Y172.157
N15840G1X80.156Y170.140
N15850G1X82.144Y168.046
N15860G1X84.151Y165.874
N15870G1X86.179Y163.624
N15880G1X88.227Y161.292
N15890G1X90.294Y158.879
N15900G1X92.382Y156.382
N15910G1X94.490Y153.801
N15920G1X96.619Y151.134
N15930G1X98.762Y148.389
N15940G1X103.471Y142.309
N15950G1X107.844Y136.711
N15960G1X111.926Y131.546
N15970G1X115.754Y126.774
N15980G1X119.369Y122.350
N15990G1X121.104Y120.262
N16000G1X122.803Y118.243
N16010G1X124.467Y116.292
N16020G1X126.101Y114.403
N16030G1X127.710Y112.570
N16040G1X127.870Y112.391
N16050G1X129.300Y110.790
N16060G1X130.874Y109.056
N16070G1X132.438Y107.363
N16080G1X133.998Y105.705
N16090G1X135.557Y104.079
N16100G1X136.030Y103.594
N16110G1X137.121Y102.477
N16120G1X138.695Y100.895
N16130G1X140.284Y99.328
N16140G1X141.893Y97.769
N16150G1X143.527Y96.215
N16160G1X145.191Y94.659
N16170G1X146.890Y93.096
N16180G1X148.629Y91.522
N16190G1X150.413Y89.930
N16200G1X152.244Y88.319
N16210G1X156.086Y85.000
N16220G1X158.674Y82.806
N16230G1X161.198Y80.704
N16240G1X163.661Y78.693
N16250G1X166.068Y76.773
N16260G1X168.423Y74.942
N16270G1X170.731Y73.198
N16280G1X172.996Y71.541
N16290G1X175.223Y69.968
N16300G1X177.416Y68.479
N16310G1X179.581Y67.071
N16320G1X181.730Y65.739
N16330G1X182.785Y65.109
N16340G1X183.844Y64.493
N16350G1X184.899Y63.897
N16360G1X185.952Y63.320
N16370G1X187.001Y62.762
N16380G1X188.050Y62.222
N16390G1X189.097Y61.700
N16400G1X190.143Y61.197
N16410G1X191.190Y60.711
N16420G1X192.238Y60.242
N16430G1X193.287Y59.791
N16440G1X194.339Y59.357
N16450G1X195.394Y58.940
N16460G1X196.452Y58.539
N16470G1X197.514Y58.155
N16480G1X198.582Y57.787
N16490G1X199.655Y57.435
N16500G1X200.734Y57.098
N16510G1X201.821Y56.778
N16520G1X202.915Y56.472
N16530G1X204.018Y56.182
N16540G1X205.130Y55.907
N16550G1X206.252Y55.647
N16560G1X207.384Y55.402
N16570G1X208.528Y55.171
N16580G1X209.683Y54.954
N16590G1X210.851Y54.752
N16600G1X212.033Y54.563
N16610G1X213.228Y54.389
N16620G1X214.438Y54.228
N16630G1X215.663Y54.082
N16640G1X216.905Y53.948
N16650G1X218.162Y53.828
N16660G1X219.429Y53.722
N16670G1X222.041Y53.547
N16680G1X224.721Y53.423
N16690G1X227.482Y53.350
N16700G1X230.379Y53.325
N16710G1X230.839Y53.314
N16720G1X231.346Y53.274
N16730G1X231.847Y53.209
N16740G1X232.342Y53.118
N16750G1X232.828Y53.002
N16760G1X233.305Y52.861
N16770G1X233.772Y52.696
N16780G1X234.227Y52.509
N16790G1X234.671Y52.300
N16800G1X235.102Y52.071
N16810G1X235.521Y51.823
N16820G1X235.926Y51.556
N16830G1X236.318Y51.273
N16840G1X236.720Y50.955
N16850G1X237.416Y50.333
N16860G1X238.087Y49.636
N16870G1X238.710Y48.892
N16880G1X239.291Y48.103
N16890G1X239.832Y47.275
N16900G1X240.337Y46.409
N16910G1X240.806Y45.508
N16920G1X241.243Y44.573
N16930G1X241.650Y43.607
N16940G1X242.028Y42.611
N16950G1X242.378Y41.587
N16960G1X242.702Y40.536
N16970G1X243.000Y39.461
N16980G1X243.273Y38.362
N16990G1X243.522Y37.243
N17000G1X243.747Y36.104
N17010G1X243.949Y34.948
N17020G1X244.128Y33.776
N17030G1X244.285Y32.590
N17040G1X244.419Y31.393
N17050G1X244.532Y30.186
N17060G1X244.623Y28.971
N17070G1X244.692Y27.751
N17080G1X244.741Y26.527
N17090G1X244.768Y25.301
N17100G1X244.775Y24.075
N17110G1X244.761Y22.852
N17120G1X244.726Y21.634
N17130G1X244.671Y20.421
N17140G1X244.596Y19.218
N17150G1X244.500Y18.025
N17160G1X244.384Y16.844
N17170G1X244.247Y15.678
N17180G1X244.091Y14.528
N17190G1X243.914Y13.397
N17200G1X243.716Y12.286
N17210G1X243.498Y11.197
N17220G1X243.259Y10.132
N17230G1X242.999Y9.092
N17240G1X242.717Y8.080
N17250G1X242.413Y7.096
N17260G1X242.086Y6.142
N17270G1X241.735Y5.220
N17280G1X241.358Y4.331
N17290G1X240.954Y3.476
N17300G1X240.521Y2.657
N17310G1X240.055Y1.874
N17320G1X239.553Y1.130
N17330G1X239.010Y0.427
N17340G1X238.422Y-0.231
N17350G1X237.781Y-0.839
N17360G1X237.115Y-1.364
N17370G1X236.713Y-1.634
N17380G1X236.325Y-1.865
N17390G1X235.923Y-2.075
N17400G1X235.505Y-2.263
N17410G1X235.073Y-2.425
N17420G1X234.628Y-2.561
N17430G1X234.172Y-2.669
N17440G1X233.707Y-2.747
N17450G1X233.236Y-2.794
N17460G1X232.810Y-2.808
N17470G1X156.635
N17480G1X144.635
N17490G1X0.227
N17500G2X-2.773Y0.192I0.000J3.000
N17510G1Y103.108
N17520G1Z-12.400F900.0
N17530G1Z-11.500F1750.0
N17540G1Y115.108
N17550G1Z-12.400F900.0
N17560G1Y199.230F1750.0
N17570G2X-0.478Y202.146I3.000J0.000
N17580G1X1.421Y202.605
N17590G1X3.426Y203.041
N17600G1X5.499Y203.435
N17610G1X6.582Y203.615
N17620G1X7.674Y203.779
N17630G1X8.785Y203.928
N17640G1X9.916Y204.058
N17650G1X11.067Y204.170
N17660G1X12.238Y204.262
N17670G1X13.428Y204.332
N17680G1X14.637Y204.379
N17690G1X15.866Y204.401
N17700G1X17.115Y204.397
N17710G1X18.382Y204.366
N17720G1X19.669Y204.307
N17730G1X20.975Y204.217
N17740G1X22.299Y204.095
N17750G1X23.643Y203.941
N17760G1X25.005Y203.752
N17770G1X26.386Y203.528
N17780G1X27.785Y203.267
N17790G1X29.203Y202.968
N17800G1X30.639Y202.630
N17810G1X32.093Y202.251
N17820G1X33.565Y201.830
N17830G1X35.055Y201.366
N17840G1X36.564Y200.858
N17850G1X38.090Y200.303
N17860G1X39.634Y199.702
N17870G1X41.196Y199.053
N17880G1X42.776Y198.355
N17890G1X44.373Y197.606
N17900G1X45.989Y196.806
N17910G1X47.622Y195.952
N17920G1X49.273Y195.044
N17930G1X50.943Y194.081
N17940G1X52.630Y193.062
N17950G1X54.335Y191.985
N17960G1X56.058Y190.848
N17970G1X57.800Y189.652
N17980G1X59.560Y188.394
N17990G1X61.338Y187.073
N18000G1X63.135Y185.688
N18010G1X64.950Y184.238
N18020G1X66.784Y182.722
N18030G1X68.637Y181.138
N18040G1X70.509Y179.485
N18050G1X72.400Y177.761
N18060G1X74.310Y175.966
N18070G1X76.239Y174.099
N18080G1X78.188Y172.157
N18090G1X80.156Y170.140
N18100G1X82.144Y168.046
N18110G1X84.151Y165.874
N18120G1X86.179Y163.624
N18130G1X88.227Y161.292
N18140G1X90.294Y158.879
N18150G1X92.382Y156.382
N18160G1X94.490Y153.801
N18170G1X96.619Y151.134
N18180G1X98.762Y148.389
N18190G1X103.471Y142.309
N18200G1X107.844Y136.711
N18210G1X111.926Y131.546
N18220G1X115.754Y126.774
N18230G1X119.369Y122.350
N18240G1X121.104Y120.262
N18250G1X122.803Y118.243
N18260G1X124.467Y116.292
N18270G1X126.101Y114.403
N18280G1X127.710Y112.570
N18290G1X127.870Y112.391
N18300G1Z-11.500
N18310G1X129.300Y110.790
N18320G1X130.874Y109.056
N18330G1X132.438Y107.363
N18340G1X133.998Y105.705
N18350G1X135.557Y104.079
N18360G1X136.030Y103.594
N18370G1Z-12.400F900.0
N18380G1X137.121Y102.477F1750.0
N18390G1X138.695Y100.895
N18400G1X140.284Y99.328
N18410G1X141.893Y97.769
N18420G1X143.527Y96.215
N18430G1X145.191Y94.659
N18440G1X146.890Y93.096
N18450G1X148.629Y91.522
N18460G1X150.413Y89.930
N18470G1X152.244Y88.319
N18480G1X156.086Y85.000
N18490G1X158.674Y82.806
N18500G1X161.198Y80.704
N18510G1X163.661Y78.693
N18520G1X166.068Y76.773
N18530G1X168.423Y74.942
N18540G1X170.731Y73.198
N18550G1X172.996Y71.541
N18560G1X175.223Y69.968
N18570G1X177.416Y68.479
N18580G1X179.581Y67.071
N18590G1X181.730Y65.739
N18600G1X182.785Y65.109
N18610G1X183.844Y64.493
N18620G1X184.899Y63.897
N18630G1X185.952Y63.320
N18640G1X187.001Y62.762
N18650G1X188.050Y62.222
N18660G1X189.097Y61.700
N18670G1X190.143Y61.197
N18680G1X191.190Y60.711
N18690G1X192.238Y60.242
N18700G1X193.287Y59.791
N18710G1X194.339Y59.357
N18720G1X195.394Y58.940
N18730G1X196.452Y58.539
N18740G1X197.514Y58.155
N18750G1X198.582Y57.787
N18760G1X199.655Y57.435
N18770G1X200.734Y57.098
N18780G1X201.821Y56.778
N18790G1X202.915Y56.472
N18800G1X204.018Y56.182
N18810G1X205.130Y55.907
N18820G1X206.252Y55.647
N18830G1X207.384Y55.402
N18840G1X208.528Y55.171
N18850G1X209.683Y54.954
N18860G1X210.851Y54.752
N18870G1X212.033Y54.563
N18880G1X213.228Y54.389
N18890G1X214.438Y54.228
N18900G1X215.663Y54.082
N18910G1X216.905Y53.948
N18920G1X218.162Y53.828
N18930G1X219.429Y53.722
N18940G1X222.041Y53.547
N18950G1X224.721Y53.423
N18960G1X227.482Y53.350
N18970G1X230.379Y53.325
N18980G1X230.839Y53.314
N18990G1X231.346Y53.274
N19000G1X231.847Y53.209
N19010G1X232.342Y53.118
N19020G1X232.828Y53.002
N19030G1X233.305Y52.861
N19040G1X233.772Y52.696
N19050G1X234.227Y52.509
N19060G1X234.671Y52.300
N19070G1X235.102Y52.071
N19080G1X235.521Y51.823
N19090G1X235.926Y51.556
N19100G1X236.318Y51.273
N19110G1X236.720Y50.955
N19120G1X237.416Y50.333
N19130G1X238.087Y49.636
N19140G1X238.710Y48.892
N19150G1X239.291Y48.103
N19160G1X239.832Y47.275
N19170G1X240.337Y46.409
N19180G1X240.806Y45.508
N19190G1X241.243Y44.573
N19200G1X241.650Y43.607
N19210G1X242.028Y42.611
N19220G1X242.378Y41.587
N19230G1X242.702Y40.536
N19240G1X243.000Y39.461
N19250G1X243.273Y38.362
N19260G1X243.522Y37.243
N19270G1X243.747Y36.104
N19280G1X243.949Y34.948
N19290G1X244.128Y33.776
N19300G1X244.285Y32.590
N19310G1X244.419Y31.393
N19320G1X244.532Y30.186
N19330G1X244.623Y28.971
N19340G1X244.692Y27.751
N19350G1X244.741Y26.527
N19360G1X244.768Y25.301
N19370G1X244.775Y24.075
N19380G1X244.761Y22.852
N19390G1X244.726Y21.634
N19400G1X244.671Y20.421
N19410G1X244.596Y19.218
N19420G1X244.500Y18.025
N19430G1X244.384Y16.844
N19440G1X244.247Y15.678
N19450G1X244.091Y14.528
N19460G1X243.914Y13.397
N19470G1X243.716Y12.286
N19480G1X243.498Y11.197
N19490G1X243.259Y10.132
N19500G1X242.999Y9.092
N19510G1X242.717Y8.080
N19520G1X242.413Y7.096
N19530G1X242.086Y6.142
N19540G1X241.735Y5.220
N19550G1X241.358Y4.331
N19560G1X240.954Y3.476
N19570G1X240.521Y2.657
N19580G1X240.055Y1.874
N19590G1X239.553Y1.130
N19600G1X239.010Y0.427
N19610G1X238.422Y-0.231
N19620G1X237.781Y-0.839
N19630G1X237.115Y-1.364
N19640G1X236.713Y-1.634
N19650G1X236.325Y-1.865
N19660G1X235.923Y-2.075
N19670G1X235.505Y-2.263
N19680G1X235.073Y-2.425
N19690G1X234.628Y-2.561
N19700G1X234.172Y-2.669
N19710G1X233.707Y-2.747
N19720G1X233.236Y-2.794
N19730G1X232.810Y-2.808
N19740G1X156.635
N19750G1Z-11.500
N19760G1X144.635
N19770G1Z-12.400F900.0
N19780G1X0.227F1750.0
N19790G2X-2.773Y0.192I0.000J3.000
N19800G1Y103.108
N19810G1Z-15.500F900.0
N19820G1Z-11.500F1750.0
N19830G1Y115.108
N19840G1Z-15.500F900.0
N19850G1Y199.230F1750.0
N19860G2X-0.478Y202.146I3.000J0.000
N19870G1X1.421Y202.605
N19880G1X3.426Y203.041
N19890G1X5.499Y203.435
N19900G1X6.582Y203.615
N19910G1X7.674Y203.779
N19920G1X8.785Y203.928
N19930G1X9.916Y204.058
N19940G1X11.067Y204.170
N19950G1X12.238Y204.262
N19960G1X13.428Y204.332
N19970G1X14.637Y204.379
N19980G1X15.866Y204.401
N19990G1X17.115Y204.397
N20000G1X18.382Y204.366
N20010G1X19.669Y204.307
N20020G1X20.975Y204.217
N20030G1X22.299Y204.095
N20040G1X23.643Y203.941
N20050G1X25.005Y203.752
N20060G1X26.386Y203.528
N20070G1X27.785Y203.267
N20080G1X29.203Y202.968
N20090G1X30.639Y202.630
N20100G1X32.093Y202.251
N20110G1X33.565Y201.830
N20120G1X35.055Y201.366
N20130G1X36.564Y200.858
N20140G1X38.090Y200.303
N20150G1X39.634Y199.702
N20160G1X41.196Y199.053
N20170G1X42.776Y198.355
N20180G1X44.373Y197.606
N20190G1X45.989Y196.806
N20200G1X47.622Y195.952
N20210G1X49.273Y195.044
N20220G1X50.943Y194.081
N20230G1X52.630Y193.062
N20240G1X54.335Y191.985
N20250G1X56.058Y190.848
N20260G1X57.800Y189.652
N20270G1X59.560Y188.394
N20280G1X61.338Y187.073
N20290G1X63.135Y185.688
N20300G1X64.950Y184.238
N20310G1X66.784Y182.722
N20320G1X68.637Y181.138
N20330G1X70.509Y179.485
N20340G1X72.400Y177.761
N20350G1X74.310Y175.966
N20360G1X76.239Y174.099
N20370G1X78.188Y172.157
N20380G1X80.156Y170.140
N20390G1X82.144Y168.046
N20400G1X84.151Y165.874
N20410G1X86.179Y163.624
N20420G1X88.227Y161.292
N20430G1X90.294Y158.879
N20440G1X92.382Y156.382
N20450G1X94.490Y153.801
N20460G1X96.619Y151.134
N20470G1X98.762Y148.389
N20480G1X103.471Y142.309
N20490G1X107.844Y136.711
N20500G1X111.926Y131.546
N20510G1X115.754Y126.774
N20520G1X119.369Y122.350
N20530G1X121.104Y120.262
N20540G1X122.803Y118.243
N20550G1X124.467Y116.292
N20560G1X126.101Y114.403
N20570G1X127.710Y112.570
N20580G1X127.870Y112.391
N20590G1Z-11.500
N20600G1X129.300Y110.790
N20610G1X130.874Y109.056
N20620G1X132.438Y107.363
N20630G1X133.998Y105.705
N20640G1X135.557Y104.079
N20650G1X136.030Y103.594
N20660G1Z-15.500F900.0
N20670G1X137.121Y102.477F1750.0
N20680G1X138.695Y100.895
N20690G1X140.284Y99.328
N20700G1X141.893Y97.769
N20710G1X143.527Y96.215
N20720G1X145.191Y94.659
N20730G1X146.890Y93.096
N20740G1X148.629Y91.522
N20750G1X150.413Y89.930
N20760G1X152.244Y88.319
N20770G1X156.086Y85.000
N20780G1X158.674Y82.806
N20790G1X161.198Y80.704
N20800G1X163.661Y78.693
N20810G1X166.068Y76.773
N20820G1X168.423Y74.942
N20830G1X170.731Y73.198
N20840G1X172.996Y71.541
N20850G1X175.223Y69.968
N20860G1X177.416Y68.479
N20870G1X179.581Y67.071
N20880G1X181.730Y65.739
N20890G1X182.785Y65.109
N20900G1X183.844Y64.493
N20910G1X184.899Y63.897
N20920G1X185.952Y63.320
N20930G1X187.001Y62.762
N20940G1X188.050Y62.222
N20950G1X189.097Y61.700
N20960G1X190.143Y61.197
N20970G1X191.190Y60.711
N20980G1X192.238Y60.242
N20990G1X193.287Y59.791
N21000G1X194.339Y59.357
N21010G1X195.394Y58.940
N21020G1X196.452Y58.539
N21030G1X197.514Y58.155
N21040G1X198.582Y57.787
N21050G1X199.655Y57.435
N21060G1X200.734Y57.098
N21070G1X201.821Y56.778
N21080G1X202.915Y56.472
N21090G1X204.018Y56.182
N21100G1X205.130Y55.907
N21110G1X206.252Y55.647
N21120G1X207.384Y55.402
N21130G1X208.528Y55.171
N21140G1X209.683Y54.954
N21150G1X210.851Y54.752
N21160G1X212.033Y54.563
N21170G1X213.228Y54.389
N21180G1X214.438Y54.228
N21190G1X215.663Y54.082
N21200G1X216.905Y53.948
N21210G1X218.162Y53.828
N21220G1X219.429Y53.722
N21230G1X222.041Y53.547
N21240G1X224.721Y53.423
N21250G1X227.482Y53.350
N21260G1X230.379Y53.325
N21270G1X230.839Y53.314
N21280G1X231.346Y53.274
N21290G1X231.847Y53.209
N21300G1X232.342Y53.118
N21310G1X232.828Y53.002
N21320G1X233.305Y52.861
N21330G1X233.772Y52.696
N21340G1X234.227Y52.509
N21350G1X234.671Y52.300
N21360G1X235.102Y52.071
N21370G1X235.521Y51.823
N21380G1X235.926Y51.556
N21390G1X236.318Y51.273
N21400G1X236.720Y50.955
N21410G1X237.416Y50.333
N21420G1X238.087Y49.636
N21430G1X238.710Y48.892
N21440G1X239.291Y48.103
N21450G1X239.832Y47.275
N21460G1X240.337Y46.409
N21470G1X240.806Y45.508
N21480G1X241.243Y44.573
N21490G1X241.650Y43.607
N21500G1X242.028Y42.611
N21510G1X242.378Y41.587
N21520G1X242.702Y40.536
N21530G1X243.000Y39.461
N21540G1X243.273Y38.362
N21550G1X243.522Y37.243
N21560G1X243.747Y36.104
N21570G1X243.949Y34.948
N21580G1X244.128Y33.776
N21590G1X244.285Y32.590
N21600G1X244.419Y31.393
N21610G1X244.532Y30.186
N21620G1X244.623Y28.971
N21630G1X244.692Y27.751
N21640G1X244.741Y26.527
N21650G1X244.768Y25.301
N21660G1X244.775Y24.075
N21670G1X244.761Y22.852
N21680G1X244.726Y21.634
N21690G1X244.671Y20.421
N21700G1X244.596Y19.218
N21710G1X244.500Y18.025
N21720G1X244.384Y16.844
N21730G1X244.247Y15.678
N21740G1X244.091Y14.528
N21750G1X243.914Y13.397
N21760G1X243.716Y12.286
N21770G1X243.498Y11.197
N21780G1X243.259Y10.132
N21790G1X242.999Y9.092
N21800G1X242.717Y8.080
N21810G1X242.413Y7.096
N21820G1X242.086Y6.142
N21830G1X241.735Y5.220
N21840G1X241.358Y4.331
N21850G1X240.954Y3.476
N21860G1X240.521Y2.657
N21870G1X240.055Y1.874
N21880G1X239.553Y1.130
N21890G1X239.010Y0.427
N21900G1X238.422Y-0.231
N21910G1X237.781Y-0.839
N21920G1X237.115Y-1.364
N21930G1X236.713Y-1.634
N21940G1X236.325Y-1.865
N21950G1X235.923Y-2.075
N21960G1X235.505Y-2.263
N21970G1X235.073Y-2.425
N21980G1X234.628Y-2.561
N21990G1X234.172Y-2.669
N22000G1X233.707Y-2.747
N22010G1X233.236Y-2.794
N22020G1X232.810Y-2.808
N22030G1X156.635
N22040G1Z-11.500
N22050G1X144.635
N22060G1Z-15.500F900.0
N22070G1X0.227F1750.0
N22080G2X-2.773Y0.192I0.000J3.000
N22090G1Y103.108
N22100G00Z5.000
N22110G00Z20.000
N22120G00X0.000Y0.000
N22130M09
N22140M30
%
