%
(1001)
(T1 D=8 CR=0 - ZMIN=-7.997 - flat end mill)
N10 G90 G94
N15 G17
N20 G21
(When using Fusion 360 for Personal Use, the feedrate of)
(rapid moves is reduced to match the feedrate of cutting)
(moves, which can increase machining time. Unrestricted rapid)
(moves are available with a Fusion 360 Subscription.)
N25 G28

(Adaptive2)
N30 T1 M6
N35 S5000 M3
N40 G17 G90 G94
N45 G54
N50 G0 X-54.717 Y-55.238
N55 G43 Z15
N60 G1 Z5 F1000
N65 Z-6.397
N70 Z-7.197
N75 X-54.715 Y-55.231 Z-7.301
N80 X-54.71 Y-55.211 Z-7.404
N85 X-54.702 Y-55.178 Z-7.503
N90 X-54.692 Y-55.133 Z-7.597
N95 X-54.678 Y-55.077 Z-7.684
N100 X-54.662 Y-55.01 Z-7.763
N105 X-54.643 Y-54.933 Z-7.832
N110 X-54.623 Y-54.849 Z-7.89
N115 X-54.601 Y-54.758 Z-7.936
N120 X-54.578 Y-54.661 Z-7.97
N125 X-54.554 Y-54.561 Z-7.99
N130 X-54.529 Y-54.46 Z-7.997
N135 G3 X-53.966 Y-50.096 I-19.856 J4.783
N140 G1 X-53.969 Y-49.849
N145 X-53.957 Y-49.109
N150 X-53.94 Y-48.122
N155 X-53.933 Y-47.628
N160 X-53.924 Y-46.888
N165 X-53.92 Y-46.148
N170 X-53.914 Y-43.433
N175 Y-0.74
N180 X-53.911 Y0
N185 X-53.901 Y0.74
N190 X-53.871 Y2.468
N195 X-53.863 Y3.208
N200 X-53.862 Y3.948
N205 X-53.861 Y47.628
N210 X-53.863 Y48.369
N215 X-53.874 Y49.849
N220 X-53.869 Y50.096
N225 X-53.845 Y50.343
N230 G3 X-54.157 Y51.03 I-0.798 J0.052
N235 G1 X-54.239 Y51.093 Z-7.99
N240 X-54.321 Y51.156 Z-7.97
N245 X-54.4 Y51.216 Z-7.936
N250 X-54.474 Y51.273 Z-7.89
N255 X-54.543 Y51.326 Z-7.832
N260 X-54.606 Y51.374 Z-7.763
N265 X-54.66 Y51.416 Z-7.684
N270 X-54.707 Y51.451 Z-7.597
N275 X-54.743 Y51.479 Z-7.503
N280 X-54.77 Y51.5 Z-7.404
N285 X-54.786 Y51.512 Z-7.301
N290 X-54.792 Y51.516 Z-7.197
N295 Z5
N300 X45.002 Y55.643
N305 Z-6.397
N310 Z-7.197
N315 X45.008 Y55.64 Z-7.301
N320 X45.026 Y55.632 Z-7.404
N325 X45.057 Y55.618 Z-7.503
N330 X45.099 Y55.599 Z-7.597
N335 X45.153 Y55.576 Z-7.684
N340 X45.216 Y55.548 Z-7.763
N345 X45.288 Y55.516 Z-7.832
N350 X45.367 Y55.48 Z-7.89
N355 X45.453 Y55.442 Z-7.936
N360 X45.544 Y55.402 Z-7.97
N365 X45.637 Y55.361 Z-7.99
N370 X45.733 Y55.318 Z-7.997
N375 G3 X49.924 Y53.979 I8.277 J18.672
N380 G1 X50.096 Y53.95
N385 X50.639 Y53.831
N390 X50.656 Y53.825
N395 X51.33 Y53.547
N400 X51.392 Y53.518
N405 X51.453 Y53.483
N410 X51.824 Y53.228
N415 X52.06 Y53.058
N420 X52.328 Y52.811
N425 X52.564 Y52.538
N430 X52.743 Y52.317
N435 X52.811 Y52.216
N440 X52.9 Y52.07
N445 X53.143 Y51.577
N450 X53.249 Y51.33
N455 X53.323 Y51.083
N460 X53.396 Y50.837
N465 X53.429 Y50.59
N470 X53.48 Y50.096
N475 X53.497 Y49.849
N480 X53.532 Y49.109
N485 X53.565 Y48.369
N490 X53.592 Y47.628
N495 X53.597 Y47.382
N500 X53.605 Y46.888
N505 X53.607 Y46.641
N510 Y3.455
N515 X53.608 Y3.208
N520 X53.619 Y2.468
N525 X53.632 Y1.727
N530 X53.641 Y0.987
N535 X53.647 Y0.247
N540 X53.652 Y-0.74
N545 X53.653 Y-1.481
N550 Y-1.727
N555 X53.649 Y-2.468
N560 X53.637 Y-3.208
N565 X53.619 Y-3.948
N570 X53.59 Y-4.936
N575 Y-48.369
N580 X53.586 Y-49.109
N585 X53.581 Y-49.356
N590 X53.563 Y-49.849
N595 X53.551 Y-50.064
N600 X53.523 Y-50.343
N605 X53.521 Y-50.396 Z-7.995
N610 X53.535 Y-50.481 Z-7.985
N615 X53.548 Y-50.564 Z-7.964
N620 X53.56 Y-50.644 Z-7.935
N625 X53.602 Y-50.725 Z-7.89
N630 X53.64 Y-50.8 Z-7.832
N635 X53.675 Y-50.868 Z-7.765
N640 X53.722 Y-50.916 Z-7.688
N645 X53.761 Y-50.956 Z-7.603
N650 X53.792 Y-50.988 Z-7.511
N655 X53.815 Y-51.011 Z-7.414
N660 X53.829 Y-51.025 Z-7.314
N665 X53.834 Y-51.03 Z-7.212
N670 Z5
N675 X-49.788 Y-57.14
N680 Z-6.374
N685 Z-7.174
N690 X-49.791 Y-57.134 Z-7.278
N695 X-49.801 Y-57.116 Z-7.381
N700 X-49.817 Y-57.086 Z-7.48
N705 X-49.839 Y-57.046 Z-7.574
N710 X-49.867 Y-56.994 Z-7.661
N715 X-49.899 Y-56.934 Z-7.74
N720 X-49.937 Y-56.864 Z-7.809
N725 X-49.978 Y-56.788 Z-7.867
N730 X-50.022 Y-56.705 Z-7.913
N735 X-50.07 Y-56.618 Z-7.947
N740 X-50.118 Y-56.528 Z-7.967
N745 X-50.168 Y-56.436 Z-7.974
N750 G3 X-52.662 Y-52.811 I-17.976 J-9.696
N755 G1 X-52.707 Y-52.762
N760 X-52.742 Y-52.713
N765 X-53.058 Y-52.263
N770 X-53.181 Y-52.07
N775 X-53.422 Y-51.577
N780 X-53.448 Y-51.515
N785 X-53.471 Y-51.453
N790 X-53.636 Y-50.837
N795 X-53.676 Y-50.59
N800 X-53.723 Y-50.096
N805 X-53.726 Y-49.849
N810 X-53.714 Y-49.109
N815 X-53.614 Y-43.68
N820 X-53.609 Y-43.433
N825 X-53.587 Y-42.693
N830 X-53.56 Y-41.952
N835 X-53.547 Y-41.459
N840 X-53.535 Y-40.965
N845 X-53.478 Y-37.51
N850 X-53.47 Y-37.017
N855 X-53.45 Y-36.277
N860 X-53.445 Y-36.03
N865 X-53.391 Y-32.081
N870 X-53.371 Y-31.094
N875 X-53.335 Y-27.886
N880 X-53.314 Y-25.418
N885 X-53.299 Y-22.95
N890 X-53.288 Y-20.236
N895 X-53.28 Y-15.794
N900 X-53.273 Y-10.365
N905 X-53.258 Y-5.676
N910 X-53.244 Y-3.208
N915 X-53.231 Y-1.727
N920 X-53.215 Y0
N925 X-53.183 Y2.468
N930 X-53.133 Y5.676
N935 X-53.106 Y7.157
N940 X-53.071 Y9.131
N945 X-53.055 Y9.871
N950 X-53.01 Y12.339
N955 X-52.994 Y13.079
N960 X-52.908 Y18.015
N965 X-52.891 Y18.755
N970 X-52.884 Y19.249
N975 X-52.841 Y22.21
N980 X-52.807 Y25.418
N985 X-52.791 Y28.133
N990 X-52.788 Y29.12
N995 X-52.783 Y31.341
N1000 X-52.788 Y34.302
N1005 X-52.801 Y37.264
N1010 X-52.81 Y38.498
N1015 X-52.848 Y43.433
N1020 X-52.87 Y45.654
N1025 X-52.914 Y49.849
N1030 X-52.909 Y50.096
N1035 X-52.885 Y50.343
N1040 Z5
N1045 X41.263 Y55.888
N1050 Z-6.374
N1055 Z-7.174
N1060 X41.269 Y55.885 Z-7.278
N1065 X41.287 Y55.876 Z-7.381
N1070 X41.317 Y55.861 Z-7.48
N1075 X41.359 Y55.84 Z-7.574
N1080 X41.411 Y55.814 Z-7.661
N1085 X41.472 Y55.783 Z-7.74
N1090 X41.543 Y55.747 Z-7.809
N1095 X41.62 Y55.708 Z-7.867
N1100 X41.704 Y55.666 Z-7.913
N1105 X41.793 Y55.621 Z-7.947
N1110 X41.884 Y55.575 Z-7.967
N1115 X41.978 Y55.528 Z-7.974
N1120 G3 X46.098 Y53.984 I9.186 J18.242
N1125 G1 X46.394 Y53.919
N1130 X46.641 Y53.85
N1135 X47.135 Y53.658
N1140 X47.37 Y53.551
N1145 X47.382 Y53.545
N1150 X47.628 Y53.394
N1155 X47.875 Y53.228
N1160 X48.08 Y53.058
N1165 X48.369 Y52.8
N1170 X48.616 Y52.524
N1175 X48.862 Y52.175
N1180 X48.926 Y52.07
N1185 X49.169 Y51.577
N1190 X49.281 Y51.33
N1195 X49.356 Y51.061
N1200 X49.414 Y50.837
N1205 X49.453 Y50.59
N1210 X49.626 Y49.517
N1215 X49.838 Y48.451
N1220 X49.994 Y47.375
N1225 X50.107 Y46.294
N1230 X50.189 Y45.211
N1235 X50.249 Y44.126
N1240 X50.293 Y43.04
N1245 X50.324 Y41.953
N1250 X50.347 Y40.867
N1255 X50.363 Y39.78
N1260 X50.375 Y38.693
N1265 X50.384 Y37.607
N1270 X50.39 Y36.52
N1275 X50.395 Y35.433
N1280 X50.4 Y33.259
N1285 X50.405 Y30.012
N1290 Y29.99
N1295 X50.462 Y28.38
N1300 X50.487 Y27.639
N1305 X50.556 Y25.418
N1310 X50.584 Y24.431
N1315 X50.642 Y22.21
N1320 X50.676 Y20.729
N1325 X50.719 Y18.755
N1330 X50.816 Y12.833
N1335 X50.826 Y12.092
N1340 X50.858 Y9.378
N1345 X50.889 Y6.169
N1350 X50.916 Y2.715
N1355 X50.939 Y-0.74
N1360 X50.954 Y-3.455
N1365 X50.963 Y-5.182
N1370 X50.978 Y-10.118
N1375 X50.979 Y-10.858
N1380 X50.973 Y-15.547
N1385 X50.94 Y-20.483
N1390 X50.93 Y-21.47
N1395 X50.905 Y-23.444
N1400 X50.865 Y-25.912
N1405 X50.851 Y-26.652
N1410 X50.81 Y-28.626
N1415 X50.751 Y-31.094
N1420 X50.702 Y-32.822
N1425 X50.602 Y-36.277
N1430 X50.57 Y-37.264
N1435 X50.421 Y-41.706
N1440 X50.121 Y-49.849
N1445 X50.11 Y-50.096
N1450 G3 X50.46 Y-50.765 I0.8 J-0.008
N1455 G1 X50.546 Y-50.824 Z-7.967
N1460 X50.631 Y-50.881 Z-7.947
N1465 X50.712 Y-50.937 Z-7.913
N1470 X50.79 Y-50.99 Z-7.867
N1475 X50.862 Y-51.039 Z-7.809
N1480 X50.927 Y-51.083 Z-7.74
N1485 X50.984 Y-51.122 Z-7.661
N1490 X51.032 Y-51.155 Z-7.574
N1495 X51.07 Y-51.181 Z-7.48
N1500 X51.098 Y-51.2 Z-7.381
N1505 X51.115 Y-51.212 Z-7.278
N1510 X51.12 Y-51.215 Z-7.174
N1515 Z5
N1520 X49.932 Y52.088
N1525 Z-6.374
N1530 Z-7.174
N1535 X49.929 Y52.082 Z-7.278
N1540 X49.921 Y52.063 Z-7.381
N1545 X49.906 Y52.033 Z-7.48
N1550 X49.887 Y51.991 Z-7.574
N1555 X49.863 Y51.938 Z-7.661
N1560 X49.834 Y51.875 Z-7.74
N1565 X49.801 Y51.804 Z-7.809
N1570 X49.764 Y51.725 Z-7.867
N1575 X49.725 Y51.64 Z-7.913
N1580 X49.683 Y51.55 Z-7.947
N1585 X49.64 Y51.457 Z-7.967
N1590 X49.596 Y51.362 Z-7.974
N1595 G3 X49.453 Y50.59 I1.436 J-0.665
N1600 G1 X49.504 Y50.096
N1605 X49.521 Y49.849
N1610 X49.726 Y45.654
N1615 X49.832 Y43.433
N1620 X50.096 Y37.7
N1625 X50.241 Y34.302
N1630 X50.357 Y31.341
N1635 X50.405 Y29.99
N1640 X50.425 Y29.907 Z-7.969
N1645 X50.444 Y29.825 Z-7.955
N1650 X50.462 Y29.745 Z-7.932
N1655 X50.508 Y29.669 Z-7.896
N1660 X50.552 Y29.597 Z-7.848
N1665 X50.592 Y29.53 Z-7.791
N1670 X50.644 Y29.486 Z-7.726
N1675 X50.689 Y29.446 Z-7.653
N1680 X50.728 Y29.413 Z-7.574
N1685 X50.759 Y29.386 Z-7.489
N1690 X50.782 Y29.366 Z-7.399
N1695 X50.801 Y29.355 Z-7.295
N1700 X50.807 Y29.351 Z-7.189
N1705 Z5
N1710 X-53.577 Y-56.033
N1715 Z-6.335
N1720 Z-7.135
N1725 X-53.576 Y-56.026 Z-7.239
N1730 X-53.574 Y-56.005 Z-7.342
N1735 X-53.571 Y-55.972 Z-7.441
N1740 X-53.567 Y-55.926 Z-7.535
N1745 X-53.561 Y-55.868 Z-7.622
N1750 X-53.555 Y-55.799 Z-7.7
N1755 X-53.547 Y-55.721 Z-7.769
N1760 X-53.539 Y-55.634 Z-7.827
N1765 X-53.53 Y-55.541 Z-7.874
N1770 X-53.52 Y-55.442 Z-7.907
N1775 X-53.51 Y-55.34 Z-7.928
N1780 X-53.501 Y-55.236 Z-7.935
N1785 G3 X-53.554 Y-50.837 I-20.33 J1.951
N1790 G1 X-53.593 Y-50.59
N1795 X-53.64 Y-50.096
N1800 X-53.643 Y-49.849
N1805 X-53.632 Y-49.109
N1810 X-53.568 Y-45.654
N1815 X-53.558 Y-45.161
N1820 X-53.535 Y-44.42
N1825 X-53.444 Y-41.952
N1830 X-53.431 Y-41.459
N1835 X-53.42 Y-40.965
N1840 X-53.379 Y-38.498
N1845 X-53.369 Y-38.004
N1850 X-53.337 Y-37.017
N1855 X-53.316 Y-36.277
N1860 X-53.311 Y-36.03
N1865 X-53.267 Y-32.822
N1870 X-53.227 Y-31.341
N1875 X-53.222 Y-31.094
N1880 X-53.205 Y-29.614
N1885 X-53.192 Y-28.873
N1890 X-53.188 Y-28.626
N1895 X-53.178 Y-27.639
N1900 X-53.174 Y-27.146
N1905 X-53.161 Y-26.159
N1910 X-53.154 Y-25.418
N1915 X-53.147 Y-24.431
N1920 X-53.135 Y-22.95
N1925 X-53.127 Y-21.223
N1930 X-53.123 Y-20.483
N1935 X-53.117 Y-17.028
N1940 X-53.111 Y-15.3
N1945 X-53.106 Y-11.352
N1950 X-53.094 Y-7.157
N1955 X-53.091 Y-6.416
N1960 X-53.071 Y-3.208
N1965 X-53.062 Y-2.468
N1970 X-53.049 Y-0.987
N1975 X-53.046 Y-0.74
N1980 X-53.034 Y0
N1985 X-53.008 Y1.974
N1990 X-53.001 Y2.468
N1995 X-52.983 Y3.208
N2000 X-52.955 Y4.936
N2005 X-52.94 Y5.676
N2010 X-52.92 Y6.416
N2015 X-52.914 Y6.663
N2020 X-52.888 Y8.144
N2025 X-52.864 Y9.131
N2030 X-52.843 Y9.871
N2035 X-52.816 Y11.352
N2040 X-52.81 Y11.599
N2045 X-52.789 Y12.339
N2050 X-52.77 Y13.079
N2055 X-52.701 Y17.028
N2060 X-52.695 Y17.275
N2065 X-52.653 Y18.508
N2070 X-52.645 Y18.755
N2075 X-52.639 Y19.002
N2080 X-52.614 Y20.729
N2085 X-52.606 Y21.223
N2090 X-52.595 Y21.717
N2095 X-52.583 Y22.21
N2100 X-52.564 Y23.938
N2105 X-52.553 Y24.678
N2110 X-52.548 Y24.925
N2115 X-52.543 Y25.418
N2120 X-52.531 Y27.146
N2125 X-52.524 Y27.886
N2130 X-52.519 Y28.873
N2135 X-52.515 Y30.601
N2140 X-52.513 Y31.341
N2145 X-52.517 Y33.809
N2150 X-52.524 Y35.536
N2155 X-52.531 Y37.017
N2160 X-52.57 Y41.952
N2165 X-52.58 Y42.693
N2170 X-52.591 Y43.433
N2175 X-52.605 Y44.667
N2180 X-52.617 Y45.901
N2185 X-52.634 Y46.888
N2190 X-52.655 Y48.862
N2195 X-52.661 Y49.356
N2200 X-52.67 Y49.849
N2205 G3 X-53.06 Y50.495 I-0.799 J-0.042
N2210 G1 X-53.149 Y50.549 Z-7.928
N2215 X-53.238 Y50.601 Z-7.907
N2220 X-53.323 Y50.652 Z-7.874
N2225 X-53.403 Y50.7 Z-7.827
N2230 X-53.478 Y50.744 Z-7.769
N2235 X-53.546 Y50.784 Z-7.7
N2240 X-53.605 Y50.82 Z-7.622
N2245 X-53.655 Y50.849 Z-7.535
N2250 X-53.695 Y50.873 Z-7.441
N2255 X-53.724 Y50.89 Z-7.342
N2260 X-53.741 Y50.901 Z-7.239
N2265 X-53.747 Y50.904 Z-7.135
N2270 Z5
N2275 X39.835 Y55.694
N2280 Z-6.335
N2285 Z-7.135
N2290 X39.842 Y55.691 Z-7.239
N2295 X39.86 Y55.683 Z-7.342
N2300 X39.891 Y55.669 Z-7.441
N2305 X39.933 Y55.65 Z-7.535
N2310 X39.986 Y55.626 Z-7.622
N2315 X40.049 Y55.597 Z-7.7
N2320 X40.12 Y55.565 Z-7.769
N2325 X40.2 Y55.529 Z-7.827
N2330 X40.285 Y55.49 Z-7.874
N2335 X40.375 Y55.449 Z-7.907
N2340 X40.469 Y55.406 Z-7.928
N2345 X40.564 Y55.363 Z-7.935
N2350 G3 X44.742 Y53.983 I8.457 J18.591
N2355 G1 X44.914 Y53.952
N2360 X45.161 Y53.876
N2365 X45.654 Y53.715
N2370 X46.148 Y53.468
N2375 X46.385 Y53.304
N2380 X47.002 Y52.79
N2385 X47.016 Y52.777
N2390 X47.382 Y52.303
N2395 X47.558 Y52.07
N2400 X47.695 Y51.824
N2405 X47.806 Y51.577
N2410 X47.875 Y51.409
N2415 X48.036 Y50.837
N2420 X48.079 Y50.59
N2425 X48.13 Y50.096
N2430 X48.147 Y49.849
N2435 X48.171 Y49.356
N2440 X48.185 Y49.109
N2445 X48.255 Y48.122
N2450 X48.291 Y47.628
N2455 X48.322 Y47.135
N2460 X48.337 Y46.888
N2465 X48.351 Y46.641
N2470 X48.389 Y45.901
N2475 X48.495 Y44.42
N2480 X48.511 Y44.173
N2485 X48.551 Y43.433
N2490 X48.619 Y41.952
N2495 X48.633 Y41.706
N2500 X48.698 Y40.719
N2505 X48.9 Y37.757
N2510 X48.912 Y37.51
N2515 X48.933 Y37.017
N2520 X48.945 Y36.77
N2525 X48.986 Y36.03
N2530 X49.033 Y35.289
N2535 X49.076 Y34.549
N2540 X49.088 Y34.302
N2545 X49.109 Y33.778
N2550 X49.118 Y33.562
N2555 X49.159 Y32.822
N2560 X49.202 Y32.081
N2565 X49.228 Y31.588
N2570 X49.252 Y31.094
N2575 X49.278 Y30.354
N2580 X49.367 Y28.626
N2585 X49.398 Y27.886
N2590 X49.423 Y27.146
N2595 X49.433 Y26.899
N2600 X49.501 Y25.418
N2605 X49.533 Y24.431
N2610 X49.556 Y23.691
N2615 X49.614 Y22.21
N2620 X49.621 Y21.963
N2625 X49.652 Y20.729
N2630 X49.659 Y20.483
N2635 X49.706 Y19.002
N2640 X49.713 Y18.755
N2645 X49.741 Y17.028
N2650 X49.756 Y16.287
N2655 X49.832 Y13.079
N2660 X49.847 Y12.339
N2665 X49.859 Y11.352
N2670 X49.885 Y9.871
N2675 X49.897 Y8.884
N2680 X49.905 Y8.144
N2685 X49.929 Y6.416
N2690 X49.945 Y4.689
N2695 X49.962 Y3.208
N2700 X49.974 Y1.727
N2705 X49.991 Y0
N2710 X49.998 Y-0.987
N2715 X50.011 Y-2.468
N2720 X50.02 Y-3.948
N2725 X50.028 Y-4.936
N2730 X50.033 Y-6.169
N2735 X50.04 Y-7.897
N2740 X50.05 Y-10.118
N2745 X50.052 Y-10.612
N2750 X50.046 Y-15.547
N2755 X50.035 Y-17.275
N2760 X50.016 Y-19.249
N2765 X49.998 Y-20.976
N2770 X49.989 Y-21.717
N2775 X49.977 Y-22.457
N2780 X49.937 Y-24.678
N2785 X49.896 Y-26.405
N2790 X49.886 Y-26.899
N2795 X49.88 Y-27.146
N2800 X49.836 Y-28.626
N2805 X49.81 Y-29.614
N2810 X49.776 Y-30.601
N2815 X49.759 Y-31.094
N2820 X49.728 Y-32.081
N2825 X49.707 Y-32.822
N2830 X49.681 Y-33.562
N2835 X49.575 Y-36.03
N2840 X49.546 Y-36.77
N2845 X49.528 Y-37.264
N2850 X49.486 Y-38.498
N2855 X49.45 Y-39.238
N2860 X49.326 Y-41.706
N2865 X49.315 Y-41.952
N2870 X49.233 Y-44.173
N2875 X49.202 Y-44.914
N2880 X49.191 Y-45.161
N2885 X48.933 Y-49.849
N2890 X48.915 Y-50.096
N2895 X48.889 Y-50.343
N2900 X48.887 Y-50.398 Z-7.933
N2905 X48.9 Y-50.483 Z-7.922
N2910 X48.913 Y-50.566 Z-7.901
N2915 X48.926 Y-50.647 Z-7.872
N2920 X48.968 Y-50.727 Z-7.826
N2925 X49.006 Y-50.802 Z-7.768
N2930 X49.041 Y-50.87 Z-7.7
N2935 X49.087 Y-50.918 Z-7.623
N2940 X49.126 Y-50.958 Z-7.538
N2945 X49.157 Y-50.989 Z-7.447
N2950 X49.179 Y-51.012 Z-7.351
N2955 X49.193 Y-51.027 Z-7.251
N2960 X49.197 Y-51.031 Z-7.15
N2965 Z5
N2970 X-53.581 Y-56.032
N2975 Z-6.303
N2980 Z-7.103
N2985 Y-56.025 Z-7.208
N2990 X-53.578 Y-56.005 Z-7.31
N2995 X-53.575 Y-55.971 Z-7.409
N3000 X-53.57 Y-55.925 Z-7.503
N3005 X-53.564 Y-55.867 Z-7.59
N3010 X-53.556 Y-55.799 Z-7.669
N3015 X-53.548 Y-55.721 Z-7.738
N3020 X-53.538 Y-55.634 Z-7.796
N3025 X-53.528 Y-55.541 Z-7.842
N3030 X-53.517 Y-55.442 Z-7.876
N3035 X-53.506 Y-55.34 Z-7.896
N3040 X-53.495 Y-55.237 Z-7.903
N3045 G3 X-53.492 Y-50.837 I-20.304 J2.214
N3050 G1 X-53.527 Y-50.59
N3055 X-53.574 Y-50.096
N3060 X-53.577 Y-49.849
N3065 X-53.566 Y-49.109
N3070 X-53.525 Y-46.888
N3075 X-53.512 Y-46.394
N3080 X-53.497 Y-45.901
N3085 X-53.352 Y-41.952
N3090 X-53.339 Y-41.459
N3095 X-53.328 Y-40.965
N3100 X-53.303 Y-39.485
N3105 X-53.285 Y-38.744
N3110 X-53.278 Y-38.498
N3115 X-53.23 Y-37.017
N3120 X-53.209 Y-36.277
N3125 X-53.204 Y-36.03
N3130 X-53.173 Y-33.809
N3135 X-53.168 Y-33.562
N3140 X-53.108 Y-31.341
N3145 X-53.103 Y-31.094
N3150 X-53.091 Y-30.107
N3155 X-53.084 Y-29.614
N3160 X-53.068 Y-28.873
N3165 X-53.064 Y-28.626
N3170 X-53.051 Y-27.392
N3175 X-53.049 Y-27.146
N3180 X-53.036 Y-26.405
N3185 X-53.031 Y-25.912
N3190 X-53.026 Y-25.418
N3195 X-53.021 Y-24.678
N3200 X-53.01 Y-23.691
N3205 X-53.004 Y-22.95
N3210 X-53 Y-21.963
N3215 X-52.991 Y-20.483
N3220 X-52.985 Y-17.768
N3225 X-52.978 Y-15.547
N3230 X-52.973 Y-12.339
N3235 X-52.965 Y-9.131
N3240 X-52.959 Y-7.403
N3245 X-52.939 Y-4.195
N3250 X-52.93 Y-3.208
N3255 X-52.921 Y-2.468
N3260 X-52.912 Y-1.481
N3265 X-52.902 Y-0.74
N3270 X-52.889 Y0
N3275 X-52.87 Y1.481
N3280 X-52.866 Y1.727
N3285 X-52.843 Y2.715
N3290 X-52.831 Y3.208
N3295 X-52.804 Y4.936
N3300 X-52.774 Y5.923
N3305 X-52.76 Y6.416
N3310 X-52.755 Y6.663
N3315 X-52.732 Y7.897
N3320 X-52.728 Y8.144
N3325 X-52.695 Y9.131
N3330 X-52.674 Y9.871
N3335 X-52.66 Y10.612
N3340 X-52.644 Y11.352
N3345 X-52.636 Y11.599
N3350 X-52.61 Y12.339
N3355 X-52.591 Y13.079
N3360 X-52.547 Y15.547
N3365 X-52.532 Y16.287
N3370 X-52.525 Y16.534
N3375 X-52.447 Y18.755
N3380 X-52.441 Y19.002
N3385 X-52.42 Y20.483
N3390 X-52.383 Y21.963
N3395 X-52.378 Y22.21
N3400 X-52.362 Y23.691
N3405 X-52.357 Y23.938
N3410 X-52.342 Y24.678
N3415 X-52.331 Y25.418
N3420 X-52.321 Y26.899
N3425 X-52.316 Y27.392
N3430 X-52.31 Y27.886
N3435 X-52.305 Y28.873
N3440 X-52.3 Y30.601
N3445 X-52.298 Y31.094
N3450 X-52.299 Y32.822
N3455 X-52.305 Y34.796
N3460 X-52.311 Y36.03
N3465 X-52.336 Y39.238
N3470 X-52.35 Y40.965
N3475 X-52.364 Y41.952
N3480 X-52.387 Y43.433
N3485 X-52.4 Y44.667
N3490 X-52.405 Y45.161
N3495 X-52.417 Y45.901
N3500 X-52.431 Y46.641
N3505 X-52.435 Y46.888
N3510 X-52.45 Y48.369
N3515 X-52.477 Y49.849
N3520 G3 X-52.866 Y50.495 I-0.799 J-0.042
N3525 G1 X-52.956 Y50.549 Z-7.896
N3530 X-53.044 Y50.601 Z-7.876
N3535 X-53.129 Y50.652 Z-7.842
N3540 X-53.21 Y50.7 Z-7.796
N3545 X-53.285 Y50.744 Z-7.738
N3550 X-53.352 Y50.784 Z-7.669
N3555 X-53.412 Y50.82 Z-7.59
N3560 X-53.462 Y50.849 Z-7.503
N3565 X-53.501 Y50.873 Z-7.409
N3570 X-53.53 Y50.89 Z-7.31
N3575 X-53.548 Y50.901 Z-7.208
N3580 X-53.554 Y50.904 Z-7.103
N3585 Z5
N3590 X39.216 Y56.082
N3595 Z-6.303
N3600 Z-7.103
N3605 X39.222 Y56.079 Z-7.208
N3610 X39.24 Y56.069 Z-7.31
N3615 X39.269 Y56.053 Z-7.409
N3620 X39.31 Y56.03 Z-7.503
N3625 X39.361 Y56.002 Z-7.59
N3630 X39.421 Y55.968 Z-7.669
N3635 X39.49 Y55.93 Z-7.738
N3640 X39.566 Y55.888 Z-7.796
N3645 X39.648 Y55.842 Z-7.842
N3650 X39.734 Y55.794 Z-7.876
N3655 X39.824 Y55.744 Z-7.896
N3660 X39.915 Y55.693 Z-7.903
N3665 G3 X43.968 Y53.98 I9.933 J17.846
N3670 G1 X44.173 Y53.926
N3675 X44.667 Y53.746
N3680 X44.914 Y53.64
N3685 X45.161 Y53.51
N3690 X45.407 Y53.356
N3695 X45.485 Y53.304
N3700 X46.056 Y52.811
N3705 X46.148 Y52.721
N3710 X46.267 Y52.564
N3715 X46.45 Y52.317
N3720 X46.626 Y52.07
N3725 X46.755 Y51.824
N3730 X46.882 Y51.577
N3735 X46.888 Y51.562
N3740 X46.967 Y51.33
N3745 X47.105 Y50.837
N3750 X47.135 Y50.726
N3755 X47.204 Y50.096
N3760 X47.226 Y49.849
N3765 X47.386 Y47.628
N3770 X47.463 Y46.641
N3775 X47.628 Y44.336
N3780 X47.642 Y44.173
N3785 X47.696 Y43.433
N3790 X48.033 Y38.498
N3795 X48.093 Y37.757
N3800 X48.122 Y37.319
N3805 X48.25 Y35.289
N3810 X48.3 Y34.549
N3815 X48.316 Y34.302
N3820 X48.46 Y31.835
N3825 X48.505 Y31.094
N3830 X48.649 Y28.38
N3835 X48.675 Y27.886
N3840 X48.779 Y25.665
N3845 X48.801 Y25.171
N3850 X48.823 Y24.678
N3855 X48.89 Y22.95
N3860 X48.921 Y22.21
N3865 X48.955 Y21.223
N3870 X49.011 Y19.496
N3875 X49.029 Y19.002
N3880 X49.036 Y18.755
N3885 X49.172 Y13.079
N3890 X49.191 Y12.339
N3895 X49.25 Y8.884
N3900 X49.295 Y5.676
N3905 X49.329 Y2.715
N3910 X49.36 Y-0.247
N3915 X49.387 Y-3.208
N3920 X49.404 Y-5.429
N3925 X49.421 Y-8.884
N3930 X49.429 Y-10.612
N3935 X49.424 Y-15.547
N3940 X49.405 Y-17.521
N3945 X49.376 Y-20.483
N3950 X49.36 Y-21.47
N3955 X49.334 Y-22.95
N3960 X49.312 Y-23.938
N3965 X49.265 Y-25.912
N3970 X49.197 Y-28.133
N3975 X49.181 Y-28.626
N3980 X49.092 Y-31.094
N3985 X48.88 Y-36.03
N3990 X48.816 Y-37.264
N3995 X48.63 Y-40.965
N4000 X48.519 Y-42.94
N4005 X48.179 Y-49.109
N4010 X48.148 Y-49.603
N4015 X48.122 Y-49.995
N4020 X48.084 Y-50.343
N4025 X48.082 Y-50.402 Z-7.901
N4030 X48.095 Y-50.487 Z-7.89
N4035 X48.108 Y-50.57 Z-7.869
N4040 X48.121 Y-50.651 Z-7.839
N4045 X48.162 Y-50.732 Z-7.792
N4050 X48.201 Y-50.807 Z-7.733
N4055 X48.235 Y-50.874 Z-7.665
N4060 X48.281 Y-50.921 Z-7.588
N4065 X48.319 Y-50.96 Z-7.504
N4070 X48.349 Y-50.992 Z-7.413
N4075 X48.371 Y-51.014 Z-7.317
N4080 X48.384 Y-51.028 Z-7.219
N4085 X48.389 Y-51.033 Z-7.118
N4090 Z5
N4095 X38.508 Y56.246
N4100 Z-6.258
N4105 Z-7.058
N4110 X38.514 Y56.242 Z-7.162
N4115 X38.531 Y56.231 Z-7.265
N4120 X38.56 Y56.214 Z-7.364
N4125 X38.6 Y56.19 Z-7.458
N4130 X38.65 Y56.16 Z-7.545
N4135 X38.709 Y56.125 Z-7.624
N4140 X38.776 Y56.084 Z-7.693
N4145 X38.851 Y56.039 Z-7.751
N4150 X38.931 Y55.991 Z-7.797
N4155 X39.016 Y55.94 Z-7.831
N4160 X39.104 Y55.887 Z-7.851
N4165 X39.193 Y55.833 Z-7.858
N4170 G3 X43.186 Y53.985 I10.527 J17.502
N4175 G1 X43.433 Y53.911
N4180 X43.927 Y53.736
N4185 X44.173 Y53.619
N4190 X44.42 Y53.491
N4195 X44.544 Y53.415
N4200 X44.667 Y53.334
N4205 X45.317 Y52.779
N4210 X45.337 Y52.759
N4215 X45.354 Y52.74
N4220 X45.672 Y52.317
N4225 X45.852 Y52.07
N4230 X45.985 Y51.824
N4235 X46.104 Y51.577
N4240 X46.148 Y51.473
N4245 X46.192 Y51.33
N4250 X46.33 Y50.837
N4255 X46.375 Y50.59
N4260 X46.429 Y50.096
N4265 X46.45 Y49.849
N4270 X46.505 Y49.109
N4275 X46.564 Y48.369
N4280 X46.641 Y47.555
N4285 X46.695 Y46.888
N4290 X46.715 Y46.641
N4295 X46.768 Y45.901
N4300 X46.806 Y45.407
N4305 X46.898 Y44.42
N4310 X46.919 Y44.173
N4315 X46.974 Y43.433
N4320 X47.143 Y40.965
N4325 X47.203 Y40.225
N4330 X47.357 Y38.498
N4335 X47.421 Y37.757
N4340 X47.438 Y37.51
N4345 X47.516 Y36.277
N4350 X47.532 Y36.03
N4355 X47.628 Y34.863
N4360 X47.65 Y34.549
N4365 X47.666 Y34.302
N4370 X47.71 Y33.562
N4375 X47.756 Y32.822
N4380 X47.812 Y32.081
N4385 X47.829 Y31.835
N4390 X47.877 Y31.094
N4395 X47.916 Y30.354
N4400 X47.959 Y29.614
N4405 X47.975 Y29.367
N4410 X48.025 Y28.626
N4415 X48.066 Y27.886
N4420 X48.1 Y27.146
N4425 X48.139 Y26.405
N4430 X48.153 Y26.159
N4435 X48.197 Y25.418
N4440 X48.23 Y24.678
N4445 X48.269 Y23.691
N4450 X48.304 Y22.95
N4455 X48.341 Y22.21
N4460 X48.351 Y21.963
N4465 X48.392 Y20.729
N4470 X48.4 Y20.483
N4475 X48.46 Y19.002
N4480 X48.468 Y18.755
N4485 X48.545 Y15.547
N4490 X48.619 Y13.079
N4495 X48.638 Y12.339
N4500 X48.67 Y10.612
N4505 X48.686 Y9.871
N4510 X48.704 Y8.884
N4515 X48.718 Y7.897
N4520 X48.735 Y6.91
N4525 X48.743 Y6.416
N4530 X48.756 Y5.429
N4535 X48.765 Y4.689
N4540 X48.786 Y3.208
N4545 X48.804 Y1.481
N4550 X48.823 Y0
N4555 X48.84 Y-1.727
N4560 X48.849 Y-2.468
N4565 X48.864 Y-4.195
N4570 X48.872 Y-4.936
N4575 X48.88 Y-6.169
N4580 X48.89 Y-8.144
N4585 X48.902 Y-9.871
N4590 X48.906 Y-10.612
N4595 X48.901 Y-15.547
N4600 X48.883 Y-17.521
N4605 X48.867 Y-19.002
N4610 X48.849 Y-20.483
N4615 X48.833 Y-21.47
N4620 X48.82 Y-22.21
N4625 X48.786 Y-23.691
N4630 X48.762 Y-24.678
N4635 X48.741 Y-25.418
N4640 X48.688 Y-27.146
N4645 X48.663 Y-27.886
N4650 X48.624 Y-28.873
N4655 X48.578 Y-30.107
N4660 X48.569 Y-30.354
N4665 X48.522 Y-31.341
N4670 X48.458 Y-32.822
N4675 X48.415 Y-33.809
N4680 X48.392 Y-34.302
N4685 X48.379 Y-34.549
N4690 X48.281 Y-36.277
N4695 X48.241 Y-37.017
N4700 X48.122 Y-39.386
N4705 X48.068 Y-40.225
N4710 X47.97 Y-41.706
N4715 X47.955 Y-41.952
N4720 X47.872 Y-43.433
N4725 X47.736 Y-45.901
N4730 X47.691 Y-46.641
N4735 X47.655 Y-47.135
N4740 X47.457 Y-49.849
N4745 X47.435 Y-50.096
N4750 X47.408 Y-50.343
N4755 G3 X47.713 Y-51.033 I0.798 J-0.06
N4760 G1 X47.795 Y-51.097 Z-7.851
N4765 X47.876 Y-51.16 Z-7.831
N4770 X47.954 Y-51.221 Z-7.797
N4775 X48.028 Y-51.279 Z-7.751
N4780 X48.096 Y-51.333 Z-7.693
N4785 X48.158 Y-51.381 Z-7.624
N4790 X48.213 Y-51.424 Z-7.545
N4795 X48.259 Y-51.459 Z-7.458
N4800 X48.295 Y-51.488 Z-7.364
N4805 X48.321 Y-51.509 Z-7.265
N4810 X48.338 Y-51.521 Z-7.162
N4815 X48.343 Y-51.525 Z-7.058
N4820 Z5
N4825 X-22.985 Y-56.394
N4830 Z-6.258
N4835 Z-7.058
N4840 X-22.986 Y-56.388 Z-7.162
N4845 X-22.99 Y-56.368 Z-7.265
N4850 X-22.997 Y-56.335 Z-7.364
N4855 X-23.006 Y-56.289 Z-7.458
N4860 X-23.018 Y-56.232 Z-7.545
N4865 X-23.032 Y-56.165 Z-7.624
N4870 X-23.048 Y-56.088 Z-7.693
N4875 X-23.065 Y-56.002 Z-7.751
N4880 X-23.084 Y-55.911 Z-7.797
N4885 X-23.104 Y-55.813 Z-7.831
N4890 X-23.125 Y-55.713 Z-7.851
N4895 X-23.146 Y-55.611 Z-7.858
N4900 G3 X-24.628 Y-53.985 I-2.108 J-0.434
N4905 G1 X-24.678 Y-53.972
N4910 X-24.801 Y-53.958
N4915 X-24.925 Y-53.963
N4920 X-24.966 Y-53.973
N4925 G3 X-25.515 Y-54.49 I0.21 J-0.772
N4930 G1 X-25.548 Y-54.589 Z-7.851
N4935 X-25.58 Y-54.687 Z-7.831
N4940 X-25.612 Y-54.781 Z-7.797
N4945 X-25.642 Y-54.87 Z-7.751
N4950 X-25.669 Y-54.952 Z-7.693
N4955 X-25.695 Y-55.027 Z-7.624
N4960 X-25.716 Y-55.092 Z-7.545
N4965 X-25.735 Y-55.147 Z-7.458
N4970 X-25.75 Y-55.191 Z-7.364
N4975 X-25.76 Y-55.223 Z-7.265
N4980 X-25.767 Y-55.242 Z-7.162
N4985 X-25.769 Y-55.249 Z-7.058
N4990 Z5
N4995 X-53.129 Y-56.273
N5000 Z-6.258
N5005 Z-7.058
N5010 Y-56.266 Z-7.162
N5015 X-53.128 Y-56.245 Z-7.265
N5020 X-53.127 Y-56.212 Z-7.364
N5025 X-53.125 Y-56.166 Z-7.458
N5030 X-53.123 Y-56.107 Z-7.545
N5035 X-53.12 Y-56.038 Z-7.624
N5040 X-53.117 Y-55.96 Z-7.693
N5045 X-53.113 Y-55.873 Z-7.751
N5050 X-53.109 Y-55.779 Z-7.797
N5055 X-53.105 Y-55.68 Z-7.831
N5060 X-53.101 Y-55.578 Z-7.851
N5065 X-53.097 Y-55.473 Z-7.858
N5070 G3 X-53.394 Y-51.083 I-20.407 J0.823
N5075 G1 X-53.447 Y-50.837
N5080 X-53.478 Y-50.59
N5085 X-53.524 Y-50.096
N5090 X-53.523 Y-49.849
N5095 X-53.509 Y-49.356
N5100 X-53.474 Y-48.369
N5105 X-53.301 Y-43.68
N5110 X-53.291 Y-43.433
N5115 X-53.258 Y-42.693
N5120 X-53.218 Y-41.952
N5125 X-53.205 Y-41.459
N5130 X-53.194 Y-40.965
N5135 X-53.18 Y-40.225
N5140 X-53.075 Y-37.017
N5145 X-53.054 Y-36.277
N5150 X-53.049 Y-36.03
N5155 X-53.038 Y-35.289
N5160 X-53.022 Y-34.549
N5165 X-52.936 Y-31.341
N5170 X-52.93 Y-31.094
N5175 X-52.921 Y-30.354
N5180 X-52.889 Y-28.873
N5185 X-52.885 Y-28.626
N5190 X-52.876 Y-27.886
N5195 X-52.851 Y-26.405
N5200 X-52.846 Y-25.912
N5205 X-52.83 Y-24.431
N5210 X-52.821 Y-23.691
N5215 X-52.814 Y-22.704
N5220 X-52.8 Y-20.729
N5225 X-52.799 Y-20.236
N5230 X-52.794 Y-18.508
N5235 X-52.784 Y-15.547
N5240 X-52.78 Y-13.326
N5245 X-52.77 Y-9.378
N5250 X-52.766 Y-8.39
N5255 X-52.743 Y-4.689
N5260 X-52.736 Y-3.948
N5265 X-52.715 Y-2.221
N5270 X-52.71 Y-1.727
N5275 X-52.68 Y0
N5280 X-52.67 Y0.74
N5285 X-52.655 Y1.481
N5290 X-52.613 Y3.208
N5295 X-52.601 Y3.948
N5300 X-52.595 Y4.195
N5305 X-52.564 Y5.238
N5310 X-52.543 Y5.923
N5315 X-52.529 Y6.416
N5320 X-52.524 Y6.663
N5325 X-52.51 Y7.403
N5330 X-52.458 Y8.884
N5335 X-52.443 Y9.378
N5340 X-52.429 Y9.871
N5345 X-52.413 Y10.612
N5350 X-52.351 Y12.339
N5355 X-52.332 Y13.079
N5360 X-52.309 Y14.313
N5365 X-52.299 Y14.807
N5370 X-52.161 Y18.755
N5375 X-52.155 Y19.002
N5380 X-52.144 Y19.742
N5385 X-52.125 Y20.483
N5390 X-52.098 Y21.47
N5395 X-52.086 Y21.963
N5400 X-52.08 Y22.21
N5405 X-52.072 Y22.95
N5410 X-52.037 Y24.678
N5415 X-52.026 Y25.418
N5420 X-52.02 Y26.159
N5425 X-51.999 Y27.886
N5430 X-51.994 Y28.873
N5435 X-51.988 Y30.601
N5440 X-51.986 Y31.094
N5445 X-51.987 Y32.328
N5450 X-51.994 Y34.796
N5455 X-51.996 Y35.289
N5460 X-52.023 Y38.498
N5465 X-52.031 Y39.485
N5470 X-52.053 Y40.965
N5475 X-52.091 Y43.433
N5480 X-52.103 Y44.42
N5485 X-52.114 Y45.161
N5490 X-52.143 Y46.641
N5495 X-52.147 Y46.888
N5500 X-52.155 Y47.628
N5505 X-52.173 Y48.616
N5510 X-52.188 Y49.356
N5515 X-52.197 Y49.849
N5520 X-52.214 Y49.933 Z-7.853
N5525 X-52.232 Y50.015 Z-7.839
N5530 X-52.249 Y50.095 Z-7.816
N5535 X-52.294 Y50.172 Z-7.779
N5540 X-52.336 Y50.245 Z-7.732
N5545 X-52.375 Y50.312 Z-7.674
N5550 X-52.426 Y50.358 Z-7.61
N5555 X-52.471 Y50.398 Z-7.537
N5560 X-52.509 Y50.432 Z-7.457
N5565 X-52.539 Y50.46 Z-7.373
N5570 X-52.562 Y50.48 Z-7.283
N5575 X-52.58 Y50.491 Z-7.179
N5580 X-52.586 Y50.495 Z-7.072
N5585 Z5
N5590 X36.026 Y56.437
N5595 Z-6.021
N5600 Z-6.821
N5605 X36.032 Y56.433 Z-6.925
N5610 X36.049 Y56.422 Z-7.028
N5615 X36.077 Y56.403 Z-7.127
N5620 X36.115 Y56.378 Z-7.221
N5625 X36.164 Y56.346 Z-7.308
N5630 X36.222 Y56.308 Z-7.386
N5635 X36.287 Y56.264 Z-7.455
N5640 X36.36 Y56.217 Z-7.514
N5645 X36.438 Y56.165 Z-7.56
N5650 X36.521 Y56.11 Z-7.594
N5655 X36.607 Y56.054 Z-7.614
N5660 X36.694 Y55.996 Z-7.621
N5665 G3 X40.608 Y53.986 I11.237 J17.055
N5670 G1 X40.719 Y53.947
N5675 X40.965 Y53.85
N5680 X41.09 Y53.798
N5685 X41.212 Y53.74
N5690 X41.459 Y53.62
N5695 X41.582 Y53.551
N5700 X41.706 Y53.476
N5705 X41.952 Y53.299
N5710 X42.199 Y53.117
N5715 X42.527 Y52.811
N5720 X42.693 Y52.617
N5725 X42.737 Y52.564
N5730 X42.928 Y52.317
N5735 X42.94 Y52.3
N5740 X43.083 Y52.07
N5745 X43.324 Y51.577
N5750 X43.429 Y51.33
N5755 X43.506 Y51.083
N5760 X43.571 Y50.837
N5765 X43.609 Y50.59
N5770 X43.697 Y49.849
N5775 X43.955 Y47.628
N5780 X43.983 Y47.382
N5785 X44.061 Y46.641
N5790 X44.344 Y44.173
N5795 X44.411 Y43.433
N5800 X44.626 Y41.459
N5805 X44.949 Y38.498
N5810 X45.025 Y37.757
N5815 X45.121 Y36.77
N5820 X45.271 Y35.289
N5825 X45.338 Y34.549
N5830 X45.475 Y33.068
N5835 X45.567 Y32.081
N5840 X45.588 Y31.835
N5845 X45.654 Y31.02
N5850 X45.854 Y28.626
N5855 X45.923 Y27.639
N5860 X46.084 Y25.418
N5865 X46.148 Y24.341
N5870 X46.277 Y22.21
N5875 X46.29 Y21.963
N5880 X46.324 Y21.223
N5885 X46.422 Y19.249
N5890 X46.433 Y19.002
N5895 X46.444 Y18.755
N5900 X46.467 Y18.015
N5905 X46.647 Y13.079
N5910 X46.669 Y12.339
N5915 X46.734 Y9.871
N5920 X46.797 Y6.91
N5925 X46.812 Y6.169
N5930 X46.865 Y3.208
N5935 X46.892 Y1.481
N5940 X46.923 Y-0.494
N5945 X46.957 Y-2.715
N5950 X46.988 Y-4.936
N5955 X47.025 Y-8.637
N5960 X47.038 Y-9.871
N5965 X47.042 Y-10.612
N5970 X47.045 Y-15.547
N5975 X47.034 Y-16.534
N5980 X46.979 Y-20.483
N5985 X46.965 Y-21.223
N5990 X46.953 Y-21.717
N5995 X46.905 Y-23.444
N6000 X46.898 Y-23.691
N6005 X46.871 Y-24.431
N6010 X46.806 Y-26.159
N6015 X46.761 Y-27.146
N6020 X46.689 Y-28.626
N6025 X46.641 Y-29.542
N6030 X46.508 Y-31.835
N6035 X46.493 Y-32.081
N6040 X46.425 Y-33.068
N6045 X46.147 Y-37.017
N6050 X46.093 Y-37.757
N6055 X45.766 Y-41.706
N6060 X45.691 Y-42.693
N6065 X45.629 Y-43.433
N6070 X45.044 Y-49.849
N6075 X45.019 Y-50.096
N6080 X44.99 Y-50.343
N6085 G3 X45.29 Y-51.035 I0.797 J-0.065
N6090 G1 X45.372 Y-51.1 Z-7.614
N6095 X45.453 Y-51.163 Z-7.594
N6100 X45.53 Y-51.225 Z-7.56
N6105 X45.604 Y-51.283 Z-7.514
N6110 X45.672 Y-51.337 Z-7.455
N6115 X45.734 Y-51.386 Z-7.386
N6120 X45.788 Y-51.429 Z-7.308
N6125 X45.833 Y-51.465 Z-7.221
N6130 X45.87 Y-51.494 Z-7.127
N6135 X45.896 Y-51.515 Z-7.028
N6140 X45.912 Y-51.527 Z-6.925
N6145 X45.917 Y-51.532 Z-6.821
N6150 Z5
N6155 X-0.767 Y-56.369
N6160 Z-6.021
N6165 Z-6.821
N6170 X-0.773 Y-56.366 Z-6.925
N6175 X-0.79 Y-56.355 Z-7.028
N6180 X-0.819 Y-56.337 Z-7.127
N6185 X-0.858 Y-56.312 Z-7.221
N6190 X-0.907 Y-56.281 Z-7.308
N6195 X-0.965 Y-56.244 Z-7.386
N6200 X-1.031 Y-56.201 Z-7.455
N6205 X-1.105 Y-56.155 Z-7.514
N6210 X-1.184 Y-56.104 Z-7.56
N6215 X-1.268 Y-56.051 Z-7.594
N6220 X-1.354 Y-55.996 Z-7.614
N6225 X-1.442 Y-55.94 Z-7.621
N6230 G3 X-5.386 Y-53.99 I-10.972 J-17.227
N6235 G1 X-5.429 Y-53.976
N6240 X-5.676 Y-53.867
N6245 X-6.169 Y-53.644
N6250 X-6.332 Y-53.551
N6255 X-6.416 Y-53.501
N6260 X-6.663 Y-53.351
N6265 X-6.73 Y-53.324
N6270 X-6.797 Y-53.304
N6275 X-6.91 Y-53.284
N6280 X-7.033 Y-53.281
N6285 X-7.157 Y-53.297
N6290 X-7.19 Y-53.304
N6295 X-7.296 Y-53.337
N6300 X-7.403 Y-53.388
N6305 X-7.444 Y-53.415
N6310 G3 X-7.772 Y-54.094 I0.471 J-0.647
N6315 G1 X-7.768 Y-54.198 Z-7.614
N6320 X-7.764 Y-54.301 Z-7.594
N6325 X-7.76 Y-54.4 Z-7.56
N6330 X-7.756 Y-54.494 Z-7.514
N6335 X-7.752 Y-54.581 Z-7.455
N6340 X-7.749 Y-54.659 Z-7.386
N6345 X-7.747 Y-54.728 Z-7.308
N6350 X-7.744 Y-54.786 Z-7.221
N6355 X-7.742 Y-54.832 Z-7.127
N6360 X-7.741 Y-54.866 Z-7.028
N6365 X-7.74 Y-54.886 Z-6.925
N6370 Y-54.893 Z-6.821
N6375 Z5
N6380 X-19.779 Y-56.899
N6385 Z-6.021
N6390 Z-6.821
N6395 X-19.785 Y-56.895 Z-6.925
N6400 X-19.801 Y-56.882 Z-7.028
N6405 X-19.827 Y-56.86 Z-7.127
N6410 X-19.862 Y-56.831 Z-7.221
N6415 X-19.907 Y-56.794 Z-7.308
N6420 X-19.961 Y-56.751 Z-7.386
N6425 X-20.022 Y-56.701 Z-7.455
N6430 X-20.089 Y-56.646 Z-7.514
N6435 X-20.161 Y-56.586 Z-7.56
N6440 X-20.238 Y-56.523 Z-7.594
N6445 X-20.318 Y-56.458 Z-7.614
N6450 X-20.398 Y-56.392 Z-7.621
N6455 G3 X-24.083 Y-53.987 I-12.942 J-15.8
N6460 G1 X-24.184 Y-53.939
N6465 X-24.447 Y-53.798
N6470 X-24.678 Y-53.662
N6475 X-24.925 Y-53.496
N6480 X-25.048 Y-53.432
N6485 X-25.171 Y-53.393
N6490 X-25.295 Y-53.374
N6495 X-25.418
N6500 X-25.542 Y-53.394
N6505 X-25.665 Y-53.435
N6510 X-25.784 Y-53.499
N6515 G3 X-26.178 Y-54.142 I0.404 J-0.691
N6520 G1 X-26.185 Y-54.246 Z-7.614
N6525 X-26.191 Y-54.348 Z-7.594
N6530 X-26.197 Y-54.447 Z-7.56
N6535 X-26.202 Y-54.541 Z-7.514
N6540 X-26.207 Y-54.628 Z-7.455
N6545 X-26.212 Y-54.706 Z-7.386
N6550 X-26.216 Y-54.775 Z-7.308
N6555 X-26.22 Y-54.833 Z-7.221
N6560 X-26.223 Y-54.879 Z-7.127
N6565 X-26.225 Y-54.913 Z-7.028
N6570 X-26.226 Y-54.933 Z-6.925
N6575 Y-54.94 Z-6.821
N6580 Z5
N6585 X-50.952 Y-57.215
N6590 Z-6.021
N6595 Z-6.821
N6600 X-50.954 Y-57.208 Z-6.925
N6605 X-50.959 Y-57.188 Z-7.028
N6610 X-50.967 Y-57.156 Z-7.127
N6615 X-50.978 Y-57.111 Z-7.221
N6620 X-50.993 Y-57.055 Z-7.308
N6625 X-51.01 Y-56.988 Z-7.386
N6630 X-51.029 Y-56.912 Z-7.455
N6635 X-51.051 Y-56.827 Z-7.514
N6640 X-51.074 Y-56.736 Z-7.56
N6645 X-51.098 Y-56.64 Z-7.594
N6650 X-51.124 Y-56.541 Z-7.614
N6655 X-51.149 Y-56.44 Z-7.621
N6660 G3 X-52.687 Y-52.317 I-19.793 J-5.037
N6665 G1 X-52.811 Y-52.091
N6670 X-53.058 Y-51.539
N6675 X-53.13 Y-51.33
N6680 X-53.257 Y-50.837
N6685 X-53.295 Y-50.59
N6690 X-53.34 Y-50.096
N6695 Y-49.849
N6700 X-53.326 Y-49.356
N6705 X-53.29 Y-48.369
N6710 X-53.263 Y-47.628
N6715 X-53.231 Y-46.888
N6720 X-53.192 Y-46.148
N6725 X-52.961 Y-41.952
N6730 X-52.927 Y-41.212
N6735 X-52.917 Y-40.965
N6740 X-52.869 Y-39.485
N6745 X-52.846 Y-38.991
N6750 X-52.787 Y-37.757
N6755 X-52.739 Y-36.77
N6760 X-52.716 Y-36.277
N6765 X-52.707 Y-36.03
N6770 X-52.667 Y-34.549
N6775 X-52.644 Y-33.809
N6780 X-52.635 Y-33.562
N6785 X-52.544 Y-31.341
N6790 X-52.536 Y-31.094
N6795 X-52.499 Y-29.614
N6800 X-52.475 Y-28.873
N6805 X-52.469 Y-28.626
N6810 X-52.448 Y-27.639
N6815 X-52.439 Y-27.146
N6820 X-52.42 Y-26.405
N6825 X-52.41 Y-25.912
N6830 X-52.402 Y-25.418
N6835 X-52.393 Y-24.678
N6840 X-52.375 Y-23.691
N6845 X-52.365 Y-22.95
N6850 X-52.36 Y-22.21
N6855 X-52.347 Y-20.976
N6860 X-52.342 Y-20.483
N6865 X-52.332 Y-17.768
N6870 X-52.32 Y-15.547
N6875 X-52.313 Y-12.586
N6880 X-52.304 Y-10.365
N6885 X-52.289 Y-7.897
N6890 X-52.279 Y-6.663
N6895 X-52.262 Y-4.936
N6900 X-52.249 Y-3.948
N6905 X-52.233 Y-2.961
N6910 X-52.21 Y-1.727
N6915 X-52.189 Y-0.74
N6920 X-52.156 Y0.494
N6925 X-52.131 Y1.481
N6930 X-52.124 Y1.727
N6935 X-52.088 Y2.715
N6940 X-52.07 Y3.208
N6945 X-52.015 Y4.936
N6950 X-51.948 Y6.416
N6955 X-51.938 Y6.663
N6960 X-51.885 Y8.144
N6965 X-51.834 Y9.131
N6970 X-51.799 Y9.871
N6975 X-51.772 Y10.612
N6980 X-51.742 Y11.352
N6985 X-51.73 Y11.599
N6990 X-51.69 Y12.339
N6995 X-51.656 Y13.079
N7000 X-51.57 Y15.547
N7005 X-51.542 Y16.287
N7010 X-51.53 Y16.534
N7015 X-51.414 Y18.755
N7020 X-51.404 Y19.002
N7025 X-51.374 Y19.989
N7030 X-51.36 Y20.483
N7035 X-51.312 Y21.717
N7040 X-51.302 Y21.963
N7045 X-51.294 Y22.21
N7050 X-51.262 Y23.691
N7055 X-51.247 Y24.184
N7060 X-51.232 Y24.678
N7065 X-51.214 Y25.418
N7070 X-51.195 Y26.899
N7075 X-51.186 Y27.392
N7080 X-51.177 Y27.886
N7085 X-51.17 Y28.626
N7090 X-51.16 Y30.601
N7095 X-51.157 Y31.094
N7100 X-51.158 Y31.835
N7105 X-51.162 Y33.315
N7110 X-51.168 Y34.549
N7115 X-51.182 Y36.03
N7120 X-51.201 Y37.51
N7125 X-51.254 Y40.965
N7130 X-51.271 Y41.706
N7135 X-51.316 Y43.68
N7140 X-51.345 Y45.161
N7145 X-51.371 Y46.148
N7150 X-51.392 Y46.888
N7155 X-51.423 Y48.369
N7160 X-51.451 Y49.356
N7165 X-51.464 Y49.849
N7170 X-51.482 Y49.932 Z-7.616
N7175 X-51.5 Y50.015 Z-7.602
N7180 X-51.518 Y50.095 Z-7.579
N7185 X-51.563 Y50.172 Z-7.542
N7190 X-51.606 Y50.244 Z-7.495
N7195 X-51.646 Y50.311 Z-7.437
N7200 X-51.697 Y50.356 Z-7.372
N7205 X-51.742 Y50.396 Z-7.3
N7210 X-51.78 Y50.43 Z-7.22
N7215 X-51.811 Y50.457 Z-7.135
N7220 X-51.834 Y50.477 Z-7.046
N7225 X-51.852 Y50.488 Z-6.942
N7230 X-51.859 Y50.492 Z-6.835
N7235 Z5
N7240 X4.223 Y56.724
N7245 Z-5.787
N7250 Z-6.587
N7255 X4.229 Y56.72 Z-6.692
N7260 X4.245 Y56.707 Z-6.794
N7265 X4.272 Y56.687 Z-6.893
N7270 X4.309 Y56.659 Z-6.987
N7275 X4.355 Y56.624 Z-7.074
N7280 X4.41 Y56.583 Z-7.153
N7285 X4.473 Y56.535 Z-7.222
N7290 X4.543 Y56.483 Z-7.28
N7295 X4.617 Y56.426 Z-7.326
N7300 X4.696 Y56.366 Z-7.36
N7305 X4.778 Y56.305 Z-7.38
N7310 X4.862 Y56.242 Z-7.387
N7315 G3 X8.637 Y53.982 I12.314 J16.294
N7320 G1 X8.884 Y53.879
N7325 X9.065 Y53.798
N7330 X9.131 Y53.766
N7335 X9.254 Y53.719
N7340 X9.378 Y53.694
N7345 X9.501 Y53.688
N7350 X9.624 Y53.701
N7355 X9.748 Y53.734
N7360 X9.785 Y53.75
N7365 G3 X10.232 Y54.358 I-0.345 J0.722
N7370 G1 X10.247 Y54.461 Z-7.38
N7375 X10.261 Y54.563 Z-7.36
N7380 X10.275 Y54.661 Z-7.326
N7385 X10.289 Y54.754 Z-7.28
N7390 X10.301 Y54.84 Z-7.222
N7395 X10.312 Y54.918 Z-7.153
N7400 X10.322 Y54.986 Z-7.074
N7405 X10.33 Y55.044 Z-6.987
N7410 X10.337 Y55.089 Z-6.893
N7415 X10.342 Y55.123 Z-6.794
N7420 X10.345 Y55.143 Z-6.692
N7425 X10.346 Y55.15 Z-6.587
N7430 Z5
N7435 X34.814 Y56.705
N7440 Z-5.787
N7445 Z-6.587
N7450 X34.82 Y56.701 Z-6.692
N7455 X34.836 Y56.688 Z-6.794
N7460 X34.863 Y56.668 Z-6.893
N7465 X34.9 Y56.64 Z-6.987
N7470 X34.946 Y56.605 Z-7.074
N7475 X35.002 Y56.564 Z-7.153
N7480 X35.065 Y56.517 Z-7.222
N7485 X35.134 Y56.465 Z-7.28
N7490 X35.209 Y56.408 Z-7.326
N7495 X35.289 Y56.349 Z-7.36
N7500 X35.371 Y56.287 Z-7.38
N7505 X35.454 Y56.225 Z-7.387
N7510 G3 X39.238 Y53.979 I12.256 J16.338
N7515 G1 X39.731 Y53.774
N7520 X39.978 Y53.654
N7525 X40.225 Y53.513
N7530 X40.472 Y53.346
N7535 X40.531 Y53.304
N7540 X40.805 Y53.058
N7545 X41.078 Y52.811
N7550 X41.212 Y52.665
N7555 X41.287 Y52.564
N7560 X41.463 Y52.317
N7565 X41.628 Y52.07
N7570 X41.935 Y51.439
N7575 X42.102 Y50.837
N7580 X42.15 Y50.59
N7585 X42.341 Y49.109
N7590 X42.542 Y47.628
N7595 X42.573 Y47.382
N7600 X42.661 Y46.641
N7605 X42.693 Y46.389
N7610 X42.757 Y45.901
N7615 X42.955 Y44.42
N7620 X42.987 Y44.173
N7625 X43.149 Y42.693
N7630 X43.186 Y42.384
N7635 X43.335 Y41.212
N7640 X43.681 Y38.498
N7645 X43.769 Y37.757
N7650 X43.796 Y37.51
N7655 X43.848 Y37.017
N7660 X43.875 Y36.77
N7665 X44.049 Y35.289
N7670 X44.076 Y35.043
N7675 X44.153 Y34.302
N7680 X44.227 Y33.562
N7685 X44.387 Y32.081
N7690 X44.412 Y31.835
N7695 X44.548 Y30.354
N7700 X44.714 Y28.626
N7705 X44.791 Y27.639
N7710 X44.852 Y26.899
N7715 X44.976 Y25.418
N7720 X45.039 Y24.431
N7725 X45.141 Y22.95
N7730 X45.192 Y22.21
N7735 X45.206 Y21.963
N7740 X45.244 Y21.223
N7745 X45.341 Y19.496
N7750 X45.367 Y19.002
N7755 X45.379 Y18.755
N7760 X45.433 Y17.275
N7765 X45.604 Y13.079
N7770 X45.629 Y12.339
N7775 X45.671 Y10.858
N7780 X45.7 Y9.871
N7785 X45.73 Y8.637
N7790 X45.782 Y6.416
N7795 X45.831 Y3.948
N7800 X45.846 Y3.208
N7805 X45.863 Y2.221
N7810 X45.91 Y-0.247
N7815 X45.927 Y-1.234
N7820 X45.951 Y-2.468
N7825 X45.966 Y-3.455
N7830 X45.993 Y-4.936
N7835 X46.008 Y-6.169
N7840 X46.016 Y-6.91
N7845 X46.057 Y-9.871
N7850 X46.064 Y-10.612
N7855 X46.066 Y-12.339
N7860 X46.075 Y-15.547
N7865 X46.067 Y-16.287
N7870 X46.007 Y-20.483
N7875 X45.992 Y-21.223
N7880 X45.986 Y-21.47
N7885 X45.933 Y-23.197
N7890 X45.917 Y-23.691
N7895 X45.888 Y-24.431
N7900 X45.813 Y-26.159
N7905 X45.777 Y-26.899
N7910 X45.75 Y-27.392
N7915 X45.637 Y-29.367
N7920 X45.622 Y-29.614
N7925 X45.504 Y-31.341
N7930 X45.407 Y-32.716
N7935 X45.339 Y-33.562
N7940 X44.99 Y-37.757
N7945 X44.925 Y-38.498
N7950 X44.609 Y-41.706
N7955 X44.516 Y-42.693
N7960 X44.381 Y-44.173
N7965 X44.357 Y-44.42
N7970 X44.196 Y-45.901
N7975 X43.766 Y-49.849
N7980 X43.737 Y-50.096
N7985 X43.706 Y-50.343
N7990 G3 X44.001 Y-51.037 I0.797 J-0.072
N7995 G1 X44.082 Y-51.103 Z-7.38
N8000 X44.162 Y-51.167 Z-7.36
N8005 X44.239 Y-51.229 Z-7.326
N8010 X44.312 Y-51.288 Z-7.28
N8015 X44.38 Y-51.343 Z-7.222
N8020 X44.441 Y-51.392 Z-7.153
N8025 X44.495 Y-51.436 Z-7.074
N8030 X44.54 Y-51.472 Z-6.987
N8035 X44.576 Y-51.501 Z-6.893
N8040 X44.602 Y-51.522 Z-6.794
N8045 X44.618 Y-51.535 Z-6.692
N8050 X44.624 Y-51.539 Z-6.587
N8055 Z5
N8060 X0.18 Y-56.674
N8065 Z-5.787
N8070 Z-6.587
N8075 X0.174 Y-56.67 Z-6.692
N8080 X0.158 Y-56.658 Z-6.794
N8085 X0.131 Y-56.638 Z-6.893
N8090 X0.093 Y-56.611 Z-6.987
N8095 X0.046 Y-56.576 Z-7.074
N8100 X-0.009 Y-56.536 Z-7.153
N8105 X-0.073 Y-56.489 Z-7.222
N8110 X-0.143 Y-56.437 Z-7.28
N8115 X-0.218 Y-56.382 Z-7.326
N8120 X-0.298 Y-56.323 Z-7.36
N8125 X-0.381 Y-56.262 Z-7.38
N8130 X-0.465 Y-56.2 Z-7.387
N8135 G3 X-4.27 Y-53.991 I-12.099 J-16.454
N8140 G1 X-4.442 Y-53.921
N8145 X-4.689 Y-53.805
N8150 X-5.182 Y-53.533
N8155 X-5.429 Y-53.366
N8160 X-5.512 Y-53.304
N8165 X-5.676 Y-53.175
N8170 X-5.923 Y-52.947
N8175 X-6.061 Y-52.811
N8180 X-6.094 Y-52.775
N8185 X-6.169 Y-52.692
N8190 X-6.254 Y-52.619
N8195 X-6.339 Y-52.564
N8200 X-6.416 Y-52.526
N8205 X-6.54 Y-52.484
N8210 X-6.663 Y-52.464
N8215 X-6.786 Y-52.463
N8220 X-6.91 Y-52.481
N8225 X-7.018 Y-52.513
N8230 X-7.125 Y-52.564
N8235 X-7.157 Y-52.583
N8240 X-7.218 Y-52.625
N8245 X-7.28 Y-52.678
N8250 X-7.317 Y-52.717
N8255 G3 X-7.49 Y-53.451 I0.6 J-0.529
N8260 G1 X-7.464 Y-53.552 Z-7.38
N8265 X-7.437 Y-53.651 Z-7.36
N8270 X-7.412 Y-53.747 Z-7.326
N8275 X-7.388 Y-53.838 Z-7.28
N8280 X-7.366 Y-53.922 Z-7.222
N8285 X-7.345 Y-53.998 Z-7.153
N8290 X-7.328 Y-54.065 Z-7.074
N8295 X-7.313 Y-54.121 Z-6.987
N8300 X-7.301 Y-54.166 Z-6.893
N8305 X-7.292 Y-54.198 Z-6.794
N8310 X-7.287 Y-54.218 Z-6.692
N8315 X-7.285 Y-54.225 Z-6.587
N8320 Z5
N8325 X-19.937 Y-57.118
N8330 Z-5.787
N8335 Z-6.587
N8340 X-19.942 Y-57.114 Z-6.692
N8345 X-19.957 Y-57.099 Z-6.794
N8350 X-19.981 Y-57.076 Z-6.893
N8355 X-20.014 Y-57.044 Z-6.987
N8360 X-20.056 Y-57.003 Z-7.074
N8365 X-20.106 Y-56.955 Z-7.153
N8370 X-20.162 Y-56.901 Z-7.222
N8375 X-20.225 Y-56.84 Z-7.28
N8380 X-20.292 Y-56.775 Z-7.326
N8385 X-20.363 Y-56.706 Z-7.36
N8390 X-20.437 Y-56.635 Z-7.38
N8395 X-20.512 Y-56.562 Z-7.387
N8400 G3 X-23.985 Y-53.861 I-14.202 J-14.678
N8405 G1 X-24.184 Y-53.747
N8410 X-24.473 Y-53.551
N8415 X-24.678 Y-53.385
N8420 X-24.774 Y-53.304
N8425 X-24.925 Y-53.176
N8430 X-25.045 Y-53.058
N8435 X-25.171 Y-52.936
N8440 X-25.278 Y-52.864
N8445 X-25.384 Y-52.811
N8450 X-25.418 Y-52.798
N8455 X-25.542 Y-52.765
N8460 X-25.665 Y-52.752
N8465 X-25.788 Y-52.758
N8470 X-25.912 Y-52.784
N8475 X-25.989 Y-52.811
N8480 X-26.074 Y-52.851
N8485 X-26.159 Y-52.905
N8490 X-26.21 Y-52.951
N8495 G3 X-26.445 Y-53.668 I0.553 J-0.578
N8500 G1 X-26.427 Y-53.771 Z-7.38
N8505 X-26.409 Y-53.872 Z-7.36
N8510 X-26.392 Y-53.97 Z-7.326
N8515 X-26.376 Y-54.062 Z-7.28
N8520 X-26.361 Y-54.148 Z-7.222
N8525 X-26.347 Y-54.225 Z-7.153
N8530 X-26.335 Y-54.293 Z-7.074
N8535 X-26.325 Y-54.35 Z-6.987
N8540 X-26.317 Y-54.396 Z-6.893
N8545 X-26.311 Y-54.429 Z-6.794
N8550 X-26.308 Y-54.449 Z-6.692
N8555 X-26.307 Y-54.456 Z-6.587
N8560 Z5
N8565 X-51.338 Y-57.178
N8570 Z-5.787
N8575 Z-6.587
N8580 X-51.339 Y-57.171 Z-6.692
N8585 X-51.343 Y-57.151 Z-6.794
N8590 X-51.348 Y-57.118 Z-6.893
N8595 X-51.356 Y-57.072 Z-6.987
N8600 X-51.365 Y-57.015 Z-7.074
N8605 X-51.377 Y-56.947 Z-7.153
N8610 X-51.39 Y-56.869 Z-7.222
N8615 X-51.404 Y-56.784 Z-7.28
N8620 X-51.419 Y-56.691 Z-7.326
N8625 X-51.436 Y-56.593 Z-7.36
N8630 X-51.453 Y-56.492 Z-7.38
N8635 X-51.47 Y-56.389 Z-7.387
N8640 G3 X-52.656 Y-52.152 I-20.146 J-3.357
N8645 G1 X-52.91 Y-51.577
N8650 X-52.998 Y-51.33
N8655 X-53.124 Y-50.837
N8660 X-53.161 Y-50.59
N8665 X-53.206 Y-50.096
N8670 X-53.202 Y-49.849
N8675 X-53.182 Y-49.356
N8680 X-53.17 Y-49.109
N8685 X-52.952 Y-45.161
N8690 X-52.908 Y-44.42
N8695 X-52.75 Y-41.952
N8700 X-52.707 Y-41.212
N8705 X-52.693 Y-40.965
N8710 X-52.535 Y-37.757
N8715 X-52.452 Y-36.277
N8720 X-52.44 Y-36.03
N8725 X-52.298 Y-32.575
N8730 X-52.277 Y-32.081
N8735 X-52.242 Y-31.341
N8740 X-52.232 Y-31.094
N8745 X-52.206 Y-30.354
N8750 X-52.165 Y-29.12
N8755 X-52.142 Y-28.38
N8760 X-52.127 Y-27.886
N8765 X-52.083 Y-26.159
N8770 X-52.065 Y-25.418
N8775 X-52.025 Y-23.197
N8780 X-52.021 Y-22.95
N8785 X-51.996 Y-20.729
N8790 X-51.993 Y-20.483
N8795 X-51.968 Y-15.794
N8800 X-51.957 Y-13.079
N8805 X-51.948 Y-10.612
N8810 X-51.941 Y-9.624
N8815 X-51.904 Y-5.676
N8820 X-51.894 Y-4.936
N8825 X-51.857 Y-2.961
N8830 X-51.847 Y-2.468
N8835 X-51.787 Y-0.247
N8840 X-51.78 Y0
N8845 X-51.725 Y1.481
N8850 X-51.678 Y2.715
N8855 X-51.658 Y3.208
N8860 X-51.509 Y6.416
N8865 X-51.498 Y6.663
N8870 X-51.448 Y7.65
N8875 X-51.383 Y8.884
N8880 X-51.33 Y9.948
N8885 X-51.212 Y12.092
N8890 X-51.199 Y12.339
N8895 X-51.166 Y13.079
N8900 X-51.117 Y14.066
N8905 X-50.872 Y18.755
N8910 X-50.861 Y19.002
N8915 X-50.832 Y19.742
N8920 X-50.758 Y21.47
N8925 X-50.739 Y21.963
N8930 X-50.729 Y22.21
N8935 X-50.708 Y22.95
N8940 X-50.653 Y24.678
N8945 X-50.635 Y25.418
N8950 X-50.589 Y27.886
N8955 X-50.579 Y28.873
N8960 X-50.566 Y31.094
N8965 Y31.588
N8970 X-50.569 Y32.575
N8975 X-50.577 Y34.302
N8980 X-50.579 Y34.549
N8985 X-50.598 Y36.03
N8990 X-50.622 Y37.757
N8995 X-50.642 Y38.744
N9000 X-50.756 Y43.68
N9005 X-50.775 Y44.42
N9010 X-50.854 Y47.135
N9015 X-50.867 Y47.628
N9020 X-50.921 Y49.356
N9025 X-50.933 Y49.849
N9030 X-50.952 Y49.932 Z-7.382
N9035 X-50.97 Y50.015 Z-7.369
N9040 X-50.988 Y50.095 Z-7.346
N9045 X-51.033 Y50.172 Z-7.309
N9050 X-51.076 Y50.244 Z-7.261
N9055 X-51.115 Y50.311 Z-7.204
N9060 X-51.166 Y50.356 Z-7.139
N9065 X-51.211 Y50.396 Z-7.066
N9070 X-51.25 Y50.43 Z-6.987
N9075 X-51.281 Y50.457 Z-6.902
N9080 X-51.303 Y50.477 Z-6.813
N9085 X-51.322 Y50.488 Z-6.708
N9090 X-51.328 Y50.492 Z-6.602
N9095 Z5
N9100 X3.807 Y56.709
N9105 Z-5.679
N9110 Z-6.479
N9115 X3.813 Y56.705 Z-6.584
N9120 X3.829 Y56.692 Z-6.686
N9125 X3.856 Y56.672 Z-6.786
N9130 X3.893 Y56.644 Z-6.879
N9135 X3.939 Y56.609 Z-6.966
N9140 X3.994 Y56.567 Z-7.045
N9145 X4.057 Y56.52 Z-7.114
N9150 X4.126 Y56.467 Z-7.172
N9155 X4.201 Y56.411 Z-7.219
N9160 X4.28 Y56.351 Z-7.252
N9165 X4.362 Y56.289 Z-7.273
N9170 X4.445 Y56.226 Z-7.279
N9175 G3 X8.218 Y53.963 I12.331 J16.281
N9180 G1 X8.39 Y53.89
N9185 X8.637 Y53.776
N9190 X8.884 Y53.645
N9195 X9.043 Y53.551
N9200 X9.131 Y53.51
N9205 X9.254 Y53.471
N9210 X9.378 Y53.452
N9215 X9.501
N9220 X9.624 Y53.472
N9225 X9.726 Y53.503
N9230 X9.828 Y53.551
N9235 G3 X10.204 Y54.205 I-0.423 J0.679
N9240 G1 X10.208 Y54.309 Z-7.273
N9245 X10.211 Y54.412 Z-7.252
N9250 X10.214 Y54.511 Z-7.219
N9255 X10.217 Y54.605 Z-7.172
N9260 X10.219 Y54.692 Z-7.114
N9265 X10.222 Y54.77 Z-7.045
N9270 X10.224 Y54.839 Z-6.966
N9275 X10.226 Y54.897 Z-6.879
N9280 X10.227 Y54.944 Z-6.786
N9285 X10.228 Y54.977 Z-6.686
N9290 X10.229 Y54.998 Z-6.584
N9295 Y55.004 Z-6.479
N9300 Z5
N9305 X34.827 Y57.012
N9310 Z-5.679
N9315 Z-6.479
N9320 X34.832 Y57.007 Z-6.584
N9325 X34.847 Y56.993 Z-6.686
N9330 X34.872 Y56.971 Z-6.786
N9335 X34.906 Y56.94 Z-6.879
N9340 X34.95 Y56.901 Z-6.966
N9345 X35.001 Y56.855 Z-7.045
N9350 X35.06 Y56.802 Z-7.114
N9355 X35.124 Y56.744 Z-7.172
N9360 X35.194 Y56.681 Z-7.219
N9365 X35.268 Y56.615 Z-7.252
N9370 X35.344 Y56.546 Z-7.273
N9375 X35.422 Y56.477 Z-7.279
N9380 G3 X38.991 Y53.904 I13.657 J15.186
N9385 G1 X39.194 Y53.798
N9390 X39.731 Y53.497
N9395 X39.989 Y53.304
N9400 X40.225 Y53.105
N9405 X40.472 Y52.874
N9410 X40.526 Y52.811
N9415 X40.965 Y52.218
N9420 X41.071 Y52.07
N9425 X41.195 Y51.824
N9430 X41.305 Y51.577
N9435 X41.396 Y51.33
N9440 X41.531 Y50.837
N9445 X41.581 Y50.59
N9450 X41.686 Y49.849
N9455 X41.887 Y48.369
N9460 X42.026 Y47.382
N9465 X42.324 Y45.161
N9470 X42.461 Y44.173
N9475 X43.091 Y39.238
N9480 X43.285 Y37.757
N9485 X43.315 Y37.51
N9490 X43.68 Y34.405
N9495 X43.878 Y32.575
N9500 X43.959 Y31.835
N9505 X44.035 Y31.094
N9510 X44.203 Y29.367
N9515 X44.277 Y28.626
N9520 X44.341 Y27.886
N9525 X44.486 Y26.159
N9530 X44.551 Y25.418
N9535 X44.604 Y24.678
N9540 X44.742 Y22.704
N9545 X44.777 Y22.21
N9550 X44.793 Y21.963
N9555 X44.96 Y19.002
N9560 X44.972 Y18.755
N9565 X45.184 Y13.573
N9570 X45.205 Y13.079
N9575 X45.232 Y12.339
N9580 X45.311 Y9.624
N9585 X45.331 Y8.884
N9590 X45.39 Y6.416
N9595 X45.426 Y4.689
N9600 X45.462 Y2.961
N9605 X45.515 Y0.247
N9610 X45.563 Y-2.221
N9615 X45.614 Y-4.936
N9620 X45.629 Y-5.923
N9625 X45.68 Y-9.624
N9630 X45.693 Y-10.612
N9635 X45.696 Y-11.599
N9640 X45.705 Y-14.807
N9645 X45.709 Y-15.547
N9650 X45.704 Y-16.041
N9655 X45.641 Y-20.483
N9660 X45.625 Y-21.223
N9665 X45.611 Y-21.717
N9670 X45.573 Y-22.95
N9675 X45.548 Y-23.691
N9680 X45.516 Y-24.431
N9685 X45.462 Y-25.665
N9690 X45.439 Y-26.159
N9695 X45.398 Y-26.899
N9700 X45.3 Y-28.626
N9705 X45.217 Y-29.86
N9710 X45.132 Y-31.094
N9715 X45.074 Y-31.835
N9720 X44.724 Y-36.03
N9725 X44.655 Y-36.77
N9730 X44.243 Y-40.965
N9735 X44.167 Y-41.706
N9740 X44.004 Y-43.186
N9745 X43.359 Y-49.109
N9750 X43.274 Y-49.849
N9755 X43.243 Y-50.096
N9760 X43.186 Y-50.511
N9765 G3 X43.474 Y-51.209 I0.796 J-0.08
N9770 G1 X43.555 Y-51.275 Z-7.273
N9775 X43.634 Y-51.34 Z-7.252
N9780 X43.71 Y-51.403 Z-7.219
N9785 X43.783 Y-51.463 Z-7.172
N9790 X43.85 Y-51.518 Z-7.114
N9795 X43.911 Y-51.568 Z-7.045
N9800 X43.964 Y-51.612 Z-6.966
N9805 X44.009 Y-51.649 Z-6.879
N9810 X44.045 Y-51.678 Z-6.786
N9815 X44.071 Y-51.7 Z-6.686
N9820 X44.086 Y-51.713 Z-6.584
N9825 X44.092 Y-51.717 Z-6.479
N9830 Z5
N9835 X29.871 Y-56.864
N9840 Z-5.679
N9845 Z-6.479
N9850 X29.866 Y-56.859 Z-6.584
N9855 X29.852 Y-56.845 Z-6.686
N9860 X29.829 Y-56.82 Z-6.786
N9865 X29.796 Y-56.787 Z-6.879
N9870 X29.756 Y-56.745 Z-6.966
N9875 X29.708 Y-56.696 Z-7.045
N9880 X29.653 Y-56.639 Z-7.114
N9885 X29.593 Y-56.577 Z-7.172
N9890 X29.528 Y-56.509 Z-7.219
N9895 X29.459 Y-56.438 Z-7.252
N9900 X29.387 Y-56.364 Z-7.273
N9905 X29.315 Y-56.289 Z-7.279
N9910 G3 X25.567 Y-53.984 I-6.373 J-6.164
N9915 G1 X25.542 Y-53.977
N9920 X25.418 Y-53.964
N9925 X25.295 Y-53.97
N9930 G3 X24.731 Y-54.471 I0.187 J-0.778
N9935 G1 X24.695 Y-54.569 Z-7.273
N9940 X24.66 Y-54.665 Z-7.252
N9945 X24.626 Y-54.758 Z-7.219
N9950 X24.593 Y-54.846 Z-7.172
N9955 X24.563 Y-54.928 Z-7.114
N9960 X24.536 Y-55.002 Z-7.045
N9965 X24.512 Y-55.067 Z-6.966
N9970 X24.492 Y-55.121 Z-6.879
N9975 X24.476 Y-55.165 Z-6.786
N9980 X24.465 Y-55.196 Z-6.686
N9985 X24.458 Y-55.215 Z-6.584
N9990 X24.455 Y-55.222 Z-6.479
N9995 Z5
N10000 X0.193 Y-56.855
N10005 Z-5.679
N10010 Z-6.479
N10015 X0.188 Y-56.85 Z-6.584
N10020 X0.172 Y-56.837 Z-6.686
N10025 X0.147 Y-56.816 Z-6.786
N10030 X0.111 Y-56.786 Z-6.879
N10035 X0.067 Y-56.748 Z-6.966
N10040 X0.014 Y-56.704 Z-7.045
N10045 X-0.046 Y-56.654 Z-7.114
N10050 X-0.113 Y-56.598 Z-7.172
N10055 X-0.185 Y-56.537 Z-7.219
N10060 X-0.261 Y-56.474 Z-7.252
N10065 X-0.34 Y-56.408 Z-7.273
N10070 X-0.42 Y-56.34 Z-7.279
N10075 G3 X-4.075 Y-53.892 I-13.128 J-15.646
N10080 G1 X-4.442 Y-53.716
N10085 X-4.689 Y-53.575
N10090 X-4.727 Y-53.551
N10095 X-4.936 Y-53.4
N10100 X-5.182 Y-53.211
N10105 X-5.348 Y-53.058
N10110 X-5.601 Y-52.811
N10115 X-5.923 Y-52.412
N10120 X-5.992 Y-52.317
N10125 X-6.081 Y-52.223
N10130 X-6.169 Y-52.154
N10135 X-6.25 Y-52.106
N10140 X-6.331 Y-52.07
N10145 X-6.416 Y-52.043
N10150 X-6.54 Y-52.022
N10155 X-6.663 Y-52.019
N10160 X-6.782 Y-52.035
N10165 X-6.901 Y-52.07
N10170 X-6.91 Y-52.074
N10175 X-7.033 Y-52.135
N10180 X-7.095 Y-52.177
N10185 X-7.157 Y-52.228
N10190 X-7.24 Y-52.317
N10195 X-7.267 Y-52.355
N10200 G3 X-7.339 Y-53.106 I0.666 J-0.443
N10205 G1 X-7.299 Y-53.202 Z-7.273
N10210 X-7.26 Y-53.297 Z-7.252
N10215 X-7.222 Y-53.389 Z-7.219
N10220 X-7.185 Y-53.475 Z-7.172
N10225 X-7.152 Y-53.555 Z-7.114
N10230 X-7.122 Y-53.628 Z-7.045
N10235 X-7.095 Y-53.692 Z-6.966
N10240 X-7.073 Y-53.745 Z-6.879
N10245 X-7.055 Y-53.788 Z-6.786
N10250 X-7.042 Y-53.819 Z-6.686
N10255 X-7.034 Y-53.838 Z-6.584
N10260 X-7.032 Y-53.844 Z-6.479
N10265 Z5
N10270 X-21.09 Y-57.456
N10275 Z-5.679
N10280 Z-6.479
N10285 X-21.094 Y-57.45 Z-6.584
N10290 X-21.106 Y-57.433 Z-6.686
N10295 X-21.125 Y-57.406 Z-6.786
N10300 X-21.151 Y-57.368 Z-6.879
N10305 X-21.185 Y-57.32 Z-6.966
N10310 X-21.224 Y-57.263 Z-7.045
N10315 X-21.269 Y-57.198 Z-7.114
N10320 X-21.318 Y-57.127 Z-7.172
N10325 X-21.372 Y-57.05 Z-7.219
N10330 X-21.428 Y-56.969 Z-7.252
N10335 X-21.487 Y-56.884 Z-7.273
N10340 X-21.547 Y-56.798 Z-7.279
N10345 G3 X-24.431 Y-53.476 I-16.775 J-11.65
N10350 G1 X-24.678 Y-53.262
N10355 X-24.909 Y-53.058
N10360 X-25.136 Y-52.811
N10365 X-25.171 Y-52.768
N10370 X-25.277 Y-52.65
N10375 X-25.383 Y-52.564
N10380 X-25.418 Y-52.541
N10385 X-25.542 Y-52.478
N10390 X-25.665 Y-52.439
N10395 X-25.788 Y-52.421
N10400 X-25.912 Y-52.422
N10405 X-26.035 Y-52.442
N10410 X-26.159 Y-52.484
N10415 X-26.23 Y-52.519
N10420 X-26.302 Y-52.564
N10425 X-26.405 Y-52.65
N10430 X-26.429 Y-52.677
N10435 G3 X-26.582 Y-53.416 I0.614 J-0.512
N10440 G1 X-26.553 Y-53.516 Z-7.273
N10445 X-26.524 Y-53.614 Z-7.252
N10450 X-26.496 Y-53.709 Z-7.219
N10455 X-26.469 Y-53.799 Z-7.172
N10460 X-26.444 Y-53.883 Z-7.114
N10465 X-26.422 Y-53.958 Z-7.045
N10470 X-26.403 Y-54.024 Z-6.966
N10475 X-26.386 Y-54.08 Z-6.879
N10480 X-26.373 Y-54.125 Z-6.786
N10485 X-26.364 Y-54.157 Z-6.686
N10490 X-26.358 Y-54.176 Z-6.584
N10495 X-26.356 Y-54.183 Z-6.479
N10500 Z5
N10505 X-54.049 Y-55.215
N10510 Z-5.679
N10515 Z-6.479
N10520 X-54.047 Y-55.208 Z-6.584
N10525 X-54.042 Y-55.189 Z-6.686
N10530 X-54.033 Y-55.156 Z-6.786
N10535 X-54.021 Y-55.111 Z-6.879
N10540 X-54.006 Y-55.055 Z-6.966
N10545 X-53.988 Y-54.989 Z-7.045
N10550 X-53.967 Y-54.913 Z-7.114
N10555 X-53.945 Y-54.829 Z-7.172
N10560 X-53.92 Y-54.738 Z-7.219
N10565 X-53.894 Y-54.643 Z-7.252
N10570 X-53.867 Y-54.543 Z-7.273
N10575 X-53.84 Y-54.443 Z-7.279
N10580 G3 X-53.156 Y-50.096 I-19.716 J5.332
N10585 G1 X-53.152 Y-49.849
N10590 X-53.133 Y-49.356
N10595 X-53.12 Y-49.109
N10600 X-53.038 Y-47.628
N10605 X-52.996 Y-46.888
N10610 X-52.918 Y-45.654
N10615 X-52.68 Y-41.952
N10620 X-52.637 Y-41.212
N10625 X-52.623 Y-40.965
N10630 X-52.551 Y-39.485
N10635 X-52.497 Y-38.498
N10640 X-52.384 Y-36.523
N10645 X-52.371 Y-36.277
N10650 X-52.359 Y-36.03
N10655 X-52.268 Y-33.809
N10660 X-52.234 Y-33.068
N10665 X-52.152 Y-31.341
N10670 X-52.142 Y-31.094
N10675 X-52.107 Y-30.107
N10680 X-52.091 Y-29.614
N10685 X-52.063 Y-28.873
N10690 X-52.048 Y-28.38
N10695 X-52.033 Y-27.886
N10700 X-52.014 Y-27.146
N10705 X-51.992 Y-26.405
N10710 X-51.974 Y-25.665
N10715 X-51.968 Y-25.418
N10720 X-51.95 Y-24.431
N10725 X-51.935 Y-23.691
N10730 X-51.922 Y-22.95
N10735 X-51.896 Y-20.729
N10740 X-51.893 Y-20.483
N10745 X-51.874 Y-17.028
N10750 X-51.865 Y-15.547
N10755 X-51.848 Y-11.105
N10760 X-51.844 Y-10.365
N10765 X-51.836 Y-9.378
N10770 X-51.815 Y-7.157
N10775 X-51.796 Y-5.429
N10780 X-51.79 Y-4.936
N10785 X-51.757 Y-3.208
N10790 X-51.741 Y-2.468
N10795 X-51.694 Y-0.74
N10800 X-51.67 Y0
N10805 X-51.616 Y1.481
N10810 X-51.576 Y2.468
N10815 X-51.532 Y3.455
N10820 X-51.463 Y4.936
N10825 X-51.426 Y5.676
N10830 X-51.36 Y6.91
N10835 X-51.295 Y8.144
N10840 X-51.238 Y9.131
N10845 X-51.194 Y9.871
N10850 X-51.112 Y11.352
N10855 X-51.009 Y13.079
N10860 X-50.802 Y17.028
N10865 X-50.788 Y17.275
N10870 X-50.698 Y18.755
N10875 X-50.686 Y19.002
N10880 X-50.652 Y19.742
N10885 X-50.588 Y21.223
N10890 X-50.552 Y21.963
N10895 X-50.542 Y22.21
N10900 X-50.478 Y24.184
N10905 X-50.439 Y25.418
N10910 X-50.401 Y27.392
N10915 X-50.391 Y27.886
N10920 X-50.382 Y28.626
N10925 X-50.365 Y31.094
N10930 X-50.366 Y31.588
N10935 X-50.373 Y33.315
N10940 X-50.379 Y34.302
N10945 X-50.381 Y34.549
N10950 X-50.411 Y36.77
N10955 X-50.419 Y37.264
N10960 X-50.428 Y37.757
N10965 X-50.525 Y41.952
N10970 X-50.565 Y43.433
N10975 X-50.637 Y45.901
N10980 X-50.678 Y47.135
N10985 X-50.732 Y48.862
N10990 X-50.748 Y49.356
N10995 X-50.762 Y49.849
N11000 X-50.781 Y49.932 Z-7.275
N11005 X-50.8 Y50.014 Z-7.261
N11010 X-50.818 Y50.094 Z-7.238
N11015 X-50.863 Y50.171 Z-7.201
N11020 X-50.906 Y50.244 Z-7.154
N11025 X-50.946 Y50.31 Z-7.096
N11030 X-50.997 Y50.355 Z-7.031
N11035 X-51.043 Y50.395 Z-6.958
N11040 X-51.081 Y50.428 Z-6.879
N11045 X-51.112 Y50.456 Z-6.794
N11050 X-51.135 Y50.476 Z-6.705
N11055 X-51.153 Y50.487 Z-6.6
N11060 X-51.16 Y50.491 Z-6.494
N11065 Z5
N11070 X-17.608 Y57.061
N11075 Z-4.524
N11080 Z-5.324
N11085 X-17.603 Y57.056 Z-5.428
N11090 X-17.587 Y57.043 Z-5.531
N11095 X-17.562 Y57.02 Z-5.63
N11100 X-17.527 Y56.99 Z-5.724
N11105 X-17.484 Y56.951 Z-5.811
N11110 X-17.432 Y56.905 Z-5.889
N11115 X-17.373 Y56.853 Z-5.958
N11120 X-17.308 Y56.796 Z-6.016
N11125 X-17.238 Y56.733 Z-6.063
N11130 X-17.164 Y56.668 Z-6.096
N11135 X-17.087 Y56.6 Z-6.117
N11140 X-17.008 Y56.531 Z-6.124
N11145 G3 X-13.418 Y53.987 I13.533 J15.297
N11150 G1 X-13.326 Y53.94
N11155 X-13.074 Y53.798
N11160 X-12.833 Y53.649
N11165 X-12.709 Y53.598
N11170 X-12.586 Y53.569
N11175 X-12.462 Y53.56
N11180 X-12.339 Y53.57
N11185 X-12.216 Y53.599
N11190 X-12.092 Y53.652
N11195 G3 X-11.731 Y54.314 I-0.439 J0.669
N11200 G1 X-11.73 Y54.418 Z-6.117
N11205 X-11.729 Y54.521 Z-6.096
N11210 Y54.62 Z-6.063
N11215 X-11.728 Y54.714 Z-6.016
N11220 X-11.727 Y54.801 Z-5.958
N11225 X-11.726 Y54.88 Z-5.889
N11230 Y54.949 Z-5.811
N11235 X-11.725 Y55.007 Z-5.724
N11240 Y55.053 Z-5.63
N11245 Y55.087 Z-5.531
N11250 X-11.724 Y55.107 Z-5.428
N11255 Y55.114 Z-5.324
N11260 Z5
N11265 X0.845 Y56.896
N11270 Z-4.524
N11275 Z-5.324
N11280 X0.85 Y56.892 Z-5.428
N11285 X0.866 Y56.879 Z-5.531
N11290 X0.892 Y56.858 Z-5.63
N11295 X0.928 Y56.829 Z-5.724
N11300 X0.973 Y56.792 Z-5.811
N11305 X1.027 Y56.748 Z-5.889
N11310 X1.088 Y56.698 Z-5.958
N11315 X1.155 Y56.643 Z-6.016
N11320 X1.228 Y56.584 Z-6.063
N11325 X1.304 Y56.521 Z-6.096
N11330 X1.384 Y56.456 Z-6.117
N11335 X1.465 Y56.39 Z-6.124
N11340 G3 X5.153 Y53.991 I12.919 J15.819
N11345 G1 X5.182 Y53.977
N11350 X5.429 Y53.854
N11355 X5.928 Y53.551
N11360 X6.169 Y53.375
N11365 X6.416 Y53.17
N11370 X6.663 Y52.92
N11375 X6.768 Y52.811
N11380 X6.93 Y52.643
N11385 X7.148 Y52.451
N11390 X7.369 Y52.286
N11395 X7.598 Y52.142
N11400 X7.829 Y52.022
N11405 X8.06 Y51.924
N11410 X8.504 Y51.776
N11415 X8.832 Y51.7
N11420 X9.168 Y51.683
N11425 X9.502 Y51.727
N11430 X9.822 Y51.83
N11435 X10.119 Y51.989
N11440 X10.382 Y52.198
N11445 X10.603 Y52.452
N11450 G3 X10.387 Y53.562 Z-5.924 I-0.664 J0.447
N11455 X10.052 Y53.691 I-0.447 J-0.663
N11460 G1 X7.547 Y54.045
N11465 G3 X6.993 Y53.919 I-0.112 J-0.792
N11470 X6.768 Y52.811 Z-6.124 I0.442 J-0.667
N11475 G1 X7.157 Y52.267
N11480 X7.289 Y52.07
N11485 X7.414 Y51.824
N11490 X7.526 Y51.577
N11495 X7.588 Y51.44
N11500 X7.667 Y51.313
N11505 X7.757 Y51.192
N11510 X7.863 Y51.072
N11515 X7.981 Y50.958
N11520 X8.106 Y50.856
N11525 X8.375 Y50.712
N11530 X8.671 Y50.633
N11535 X8.976 Y50.624
N11540 X9.276 Y50.685
N11545 X9.553 Y50.813
N11550 X9.794 Y51.001
N11555 X9.986 Y51.24
N11560 X10.118 Y51.515
N11565 G3 X10.185 Y51.929 Z-6.057 I-1.476 J0.451
N11570 X9.954 Y52.718 Z-5.924 I-1.357 J0.032
N11575 X7.738 Y52.77 I-1.126 J-0.757
N11580 X7.526 Y51.577 Z-6.124 I1.09 J-0.808
N11585 G1 X7.609 Y51.33
N11590 X7.741 Y50.837
N11595 X7.753 Y50.762
N11600 X7.784 Y50.615
N11605 X7.833 Y50.473
N11610 X7.985 Y50.251
N11615 X8.186 Y50.072
N11620 X8.423 Y49.946
N11625 X8.685 Y49.882
N11630 X8.954
N11635 X9.215 Y49.947
N11640 X9.453 Y50.073
N11645 X9.653 Y50.252
N11650 X9.804 Y50.475
N11655 X9.898 Y50.727
N11660 X9.924 Y50.837
N11665 X10.054 Y51.33
N11670 X10.118 Y51.515
N11675 G3 X9.748 Y52.292 I-0.61 J0.186
N11680 X7.753 Y50.762 I-0.549 J-1.35
N11685 G1 X7.781 Y50.59
N11690 X7.828 Y50.096
N11695 X7.826 Y50.055
N11700 X7.827 Y49.905
N11705 X7.869 Y49.761
N11710 X8.022 Y49.531
N11715 X8.232 Y49.352
N11720 X8.482 Y49.237
N11725 X8.755 Y49.195
N11730 X9.029 Y49.229
N11735 X9.283 Y49.337
N11740 X9.498 Y49.511
N11745 X9.657 Y49.736
N11750 X9.748 Y49.997
N11755 X9.871 Y50.614
N11760 X9.898 Y50.727
N11765 G3 X9.503 Y51.322 I-0.496 J0.099
N11770 X7.826 Y50.055 I-0.279 J-1.374
N11775 G1 X7.818 Y49.849
N11780 X7.791 Y49.467
N11785 X7.788 Y49.317
N11790 X7.814 Y49.169
N11795 X7.865 Y49.028
N11800 X8.015 Y48.825
N11805 X8.214 Y48.669
N11810 X8.447 Y48.572
N11815 X8.698 Y48.541
N11820 X8.947 Y48.578
N11825 X9.178 Y48.681
N11830 X9.373 Y48.842
N11835 X9.518 Y49.049
N11840 X9.602 Y49.287
N11845 X9.735 Y49.93
N11850 X9.748 Y49.997
N11855 G3 X9.432 Y50.522 I-0.467 J0.077
N11860 X7.791 Y49.467 I-0.397 J-1.185
N11865 G1 X7.783 Y49.356
N11870 X7.714 Y48.973
N11875 X7.703 Y48.912
N11880 X7.684 Y48.764
N11885 X7.692 Y48.614
N11890 X7.728 Y48.468
N11895 X7.858 Y48.25
N11900 X8.043 Y48.076
N11905 X8.27 Y47.961
N11910 X8.519 Y47.912
N11915 X8.772 Y47.934
N11920 X9.009 Y48.026
N11925 X9.212 Y48.179
N11930 X9.364 Y48.383
N11935 X9.455 Y48.62
N11940 X9.565 Y49.109
N11945 X9.602 Y49.287
N11950 G3 X9.329 Y49.773 I-0.437 J0.075
N11955 X7.703 Y48.912 I-0.447 J-1.12
N11960 G1 X7.589 Y48.294
N11965 X7.568 Y48.145
N11970 X7.574 Y47.996
N11975 X7.608 Y47.85
N11980 X7.664 Y47.711
N11985 X7.813 Y47.525
N11990 X8.004 Y47.384
N11995 X8.226 Y47.299
N12000 X8.463 Y47.275
N12005 X8.697 Y47.314
N12010 X8.913 Y47.413
N12015 X9.096 Y47.565
N12020 X9.232 Y47.759
N12025 X9.313 Y47.983
N12030 X9.378 Y48.28
N12035 X9.455 Y48.62
N12040 G3 X9.205 Y49.101 I-0.43 J0.082
N12045 X7.589 Y48.294 I-0.48 J-1.061
N12050 G1 X7.464 Y47.628
N12055 X7.444 Y47.48
N12060 X7.455 Y47.33
N12065 X7.493 Y47.185
N12070 X7.625 Y46.974
N12075 X7.809 Y46.807
N12080 X8.033 Y46.698
N12085 X8.278 Y46.655
N12090 X8.525 Y46.681
N12095 X8.756 Y46.775
N12100 X8.951 Y46.929
N12105 X9.096 Y47.132
N12110 X9.18 Y47.366
N12115 X9.313 Y47.983
N12120 G3 X9.05 Y48.46 I-0.425 J0.077
N12125 X7.464 Y47.628 I-0.441 J-1.088
N12130 G1 X7.346 Y46.999
N12135 X7.326 Y46.85
N12140 X7.338 Y46.701
N12145 X7.378 Y46.556
N12150 X7.44 Y46.42
N12155 X7.613 Y46.225
N12160 X7.835 Y46.089
N12165 X8.087 Y46.023
N12170 X8.347 Y46.033
N12175 X8.593 Y46.119
N12180 X8.803 Y46.273
N12185 X8.96 Y46.481
N12190 X9.049 Y46.725
N12195 X9.18 Y47.366
N12200 G3 X8.913 Y47.836 I-0.422 J0.071
N12205 X7.346 Y46.999 I-0.424 J-1.091
N12210 G1 X7.229 Y46.353
N12215 X7.209 Y46.205
N12220 X7.224 Y46.055
N12225 X7.264 Y45.911
N12230 X7.397 Y45.708
N12235 X7.581 Y45.548
N12240 X7.801 Y45.446
N12245 X8.041 Y45.407
N12250 X8.282 Y45.435
N12255 X8.507 Y45.529
N12260 X8.697 Y45.68
N12265 X8.838 Y45.878
N12270 X8.92 Y46.107
N12275 X9.049 Y46.725
N12280 G3 X8.781 Y47.193 I-0.419 J0.071
N12285 X7.229 Y46.353 I-0.415 J-1.087
N12290 G1 X7.192 Y46.148
N12295 X7.123 Y45.732
N12300 X7.106 Y45.583
N12305 X7.121 Y45.433
N12310 X7.163 Y45.289
N12315 X7.295 Y45.09
N12320 X7.476 Y44.935
N12325 X7.692 Y44.834
N12330 X7.928 Y44.797
N12335 X8.165 Y44.826
N12340 X8.385 Y44.918
N12345 X8.572 Y45.067
N12350 X8.71 Y45.261
N12355 X8.791 Y45.486
N12360 X8.92 Y46.107
N12365 G3 X8.658 Y46.572 I-0.416 J0.072
N12370 X7.123 Y45.732 I-0.416 J-1.062
N12375 G1 X7.024 Y45.12
N12380 X7.007 Y44.97
N12385 X7.021 Y44.821
N12390 X7.064 Y44.677
N12395 X7.194 Y44.481
N12400 X7.374 Y44.328
N12405 X7.589 Y44.23
N12410 X7.822 Y44.195
N12415 X8.056 Y44.225
N12420 X8.273 Y44.319
N12425 X8.456 Y44.468
N12430 X8.591 Y44.662
N12435 X8.667 Y44.885
N12440 X8.723 Y45.161
N12445 X8.791 Y45.486
N12450 G3 X8.534 Y45.943 I-0.41 J0.071
N12455 X7.024 Y45.12 I-0.412 J-1.041
N12460 G1 X6.923 Y44.498
N12465 X6.906 Y44.349
N12470 X6.923 Y44.2
N12475 X6.969 Y44.057
N12480 X7.101 Y43.866
N12485 X7.281 Y43.719
N12490 X7.493 Y43.627
N12495 X7.723 Y43.595
N12500 X7.953 Y43.627
N12505 X8.165 Y43.721
N12510 X8.344 Y43.869
N12515 X8.475 Y44.06
N12520 X8.55 Y44.279
N12525 X8.667 Y44.885
N12530 G3 X8.402 Y45.333 I-0.404 J0.063
N12535 X6.923 Y44.498 I-0.38 J-1.054
N12540 G1 X6.823 Y43.886
N12545 X6.807 Y43.737
N12550 X6.826 Y43.588
N12555 X6.873 Y43.446
N12560 X7.008 Y43.258
N12565 X7.189 Y43.114
N12570 X7.402 Y43.024
N12575 X7.631 Y42.996
N12580 X7.859 Y43.032
N12585 X8.069 Y43.128
N12590 X8.245 Y43.278
N12595 X8.373 Y43.47
N12600 X8.444 Y43.69
N12605 X8.536 Y44.206
N12610 X8.55 Y44.279
N12615 G3 X8.282 Y44.725 I-0.4 J0.063
N12620 X6.823 Y43.886 I-0.363 J-1.056
N12625 G1 X6.79 Y43.68
N12630 X6.733 Y43.297
N12635 X6.719 Y43.148
N12640 X6.736 Y42.999
N12645 X6.781 Y42.856
N12650 X6.913 Y42.668
N12655 X7.091 Y42.524
N12660 X7.301 Y42.433
N12665 X7.529 Y42.404
N12670 X7.755 Y42.438
N12675 X7.964 Y42.532
N12680 X8.139 Y42.68
N12685 X8.267 Y42.87
N12690 X8.338 Y43.088
N12695 X8.444 Y43.69
N12700 G3 X8.186 Y44.125 I-0.4 J0.056
N12705 X6.733 Y43.297 I-0.38 J-1.021
N12710 G1 X6.663 Y42.811
N12715 X6.652 Y42.693
N12720 X6.654 Y42.62
N12725 X6.663 Y42.548
N12730 X6.687 Y42.446
N12735 X6.736 Y42.323
N12740 X6.77 Y42.261
N12745 X6.812 Y42.199
N12750 X6.856 Y42.145
N12755 X6.91 Y42.091
N12760 X7.014 Y42.01
N12765 X7.117 Y41.952
N12770 X7.157 Y41.936
N12775 X7.28 Y41.898
N12780 X7.403 Y41.88
N12785 X7.527 Y41.882
N12790 X7.65 Y41.904
N12795 X7.719 Y41.925
N12800 X7.787 Y41.952
N12805 X7.897 Y42.014
N12810 X7.995 Y42.091
N12815 X8.048 Y42.145
N12820 X8.092 Y42.199
N12825 X8.144 Y42.277
N12830 X8.186 Y42.361
N12835 X8.218 Y42.446
N12840 X8.267 Y42.693
N12845 X8.338 Y43.088
N12850 G3 X8.08 Y43.797 I-0.792 J0.113
N12855 G1 X8.002 Y43.867 Z-6.117
N12860 X7.925 Y43.935 Z-6.096
N12865 X7.852 Y44.001 Z-6.063
N12870 X7.782 Y44.064 Z-6.016
N12875 X7.717 Y44.122 Z-5.958
N12880 X7.658 Y44.174 Z-5.889
N12885 X7.607 Y44.22 Z-5.811
N12890 X7.563 Y44.259 Z-5.724
N12895 X7.529 Y44.29 Z-5.63
N12900 X7.504 Y44.313 Z-5.531
N12905 X7.489 Y44.326 Z-5.428
N12910 X7.484 Y44.331 Z-5.324
N12915 Z5
N12920 X18.278 Y56.867
N12925 Z-4.524
N12930 Z-5.324
N12935 X18.284 Y56.863 Z-5.428
N12940 X18.299 Y56.85 Z-5.531
N12945 X18.326 Y56.829 Z-5.63
N12950 X18.362 Y56.8 Z-5.724
N12955 X18.407 Y56.763 Z-5.811
N12960 X18.461 Y56.72 Z-5.889
N12965 X18.522 Y56.671 Z-5.958
N12970 X18.59 Y56.616 Z-6.016
N12975 X18.663 Y56.557 Z-6.063
N12980 X18.74 Y56.495 Z-6.096
N12985 X18.82 Y56.431 Z-6.117
N12990 X18.901 Y56.365 Z-6.124
N12995 G3 X22.605 Y53.99 I12.815 J15.903
N13000 G1 X22.704 Y53.944
N13005 X22.972 Y53.798
N13010 X23.343 Y53.551
N13015 X23.444 Y53.469
N13020 X23.691 Y53.266
N13025 X23.814 Y53.159
N13030 X23.876 Y53.117
N13035 X23.938 Y53.082
N13040 X23.99 Y53.058
N13045 X24.087 Y53.023
N13050 X24.184 Y53.001
N13055 X24.308 Y52.991
N13060 X24.431 Y53
N13065 X24.53 Y53.022
N13070 X24.629 Y53.058
N13075 X24.678 Y53.081
N13080 X24.74 Y53.116
N13085 X24.801 Y53.16
N13090 G3 X25.038 Y53.876 Z-5.999 I-0.551 J0.58
N13095 G2 X25.095 Y54.336 Z-5.924 I0.788 J0.136
N13100 X25.591 Y54.776 I0.731 J-0.324
N13105 G1 X31.703 Y56.664
N13110 G2 X32.465 Y56.502 I0.236 J-0.764
N13115 G3 X34.989 Y54.619 I13.44 J15.379
N13120 X36.071 Y53.981 Z-6.124 I10.916 J17.262
N13125 G1 X36.277 Y53.877
N13130 X36.418 Y53.798
N13135 X36.523 Y53.738
N13140 X36.801 Y53.551
N13145 X37.017 Y53.379
N13150 X37.108 Y53.304
N13155 X37.264 Y53.166
N13160 X37.51 Y52.912
N13165 X37.606 Y52.811
N13170 X37.794 Y52.564
N13175 X37.97 Y52.317
N13180 X38.004 Y52.262
N13185 X38.11 Y52.07
N13190 X38.337 Y51.577
N13195 X38.429 Y51.33
N13200 X38.56 Y50.837
N13205 X38.613 Y50.59
N13210 X38.863 Y49.109
N13215 X39.129 Y47.628
N13220 X39.172 Y47.382
N13225 X39.419 Y45.901
N13230 X39.595 Y44.914
N13235 X39.722 Y44.173
N13240 X40.151 Y41.459
N13245 X40.23 Y40.965
N13250 X40.647 Y38.498
N13255 X40.723 Y38.004
N13260 X40.761 Y37.757
N13265 X40.798 Y37.51
N13270 X40.905 Y36.77
N13275 X41.016 Y36.03
N13280 X41.13 Y35.289
N13285 X41.166 Y35.043
N13290 X41.267 Y34.302
N13295 X41.365 Y33.562
N13300 X41.501 Y32.575
N13305 X41.571 Y32.081
N13310 X41.604 Y31.835
N13315 X41.706 Y30.985
N13320 X41.78 Y30.354
N13325 X41.952 Y28.948
N13330 X41.992 Y28.626
N13335 X42.166 Y26.899
N13340 X42.32 Y25.418
N13345 X42.341 Y25.171
N13350 X42.461 Y23.691
N13355 X42.543 Y22.704
N13360 X42.584 Y22.21
N13365 X42.601 Y21.963
N13370 X42.76 Y19.496
N13375 X42.791 Y19.002
N13380 X42.804 Y18.755
N13385 X42.981 Y14.807
N13390 X43.057 Y13.079
N13395 X43.086 Y12.339
N13400 X43.14 Y10.612
N13405 X43.169 Y9.624
N13410 X43.196 Y8.637
N13415 X43.259 Y6.169
N13420 X43.367 Y1.727
N13425 X43.44 Y-0.987
N13430 X43.476 Y-2.221
N13435 X43.491 Y-2.715
N13440 X43.518 Y-3.702
N13445 X43.558 Y-4.936
N13450 X43.589 Y-6.169
N13455 X43.618 Y-7.403
N13460 X43.646 Y-8.39
N13465 X43.69 Y-9.871
N13470 X43.706 Y-10.612
N13475 X43.712 Y-11.105
N13480 X43.729 Y-12.586
N13485 X43.735 Y-13.079
N13490 X43.776 Y-15.547
N13495 X43.775 Y-15.794
N13500 X43.751 Y-18.015
N13505 X43.731 Y-20.483
N13510 X43.716 Y-21.223
N13515 X43.709 Y-21.47
N13520 X43.66 Y-22.95
N13525 X43.633 Y-23.691
N13530 X43.621 Y-23.938
N13535 X43.544 Y-25.418
N13540 X43.504 Y-26.159
N13545 X43.471 Y-26.652
N13550 X43.419 Y-27.392
N13555 X43.383 Y-27.886
N13560 X43.328 Y-28.626
N13565 X43.267 Y-29.367
N13570 X43.186 Y-30.301
N13575 X43.111 Y-31.094
N13580 X43.039 Y-31.835
N13585 X42.986 Y-32.328
N13590 X42.773 Y-34.302
N13595 X42.716 Y-34.796
N13600 X42.481 Y-36.77
N13605 X42.356 Y-37.757
N13610 X42.166 Y-39.238
N13615 X42.066 Y-39.978
N13620 X41.996 Y-40.472
N13625 X41.113 Y-46.641
N13630 X41.076 Y-46.888
N13635 X40.8 Y-48.616
N13640 X40.483 Y-50.59
N13645 G3 X40.754 Y-51.294 I0.794 J-0.099
N13650 G1 X40.833 Y-51.362 Z-6.117
N13655 X40.91 Y-51.429 Z-6.096
N13660 X40.985 Y-51.494 Z-6.063
N13665 X41.056 Y-51.556 Z-6.016
N13670 X41.122 Y-51.613 Z-5.958
N13675 X41.181 Y-51.664 Z-5.889
N13680 X41.233 Y-51.709 Z-5.811
N13685 X41.277 Y-51.747 Z-5.724
N13690 X41.312 Y-51.778 Z-5.63
N13695 X41.338 Y-51.8 Z-5.531
N13700 X41.353 Y-51.813 Z-5.428
N13705 X41.358 Y-51.818 Z-5.324
N13710 Z5
N13715 X32.01 Y-57.095
N13720 Z-4.524
N13725 Z-5.324
N13730 X32.005 Y-57.091 Z-5.428
N13735 X31.99 Y-57.077 Z-5.531
N13740 X31.965 Y-57.054 Z-5.63
N13745 X31.931 Y-57.023 Z-5.724
N13750 X31.887 Y-56.985 Z-5.811
N13755 X31.836 Y-56.938 Z-5.889
N13760 X31.778 Y-56.886 Z-5.958
N13765 X31.713 Y-56.828 Z-6.016
N13770 X31.643 Y-56.765 Z-6.063
N13775 X31.569 Y-56.699 Z-6.096
N13780 X31.493 Y-56.63 Z-6.117
N13785 X31.415 Y-56.56 Z-6.124
N13790 G3 X27.845 Y-53.989 I-13.652 J-15.191
N13795 G1 X27.639 Y-53.881
N13800 X27.487 Y-53.798
N13805 X27.117 Y-53.551
N13810 X26.899 Y-53.38
N13815 X26.805 Y-53.304
N13820 X26.652 Y-53.149
N13825 X26.516 Y-53.024
N13830 X26.202 Y-52.826
N13835 X25.854 Y-52.695
N13840 X25.487 Y-52.636
N13845 X25.116 Y-52.652
N13850 X24.755 Y-52.741
N13855 X24.42 Y-52.901
N13860 X24.123 Y-53.124
N13865 G3 X23.613 Y-54.242 Z-5.924 I1.223 J-1.234
N13870 X24.533 Y-55.893 I1.733 J-0.116
N13875 X27.115 Y-54.34 I0.824 J1.554
N13880 G1 Y-54.339
N13885 Y-54.289
N13890 G3 X26.652 Y-53.149 Z-6.124 I-1.758 J-0.05
N13895 G1 X26.405 Y-52.899
N13900 X26.321 Y-52.811
N13905 X26.128 Y-52.564
N13910 X25.934 Y-52.317
N13915 X25.912 Y-52.296
N13920 X25.85 Y-52.246
N13925 X25.788 Y-52.205
N13930 X25.665 Y-52.145
N13935 X25.542 Y-52.109
N13940 X25.418 Y-52.093
N13945 X25.295 Y-52.096
N13950 X25.171 Y-52.119
N13955 X25.048 Y-52.163
N13960 X24.986 Y-52.194
N13965 X24.925 Y-52.232
N13970 X24.821 Y-52.317
N13975 X24.678 Y-52.491
N13980 G3 X24.6 Y-53.242 I0.663 J-0.448
N13985 G1 X24.64 Y-53.338 Z-6.117
N13990 X24.679 Y-53.433 Z-6.096
N13995 X24.716 Y-53.525 Z-6.063
N14000 X24.752 Y-53.612 Z-6.016
N14005 X24.785 Y-53.692 Z-5.958
N14010 X24.814 Y-53.765 Z-5.889
N14015 X24.841 Y-53.829 Z-5.811
N14020 X24.863 Y-53.883 Z-5.724
N14025 X24.88 Y-53.926 Z-5.63
N14030 X24.893 Y-53.957 Z-5.531
N14035 X24.9 Y-53.976 Z-5.428
N14040 X24.903 Y-53.982 Z-5.324
N14045 Z5
N14050 X16.648 Y-57.047
N14055 Z-4.524
N14060 Z-5.324
N14065 X16.643 Y-57.042 Z-5.428
N14070 X16.627 Y-57.029 Z-5.531
N14075 X16.602 Y-57.007 Z-5.63
N14080 X16.567 Y-56.976 Z-5.724
N14085 X16.524 Y-56.938 Z-5.811
N14090 X16.472 Y-56.892 Z-5.889
N14095 X16.413 Y-56.84 Z-5.958
N14100 X16.348 Y-56.783 Z-6.016
N14105 X16.277 Y-56.721 Z-6.063
N14110 X16.203 Y-56.655 Z-6.096
N14115 X16.126 Y-56.588 Z-6.117
N14120 X16.047 Y-56.519 Z-6.124
N14125 G3 X12.45 Y-53.985 I-13.49 J-15.335
N14130 G1 X12.339 Y-53.929
N14135 X12.106 Y-53.798
N14140 X12.092 Y-53.791
N14145 X11.969 Y-53.741
N14150 X11.845 Y-53.714
N14155 X11.722 Y-53.706
N14160 X11.599 Y-53.715
N14165 X11.475 Y-53.745
N14170 X11.438 Y-53.76
N14175 G3 X10.982 Y-54.361 I0.334 J-0.727
N14180 G1 X10.966 Y-54.465 Z-6.117
N14185 X10.95 Y-54.566 Z-6.096
N14190 X10.934 Y-54.664 Z-6.063
N14195 X10.919 Y-54.756 Z-6.016
N14200 X10.906 Y-54.842 Z-5.958
N14205 X10.893 Y-54.92 Z-5.889
N14210 X10.883 Y-54.988 Z-5.811
N14215 X10.873 Y-55.046 Z-5.724
N14220 X10.866 Y-55.091 Z-5.63
N14225 X10.861 Y-55.125 Z-5.531
N14230 X10.858 Y-55.145 Z-5.428
N14235 X10.857 Y-55.151 Z-5.324
N14240 Z5
N14245 X2.958 Y-57.065
N14250 Z-4.524
N14255 Z-5.324
N14260 X2.953 Y-57.06 Z-5.428
N14265 X2.938 Y-57.047 Z-5.531
N14270 X2.913 Y-57.025 Z-5.63
N14275 X2.878 Y-56.994 Z-5.724
N14280 X2.835 Y-56.956 Z-5.811
N14285 X2.783 Y-56.91 Z-5.889
N14290 X2.724 Y-56.858 Z-5.958
N14295 X2.659 Y-56.8 Z-6.016
N14300 X2.588 Y-56.738 Z-6.063
N14305 X2.514 Y-56.672 Z-6.096
N14310 X2.437 Y-56.605 Z-6.117
N14315 X2.359 Y-56.535 Z-6.124
N14320 G3 X-1.234 Y-53.995 I-13.519 J-15.309
N14325 G1 X-1.481 Y-53.869
N14330 X-1.614 Y-53.798
N14335 X-1.727 Y-53.728
N14340 X-2.001 Y-53.551
N14345 X-2.282 Y-53.304
N14350 X-2.715 Y-52.921
N14355 X-2.765 Y-52.866
N14360 X-2.808 Y-52.811
N14365 X-3.208 Y-52.247
N14370 X-3.328 Y-52.07
N14375 X-3.347 Y-52.029
N14380 X-3.419 Y-51.897
N14385 X-3.626 Y-51.615
N14390 X-3.844 Y-51.365
N14395 X-4.065 Y-51.147
N14400 X-4.298 Y-50.953
N14405 X-4.533 Y-50.786
N14410 X-4.769 Y-50.646
N14415 X-5.013 Y-50.527
N14420 X-5.251 Y-50.434
N14425 X-5.497 Y-50.359
N14430 X-5.738 Y-50.307
N14435 X-5.976 Y-50.275
N14440 X-6.208 Y-50.263
N14445 X-6.44 Y-50.269
N14450 X-6.953 Y-50.324
N14455 X-7.272 Y-50.39
N14460 X-7.573 Y-50.516
N14465 X-7.845 Y-50.697
N14470 X-8.077 Y-50.926
N14475 X-8.261 Y-51.195
N14480 X-8.39 Y-51.494
N14485 G3 X-7.938 Y-52.531 Z-5.924 I0.745 J-0.292
N14490 G1 X-7.856 Y-52.558
N14495 X-7.771 Y-52.576
N14500 X-4.205 Y-53.14
N14505 G3 X-3.76 Y-53.082 I0.125 J0.79
N14510 X-3.347 Y-52.029 Z-6.124 I-0.321 J0.733
N14515 G1 X-3.446 Y-51.824
N14520 X-3.553 Y-51.577
N14525 X-3.644 Y-51.33
N14530 X-3.787 Y-50.837
N14535 X-3.857 Y-50.59
N14540 X-3.877 Y-50.515
N14545 X-3.924 Y-50.369
N14550 X-3.987 Y-50.218
N14555 X-4.065 Y-50.065
N14560 X-4.162 Y-49.908
N14565 X-4.28 Y-49.748
N14570 X-4.416 Y-49.591
N14575 X-4.57 Y-49.44
N14580 X-4.764 Y-49.278
N14585 X-4.973 Y-49.13
N14590 X-5.213 Y-48.988
N14595 X-5.448 Y-48.873
N14600 X-5.702 Y-48.773
N14605 X-5.962 Y-48.694
N14610 X-6.219 Y-48.638
N14615 X-6.445 Y-48.608
N14620 X-6.762 Y-48.6
N14625 X-7.074 Y-48.659
N14630 X-7.366 Y-48.784
N14635 X-7.625 Y-48.968
N14640 X-7.839 Y-49.203
N14645 X-7.998 Y-49.478
N14650 X-8.095 Y-49.78
N14655 X-8.125 Y-50.096
N14660 X-8.144 Y-50.312
N14665 G3 X-7.446 Y-51.148 Z-5.933 I0.799 J-0.042
N14670 G1 X-7.388 Y-51.155 Z-5.924
N14675 X-4.757 Y-51.489
N14680 G3 X-4.475 Y-51.475 I0.101 J0.794
N14685 X-3.877 Y-50.515 Z-6.124 I-0.181 J0.779
N14690 G1 X-4.321 Y-48.862
N14695 X-4.371 Y-48.708
N14700 X-4.435 Y-48.555
N14705 X-4.514 Y-48.401
N14710 X-4.611 Y-48.243
N14715 X-4.727 Y-48.086
N14720 X-4.861 Y-47.93
N14725 X-5 Y-47.794
N14730 X-5.16 Y-47.661
N14735 X-5.334 Y-47.538
N14740 X-5.508 Y-47.435
N14745 X-5.705 Y-47.338
N14750 X-5.909 Y-47.258
N14755 X-6.109 Y-47.197
N14760 X-6.334 Y-47.149
N14765 X-6.555 Y-47.119
N14770 X-6.877 Y-47.136
N14775 X-7.188 Y-47.219
N14780 X-7.476 Y-47.365
N14785 X-7.726 Y-47.567
N14790 X-7.929 Y-47.818
N14795 X-8.076 Y-48.105
N14800 X-8.16 Y-48.416
N14805 X-8.177 Y-48.738
N14810 X-8.158 Y-49.109
N14815 X-8.147 Y-49.356
N14820 X-8.128 Y-49.849
N14825 X-8.125 Y-50.096
N14830 G3 X-7.288 Y-50.857 Z-5.924 I0.799 J0.038
N14835 X-6.993 Y-50.786 I-0.037 J0.799
N14840 G1 X-4.914 Y-49.837
N14845 X-4.769 Y-49.771 Z-5.949
N14850 G3 X-4.321 Y-48.862 Z-6.124 I-0.332 J0.728
N14855 G1 X-4.756 Y-47.246
N14860 X-4.802 Y-47.103
N14865 X-4.864 Y-46.966
N14870 X-4.94 Y-46.829
N14875 X-5.023 Y-46.703
N14880 X-5.128 Y-46.57
N14885 X-5.246 Y-46.442
N14890 X-5.368 Y-46.33
N14895 X-5.513 Y-46.216
N14900 X-5.669 Y-46.113
N14905 X-5.826 Y-46.027
N14910 X-6.008 Y-45.945
N14915 X-6.194 Y-45.878
N14920 X-6.379 Y-45.829
N14925 X-6.459 Y-45.814
N14930 X-6.799 Y-45.791
N14935 X-7.136 Y-45.844
N14940 X-7.452 Y-45.971
N14945 X-7.732 Y-46.165
N14950 X-7.962 Y-46.417
N14955 X-8.129 Y-46.714
N14960 X-8.225 Y-47.041
N14965 X-8.246 Y-47.382
N14970 X-8.177 Y-48.738
N14975 G3 X-7.312 Y-49.466 Z-5.924 I0.797 J0.069
N14980 X-6.933 Y-49.333 I-0.068 J0.797
N14985 G1 X-5.33 Y-48.253
N14990 X-5.088 Y-48.09 Z-5.97
N14995 G3 X-4.756 Y-47.246 Z-6.124 I-0.447 J0.664
N15000 G1 X-5.117 Y-45.901
N15005 X-5.163 Y-45.758
N15010 X-5.223 Y-45.62
N15015 X-5.296 Y-45.489
N15020 X-5.379 Y-45.365
N15025 X-5.474 Y-45.248
N15030 X-5.586 Y-45.132
N15035 X-5.704 Y-45.027
N15040 X-5.826 Y-44.936
N15045 X-5.973 Y-44.842
N15050 X-6.129 Y-44.761
N15055 X-6.284 Y-44.695
N15060 X-6.458 Y-44.637
N15065 X-6.473 Y-44.633
N15070 X-6.777 Y-44.591
N15075 X-7.083 Y-44.612
N15080 X-7.378 Y-44.695
N15085 X-7.649 Y-44.837
N15090 X-7.885 Y-45.032
N15095 X-8.077 Y-45.272
N15100 X-8.214 Y-45.546
N15105 X-8.293 Y-45.842
N15110 X-8.309 Y-46.148
N15115 X-8.246 Y-47.382
N15120 G3 X-7.381 Y-48.11 Z-5.924 I0.797 J0.069
N15125 X-6.952 Y-47.94 I-0.068 J0.797
N15130 G1 X-5.677 Y-46.928
N15135 X-5.399 Y-46.708 Z-5.98
N15140 G3 X-5.117 Y-45.901 Z-6.124 I-0.497 J0.627
N15145 G1 X-5.383 Y-44.914
N15150 X-5.45 Y-44.667
N15155 X-5.497 Y-44.524
N15160 X-5.557 Y-44.387
N15165 X-5.632 Y-44.257
N15170 X-5.72 Y-44.136
N15175 X-5.819 Y-44.023
N15180 X-5.928 Y-43.92
N15185 X-6.046 Y-43.826
N15190 X-6.17 Y-43.742
N15195 X-6.307 Y-43.666
N15200 X-6.458 Y-43.597
N15205 X-6.608 Y-43.543
N15210 X-6.933 Y-43.494
N15215 X-7.261 Y-43.523
N15220 X-7.572 Y-43.627
N15225 X-7.851 Y-43.802
N15230 X-8.081 Y-44.037
N15235 X-8.25 Y-44.319
N15240 X-8.348 Y-44.632
N15245 X-8.37 Y-44.96
N15250 X-8.309 Y-46.148
N15255 G3 X-7.444 Y-46.876 Z-5.924 I0.797 J0.069
N15260 X-6.959 Y-46.657 I-0.068 J0.797
N15265 G1 X-5.982 Y-45.722
N15270 X-5.675 Y-45.429 Z-5.991
N15275 G3 X-5.45 Y-44.667 Z-6.124 I-0.553 J0.578
N15280 G1 X-5.585 Y-44.173
N15285 X-5.676 Y-43.857
N15290 X-5.768 Y-43.544
N15295 X-5.817 Y-43.403
N15300 X-5.879 Y-43.266
N15305 X-5.957 Y-43.138
N15310 X-6.049 Y-43.019
N15315 X-6.152 Y-42.911
N15320 X-6.266 Y-42.813
N15325 X-6.388 Y-42.726
N15330 X-6.518 Y-42.65
N15335 X-6.807 Y-42.552
N15340 X-7.111 Y-42.522
N15345 X-7.414 Y-42.563
N15350 X-7.7 Y-42.67
N15355 X-7.954 Y-42.84
N15360 X-8.162 Y-43.064
N15365 X-8.315 Y-43.329
N15370 X-8.403 Y-43.621
N15375 X-8.423 Y-43.926
N15380 X-8.37 Y-44.96
N15385 G3 X-7.832 Y-45.598 Z-5.982 I0.72 J0.062
N15390 X-7.47 Y-45.651 Z-5.924 I0.426 J1.636
N15395 X-5.917 Y-44.762 I0.064 J1.69
N15400 X-5.768 Y-43.544 Z-6.124 I-1.489 J0.801
N15405 G1 X-5.8 Y-43.433
N15410 X-5.867 Y-43.186
N15415 X-5.997 Y-42.693
N15420 X-6.033 Y-42.557
N15425 X-6.077 Y-42.414
N15430 X-6.141 Y-42.278
N15435 X-6.222 Y-42.152
N15440 X-6.318 Y-42.036
N15445 X-6.426 Y-41.932
N15450 X-6.544 Y-41.84
N15455 X-6.817 Y-41.709
N15460 X-7.114 Y-41.648
N15465 X-7.417 Y-41.66
N15470 X-7.709 Y-41.744
N15475 X-7.971 Y-41.896
N15480 X-8.189 Y-42.106
N15485 X-8.351 Y-42.363
N15490 X-8.446 Y-42.65
N15495 X-8.469 Y-42.953
N15500 X-8.447 Y-43.433
N15505 X-8.423 Y-43.926
N15510 G3 X-7.861 Y-44.523 Z-5.983 I0.658 J0.057
N15515 X-7.49 Y-44.535 Z-5.924 I0.237 J1.613
N15520 X-6.236 Y-43.765 I-0.134 J1.624
N15525 X-6.033 Y-42.557 Z-6.124 I-1.388 J0.855
N15530 G1 X-6.061 Y-42.446
N15535 X-6.234 Y-41.706
N15540 X-6.276 Y-41.562
N15545 X-6.335 Y-41.424
N15550 X-6.414 Y-41.296
N15555 X-6.509 Y-41.18
N15560 X-6.733 Y-41.012
N15565 X-6.99 Y-40.901
N15570 X-7.267 Y-40.853
N15575 X-7.546 Y-40.873
N15580 X-7.814 Y-40.957
N15585 X-8.054 Y-41.102
N15590 X-8.252 Y-41.3
N15595 X-8.399 Y-41.538
N15600 X-8.486 Y-41.805
N15605 X-8.507 Y-42.085
N15610 X-8.469 Y-42.953
N15615 G3 X-7.948 Y-43.508 I0.608 J0.049
N15620 X-6.234 Y-41.706 I0.219 J1.508
N15625 G1 X-6.431 Y-40.864
N15630 X-6.472 Y-40.72
N15635 X-6.54 Y-40.586
N15640 X-6.626 Y-40.463
N15645 X-6.831 Y-40.29
N15650 X-7.071 Y-40.171
N15655 X-7.332 Y-40.114
N15660 X-7.6 Y-40.121
N15665 X-7.858 Y-40.192
N15670 X-8.091 Y-40.324
N15675 X-8.286 Y-40.508
N15680 X-8.431 Y-40.733
N15685 X-8.517 Y-40.987
N15690 X-8.539 Y-41.254
N15695 X-8.531 Y-41.319
N15700 X-8.515 Y-41.383
N15705 G3 X-6.431 Y-40.864 I1.029 J0.311
N15710 G1 X-6.598 Y-40.15
N15715 X-6.639 Y-40.006
N15720 X-6.703 Y-39.87
N15725 X-6.786 Y-39.746
N15730 X-6.998 Y-39.569
N15735 X-7.25 Y-39.455
N15740 X-7.523 Y-39.413
N15745 X-7.797 Y-39.445
N15750 X-8.052 Y-39.549
N15755 X-8.271 Y-39.718
N15760 X-8.437 Y-39.939
N15765 X-8.537 Y-40.196
N15770 X-8.566 Y-40.47
N15775 X-8.558 Y-40.533
N15780 X-8.545 Y-40.596
N15785 G3 X-6.598 Y-40.15 I0.967 J0.252
N15790 G1 X-6.771 Y-39.41
N15795 X-6.812 Y-39.266
N15800 X-6.883 Y-39.134
N15805 X-6.974 Y-39.015
N15810 X-7.175 Y-38.865
N15815 X-7.408 Y-38.773
N15820 X-7.657 Y-38.746
N15825 X-7.905 Y-38.784
N15830 X-8.134 Y-38.885
N15835 X-8.329 Y-39.042
N15840 X-8.476 Y-39.245
N15845 X-8.565 Y-39.479
N15850 X-8.59 Y-39.728
N15855 X-8.582 Y-39.787
N15860 X-8.569 Y-39.844
N15865 G3 X-6.771 Y-39.41 I0.89 J0.255
N15870 G1 X-6.926 Y-38.744
N15875 X-6.967 Y-38.6
N15880 X-7.039 Y-38.468
N15885 X-7.132 Y-38.35
N15890 X-7.345 Y-38.204
N15895 X-7.591 Y-38.126
N15900 X-7.849 Y-38.123
N15905 X-8.097 Y-38.195
N15910 X-8.313 Y-38.335
N15915 X-8.48 Y-38.532
N15920 X-8.583 Y-38.769
N15925 X-8.612 Y-39.025
N15930 X-8.606 Y-39.08
N15935 X-8.594 Y-39.133
N15940 G3 X-6.926 Y-38.744 I0.827 J0.223
N15945 G1 X-7.041 Y-38.251
N15950 X-7.083 Y-38.127
N15955 X-7.113 Y-38.066
N15960 X-7.15 Y-38.004
N15965 X-7.157 Y-37.994
N15970 X-7.211 Y-37.923
N15975 X-7.28 Y-37.852
N15980 X-7.342 Y-37.802
N15985 X-7.409 Y-37.757
N15990 X-7.529 Y-37.699
N15995 X-7.65 Y-37.663
N16000 X-7.774 Y-37.646
N16005 X-7.897 Y-37.649
N16010 X-8.02 Y-37.671
N16015 X-8.144 Y-37.714
N16020 X-8.226 Y-37.757
N16025 X-8.308 Y-37.813
N16030 X-8.39 Y-37.887
N16035 X-8.486 Y-38.004
N16040 X-8.525 Y-38.066
N16045 X-8.557 Y-38.127
N16050 X-8.602 Y-38.251
N16055 X-8.625 Y-38.374
N16060 X-8.629 Y-38.498
N16065 X-8.55 Y-40.965
N16070 X-8.513 Y-41.952
N16075 X-8.507 Y-42.085
N16080 G3 X-8.1 Y-42.72 I0.798 J0.062
N16085 G1 X-8.009 Y-42.771 Z-6.117
N16090 X-7.92 Y-42.821 Z-6.096
N16095 X-7.833 Y-42.87 Z-6.063
N16100 X-7.751 Y-42.916 Z-6.016
N16105 X-7.676 Y-42.958 Z-5.958
N16110 X-7.607 Y-42.997 Z-5.889
N16115 X-7.547 Y-43.03 Z-5.811
N16120 X-7.496 Y-43.059 Z-5.724
N16125 X-7.456 Y-43.081 Z-5.63
N16130 X-7.426 Y-43.098 Z-5.531
N16135 X-7.409 Y-43.108 Z-5.428
N16140 X-7.403 Y-43.111 Z-5.324
N16145 Z5
N16150 X-18.389 Y-56.923
N16155 Z-4.524
N16160 Z-5.324
N16165 X-18.394 Y-56.919 Z-5.428
N16170 X-18.41 Y-56.906 Z-5.531
N16175 X-18.435 Y-56.884 Z-5.63
N16180 X-18.471 Y-56.854 Z-5.724
N16185 X-18.516 Y-56.817 Z-5.811
N16190 X-18.569 Y-56.773 Z-5.889
N16195 X-18.629 Y-56.723 Z-5.958
N16200 X-18.696 Y-56.667 Z-6.016
N16205 X-18.768 Y-56.607 Z-6.063
N16210 X-18.844 Y-56.543 Z-6.096
N16215 X-18.923 Y-56.477 Z-6.117
N16220 X-19.003 Y-56.41 Z-6.124
N16225 G3 X-22.664 Y-53.97 I-13.092 J-15.676
N16230 G1 X-22.704 Y-53.951
N16235 X-22.95 Y-53.813
N16240 X-22.976 Y-53.798
N16245 X-23.336 Y-53.551
N16250 X-23.628 Y-53.304
N16255 X-23.691 Y-53.25
N16260 X-23.938 Y-52.994
N16265 X-24.095 Y-52.811
N16270 X-24.432 Y-52.317
N16275 X-24.591 Y-52.07
N16280 X-24.673 Y-51.944
N16285 X-24.773 Y-51.833
N16290 X-24.884 Y-51.731
N16295 X-25.003 Y-51.641
N16300 X-25.13 Y-51.561
N16305 X-25.264 Y-51.493
N16310 X-25.403 Y-51.437
N16315 X-25.547 Y-51.394
N16320 X-26.153 Y-51.267
N16325 X-26.981 Y-51.162
N16330 X-27.345 Y-51.151
N16335 X-27.704 Y-51.212
N16340 X-28.044 Y-51.34
N16345 X-28.353 Y-51.532
N16350 X-28.618 Y-51.781
N16355 X-28.831 Y-52.076
N16360 G3 X-28.503 Y-53.159 Z-5.924 I0.705 J-0.377
N16365 X-28.111 Y-53.253 I0.378 J0.705
N16370 G1 X-25.304 Y-53.204
N16375 G3 X-24.984 Y-53.131 I-0.014 J0.8
N16380 X-24.591 Y-52.07 Z-6.124 I-0.334 J0.727
N16385 G1 X-24.715 Y-51.824
N16390 X-24.813 Y-51.577
N16395 X-24.893 Y-51.33
N16400 X-24.903 Y-51.293
N16405 X-24.948 Y-51.15
N16410 X-25.013 Y-51.013
N16415 X-25.104 Y-50.854
N16420 X-25.21 Y-50.701
N16425 X-25.345 Y-50.536
N16430 X-25.486 Y-50.388
N16435 X-25.641 Y-50.251
N16440 X-25.823 Y-50.114
N16445 X-26.006 Y-49.998
N16450 X-26.208 Y-49.891
N16455 X-26.427 Y-49.797
N16460 X-26.73 Y-49.729
N16465 X-27.04 Y-49.724
N16470 X-27.345 Y-49.781
N16475 X-27.632 Y-49.899
N16480 X-27.889 Y-50.073
N16485 X-28.106 Y-50.296
N16490 X-28.273 Y-50.557
N16495 X-28.383 Y-50.847
N16500 G3 X-27.783 Y-51.806 Z-5.924 I0.78 J-0.179
N16505 G1 X-27.782 Y-51.807
N16510 X-25.863 Y-52.246
N16515 G3 X-25.511 Y-52.247 I0.178 J0.78
N16520 X-24.903 Y-51.293 Z-6.124 I-0.173 J0.781
N16525 G1 X-25.021 Y-50.837
N16530 X-25.067 Y-50.59
N16535 X-25.136 Y-50.096
N16540 X-25.17 Y-49.916
N16545 X-25.209 Y-49.771
N16550 X-25.263 Y-49.631
N16555 X-25.328 Y-49.496
N16560 X-25.406 Y-49.368
N16565 X-25.496 Y-49.243
N16570 X-25.594 Y-49.129
N16575 X-25.71 Y-49.013
N16580 X-25.84 Y-48.903
N16585 X-25.972 Y-48.809
N16590 X-26.127 Y-48.715
N16595 X-26.29 Y-48.634
N16600 X-26.613 Y-48.547
N16605 X-26.947 Y-48.536
N16610 X-27.274 Y-48.603
N16615 X-27.578 Y-48.744
N16620 X-27.84 Y-48.951
N16625 X-28.048 Y-49.213
N16630 X-28.189 Y-49.516
N16635 X-28.257 Y-49.843
N16640 X-28.282 Y-50.096
N16645 X-28.337 Y-50.59
N16650 X-28.38 Y-50.837
N16655 X-28.383 Y-50.847
N16660 G3 X-27.783 Y-51.806 Z-5.924 I0.78 J-0.179
N16665 X-27.241 Y-51.74 I0.18 J0.779
N16670 G1 X-25.832 Y-51.024
N16675 X-25.569 Y-50.89 Z-5.971
N16680 G3 X-25.136 Y-50.096 Z-6.124 I-0.363 J0.713
N16685 G1 X-25.302 Y-48.862
N16690 X-25.312 Y-48.788
N16695 X-25.339 Y-48.64
N16700 X-25.382 Y-48.496
N16705 X-25.44 Y-48.358
N16710 X-25.513 Y-48.227
N16715 X-25.597 Y-48.103
N16720 X-25.693 Y-47.987
N16725 X-25.8 Y-47.88
N16730 X-25.914 Y-47.782
N16735 X-26.036 Y-47.694
N16740 X-26.174 Y-47.611
N16745 X-26.453 Y-47.508
N16750 X-26.747 Y-47.467
N16755 X-27.043 Y-47.49
N16760 X-27.327 Y-47.576
N16765 X-27.586 Y-47.721
N16770 X-27.808 Y-47.918
N16775 X-27.982 Y-48.158
N16780 X-28.101 Y-48.43
N16785 X-28.158 Y-48.722
N16790 X-28.257 Y-49.843
N16795 G3 X-27.81 Y-50.578 Z-5.978 I0.762 J-0.04
N16800 X-27.486 Y-50.688 Z-5.924 I0.732 J1.616
N16805 X-25.623 Y-49.978 I0.409 J1.727
N16810 X-25.312 Y-48.788 Z-6.124 I-1.455 J1.016
N16815 G1 X-25.467 Y-47.628
N16820 X-25.495 Y-47.481
N16825 X-25.545 Y-47.34
N16830 X-25.612 Y-47.205
N16835 X-25.693 Y-47.079
N16840 X-25.787 Y-46.962
N16845 X-25.891 Y-46.854
N16850 X-26.006 Y-46.757
N16855 X-26.273 Y-46.61
N16860 X-26.567 Y-46.529
N16865 X-26.872 Y-46.519
N16870 X-27.171 Y-46.579
N16875 X-27.449 Y-46.707
N16880 X-27.689 Y-46.895
N16885 X-27.878 Y-47.134
N16890 X-28.008 Y-47.41
N16895 X-28.07 Y-47.709
N16900 X-28.158 Y-48.722
N16905 G3 X-27.663 Y-49.428 Z-5.976 I0.699 J-0.037
N16910 X-27.344 Y-49.493 Z-5.924 I0.498 J1.632
N16915 X-25.794 Y-48.812 I0.178 J1.697
N16920 X-25.467 Y-47.628 Z-6.124 I-1.371 J1.016
N16925 G1 X-25.6 Y-46.641
N16930 X-25.627 Y-46.494
N16935 X-25.679 Y-46.353
N16940 X-25.75 Y-46.221
N16945 X-25.835 Y-46.098
N16950 X-26.049 Y-45.906
N16955 X-26.302 Y-45.769
N16960 X-26.579 Y-45.694
N16965 X-26.866 Y-45.685
N16970 X-27.147 Y-45.743
N16975 X-27.407 Y-45.864
N16980 X-27.633 Y-46.041
N16985 X-27.811 Y-46.267
N16990 X-27.933 Y-46.527
N16995 X-27.991 Y-46.808
N17000 X-28.07 Y-47.709
N17005 G3 X-27.573 Y-48.371 I0.644 J-0.034
N17010 X-25.6 Y-46.641 I0.368 J1.571
N17015 G1 X-25.709 Y-45.826
N17020 X-25.736 Y-45.679
N17025 X-25.784 Y-45.537
N17030 X-25.853 Y-45.403
N17035 X-25.938 Y-45.28
N17040 X-26.159 Y-45.089
N17045 X-26.422 Y-44.961
N17050 X-26.709 Y-44.904
N17055 X-27 Y-44.922
N17060 X-27.278 Y-45.014
N17065 X-27.522 Y-45.175
N17070 X-27.718 Y-45.392
N17075 X-27.852 Y-45.652
N17080 X-27.915 Y-45.937
N17085 Y-46.021
N17090 X-27.906 Y-46.104
N17095 G3 X-25.709 Y-45.826 I1.095 J0.169
N17100 G1 X-25.816 Y-45.025
N17105 X-25.844 Y-44.877
N17110 X-25.894 Y-44.736
N17115 X-26.051 Y-44.522
N17120 X-26.256 Y-44.355
N17125 X-26.498 Y-44.245
N17130 X-26.759 Y-44.199
N17135 X-27.023 Y-44.221
N17140 X-27.273 Y-44.309
N17145 X-27.493 Y-44.457
N17150 X-27.669 Y-44.655
N17155 X-27.789 Y-44.892
N17160 X-27.846 Y-45.151
N17165 X-27.845 Y-45.228
N17170 X-27.836 Y-45.304
N17175 G3 X-25.816 Y-45.025 I1.005 J0.179
N17180 G1 X-25.912 Y-44.312
N17185 X-25.939 Y-44.164
N17190 X-25.99 Y-44.023
N17195 X-26.156 Y-43.811
N17200 X-26.374 Y-43.652
N17205 X-26.628 Y-43.561
N17210 X-26.897 Y-43.543
N17215 X-27.16 Y-43.601
N17220 X-27.397 Y-43.73
N17225 X-27.589 Y-43.92
N17230 X-27.721 Y-44.155
N17235 X-27.782 Y-44.418
N17240 X-27.781 Y-44.489
N17245 X-27.773 Y-44.559
N17250 G3 X-25.912 Y-44.312 I0.927 J0.155
N17255 G1 X-26.007 Y-43.605
N17260 X-26.034 Y-43.458
N17265 X-26.094 Y-43.32
N17270 X-26.253 Y-43.136
N17275 X-26.456 Y-43.003
N17280 X-26.689 Y-42.929
N17285 X-26.932 Y-42.922
N17290 X-27.168 Y-42.981
N17295 X-27.379 Y-43.102
N17300 X-27.55 Y-43.276
N17305 X-27.667 Y-43.489
N17310 X-27.721 Y-43.727
N17315 X-27.72 Y-43.792
N17320 X-27.712 Y-43.856
N17325 G3 X-26.007 Y-43.605 I0.847 J0.166
N17330 G1 X-26.063 Y-43.186
N17335 X-26.082 Y-43.063
N17340 X-26.12 Y-42.94
N17345 X-26.159 Y-42.857
N17350 X-26.209 Y-42.775
N17355 X-26.276 Y-42.693
N17360 X-26.341 Y-42.63
N17365 X-26.405 Y-42.58
N17370 X-26.467 Y-42.541
N17375 X-26.529 Y-42.509
N17380 X-26.652 Y-42.464
N17385 X-26.737 Y-42.446
N17390 X-26.818 Y-42.437
N17395 X-26.899
N17400 X-26.989 Y-42.446
N17405 X-27.067 Y-42.463
N17410 X-27.146 Y-42.488
N17415 X-27.269 Y-42.547
N17420 X-27.331 Y-42.587
N17425 X-27.392 Y-42.636
N17430 X-27.45 Y-42.693
N17435 X-27.547 Y-42.816
N17440 X-27.583 Y-42.878
N17445 X-27.613 Y-42.94
N17450 X-27.639 Y-43.012
N17455 X-27.662 Y-43.099
N17460 X-27.674 Y-43.186
N17465 X-27.991 Y-46.808
N17470 G3 X-27.671 Y-47.491 I0.799 J-0.042
N17475 G1 X-27.587 Y-47.553 Z-6.117
N17480 X-27.505 Y-47.615 Z-6.096
N17485 X-27.425 Y-47.674 Z-6.063
N17490 X-27.35 Y-47.73 Z-6.016
N17495 X-27.28 Y-47.782 Z-5.958
N17500 X-27.217 Y-47.829 Z-5.889
N17505 X-27.162 Y-47.871 Z-5.811
N17510 X-27.116 Y-47.905 Z-5.724
N17515 X-27.078 Y-47.933 Z-5.63
N17520 X-27.052 Y-47.953 Z-5.531
N17525 X-27.035 Y-47.965 Z-5.428
N17530 X-27.03 Y-47.969 Z-5.324
N17535 Z5
N17540 X-36.305 Y-56.783
N17545 Z-4.524
N17550 Z-5.324
N17555 X-36.311 Y-56.778 Z-5.428
N17560 X-36.327 Y-56.766 Z-5.531
N17565 X-36.353 Y-56.745 Z-5.63
N17570 X-36.39 Y-56.717 Z-5.724
N17575 X-36.436 Y-56.681 Z-5.811
N17580 X-36.49 Y-56.639 Z-5.889
N17585 X-36.552 Y-56.591 Z-5.958
N17590 X-36.621 Y-56.537 Z-6.016
N17595 X-36.695 Y-56.48 Z-6.063
N17600 X-36.773 Y-56.419 Z-6.096
N17605 X-36.855 Y-56.356 Z-6.117
N17610 X-36.937 Y-56.292 Z-6.124
N17615 G3 X-40.682 Y-53.982 I-12.531 J-16.128
N17620 G1 X-40.719 Y-53.966
N17625 X-40.842 Y-53.91
N17630 X-40.965 Y-53.876
N17635 X-41.089 Y-53.863
N17640 X-41.212 Y-53.867
N17645 X-41.336 Y-53.89
N17650 G3 X-41.821 Y-54.467 Z-5.999 I0.297 J-0.743
N17655 G2 X-42.045 Y-54.874 Z-5.924 I-0.783 J0.166
N17660 X-42.317 Y-55.049 I-0.559 J0.572
N17665 G1 X-47.443 Y-57.016
N17670 G2 X-48.389 Y-56.721 I-0.287 J0.747
N17675 G3 X-50.364 Y-54.268 I-16.849 J-11.543
N17680 X-51.253 Y-53.38 Z-6.124 I-14.874 J-13.997
N17685 G1 X-51.339 Y-53.304
N17690 X-51.577 Y-53.072
N17695 X-51.808 Y-52.811
N17700 X-51.824 Y-52.791
N17705 X-51.98 Y-52.564
N17710 X-52.139 Y-52.317
N17715 X-52.282 Y-52.07
N17720 X-52.564 Y-51.429
N17725 X-52.573 Y-51.404
N17730 X-52.581 Y-51.379
N17735 X-52.713 Y-50.837
N17740 X-52.747 Y-50.59
N17745 X-52.792 Y-50.096
N17750 X-52.787 Y-49.849
N17755 X-52.762 Y-49.356
N17760 X-52.745 Y-49.109
N17765 X-52.437 Y-44.914
N17770 X-52.4 Y-44.42
N17775 X-52.289 Y-43.186
N17780 X-52.176 Y-41.952
N17785 X-52.112 Y-41.212
N17790 X-52.094 Y-40.965
N17795 X-51.932 Y-38.498
N17800 X-51.898 Y-38.004
N17805 X-51.881 Y-37.757
N17810 X-51.76 Y-36.277
N17815 X-51.743 Y-36.03
N17820 X-51.729 Y-35.783
N17825 X-51.577 Y-32.985
N17830 X-51.567 Y-32.822
N17835 X-51.503 Y-31.835
N17840 X-51.469 Y-31.341
N17845 X-51.455 Y-31.094
N17850 X-51.417 Y-30.354
N17855 X-51.385 Y-29.614
N17860 X-51.349 Y-28.873
N17865 X-51.316 Y-28.133
N17870 X-51.306 Y-27.886
N17875 X-51.281 Y-27.146
N17880 X-51.244 Y-26.159
N17885 X-51.219 Y-25.418
N17890 X-51.194 Y-24.431
N17895 X-51.162 Y-23.197
N17900 X-51.156 Y-22.95
N17905 X-51.117 Y-20.483
N17910 X-51.092 Y-17.028
N17915 X-51.079 Y-15.547
N17920 X-51.059 Y-11.599
N17925 X-51.053 Y-10.612
N17930 X-51.043 Y-9.624
N17935 X-51.006 Y-6.663
N17940 X-50.986 Y-5.429
N17945 X-50.978 Y-4.936
N17950 X-50.942 Y-3.455
N17955 X-50.927 Y-2.961
N17960 X-50.912 Y-2.468
N17965 X-50.859 Y-0.987
N17970 X-50.837 Y-0.433
N17975 X-50.818 Y0
N17980 X-50.757 Y1.234
N17985 X-50.708 Y2.221
N17990 X-50.695 Y2.468
N17995 X-50.525 Y5.182
N18000 X-50.493 Y5.676
N18005 X-50.436 Y6.416
N18010 X-50.366 Y7.403
N18015 X-50.314 Y8.144
N18020 X-50.259 Y8.884
N18025 X-50.239 Y9.131
N18030 X-50.196 Y9.624
N18035 X-50.176 Y9.871
N18040 X-50.067 Y11.352
N18045 X-50.009 Y12.092
N18050 X-49.989 Y12.339
N18055 X-49.925 Y13.079
N18060 X-49.65 Y17.028
N18065 X-49.631 Y17.275
N18070 X-49.57 Y18.015
N18075 X-49.506 Y18.755
N18080 X-49.488 Y19.002
N18085 X-49.455 Y19.496
N18090 X-49.439 Y19.742
N18095 X-49.355 Y21.223
N18100 X-49.321 Y21.717
N18105 X-49.304 Y21.963
N18110 X-49.289 Y22.21
N18115 X-49.256 Y22.95
N18120 X-49.203 Y24.184
N18125 X-49.146 Y25.418
N18130 X-49.103 Y27.146
N18135 X-49.082 Y27.886
N18140 X-49.069 Y28.626
N18145 X-49.064 Y29.12
N18150 X-49.051 Y30.601
N18155 X-49.046 Y31.094
N18160 Y31.341
N18165 X-49.05 Y32.328
N18170 X-49.059 Y33.809
N18175 X-49.066 Y34.549
N18180 X-49.102 Y36.523
N18185 X-49.112 Y37.017
N18190 X-49.131 Y37.757
N18195 X-49.261 Y41.952
N18200 X-49.346 Y44.173
N18205 X-49.395 Y45.407
N18210 X-49.415 Y45.901
N18215 X-49.461 Y46.888
N18220 X-49.523 Y48.369
N18225 X-49.567 Y49.356
N18230 X-49.582 Y49.738
N18235 G3 X-49.985 Y50.376 I-0.798 J-0.059
N18240 G1 X-50.076 Y50.427 Z-6.117
N18245 X-50.165 Y50.478 Z-6.096
N18250 X-50.251 Y50.527 Z-6.063
N18255 X-50.333 Y50.573 Z-6.016
N18260 X-50.409 Y50.616 Z-5.958
N18265 X-50.477 Y50.655 Z-5.889
N18270 X-50.537 Y50.689 Z-5.811
N18275 X-50.588 Y50.717 Z-5.724
N18280 X-50.628 Y50.74 Z-5.63
N18285 X-50.657 Y50.757 Z-5.531
N18290 X-50.675 Y50.767 Z-5.428
N18295 X-50.681 Y50.77 Z-5.324
N18300 Z5
N18305 X-39.343 Y57.141
N18310 Z-4.524
N18315 Z-5.324
N18320 X-39.338 Y57.136 Z-5.428
N18325 X-39.323 Y57.122 Z-5.531
N18330 X-39.298 Y57.1 Z-5.63
N18335 X-39.264 Y57.068 Z-5.724
N18340 X-39.221 Y57.029 Z-5.811
N18345 X-39.17 Y56.982 Z-5.889
N18350 X-39.112 Y56.929 Z-5.958
N18355 X-39.048 Y56.87 Z-6.016
N18360 X-38.979 Y56.806 Z-6.063
N18365 X-38.906 Y56.739 Z-6.096
N18370 X-38.831 Y56.67 Z-6.117
N18375 X-38.754 Y56.599 Z-6.124
N18380 G3 X-35.215 Y53.985 I13.833 J15.026
N18385 G1 X-35.043 Y53.892
N18390 X-34.875 Y53.798
N18395 X-34.549 Y53.589
N18400 X-34.462 Y53.551
N18405 X-34.382 Y53.527
N18410 X-34.302 Y53.511
N18415 X-34.179 Y53.503
N18420 X-34.056 Y53.515
N18425 X-33.912 Y53.551
N18430 X-33.809 Y53.596
N18435 X-33.746 Y53.653 Z-6.119
N18440 X-33.685 Y53.711 Z-6.105
N18445 X-33.624 Y53.766 Z-6.082
N18450 X-33.581 Y53.844 Z-6.045
N18455 X-33.54 Y53.918 Z-5.998
N18460 X-33.502 Y53.986 Z-5.94
N18465 X-33.489 Y54.053 Z-5.875
N18470 X-33.477 Y54.112 Z-5.803
N18475 X-33.468 Y54.162 Z-5.723
N18480 X-33.46 Y54.202 Z-5.638
N18485 X-33.454 Y54.232 Z-5.549
N18490 Y54.252 Z-5.453
N18495 X-33.453 Y54.261 Z-5.355
N18500 Z-5.338
N18505 Z5
N18510 X-0.928 Y56.87
N18515 Z-3.603
N18520 Z-4.403
N18525 X-0.922 Y56.865 Z-4.508
N18530 X-0.906 Y56.853 Z-4.61
N18535 X-0.88 Y56.831 Z-4.709
N18540 X-0.844 Y56.802 Z-4.803
N18545 X-0.799 Y56.766 Z-4.89
N18550 X-0.745 Y56.722 Z-4.969
N18555 X-0.684 Y56.673 Z-5.038
N18560 X-0.617 Y56.618 Z-5.096
N18565 X-0.544 Y56.559 Z-5.142
N18570 X-0.467 Y56.496 Z-5.176
N18575 X-0.387 Y56.432 Z-5.196
N18580 X-0.306 Y56.366 Z-5.203
N18585 G3 X3.392 Y53.981 I12.854 J15.871
N18590 G1 X3.455 Y53.952
N18595 X3.702 Y53.827
N18600 X4.136 Y53.551
N18605 X4.195 Y53.513
N18610 X4.442 Y53.314
N18615 X4.959 Y52.811
N18620 X5.062 Y52.687
N18625 X5.152 Y52.564
N18630 X5.429 Y52.15
N18635 X5.469 Y52.07
N18640 X5.755 Y51.453
N18645 X5.781 Y51.392
N18650 X5.801 Y51.33
N18655 X5.925 Y50.837
N18660 X5.962 Y50.59
N18665 X6.009 Y50.096
N18670 X5.999 Y49.849
N18675 X5.965 Y49.356
N18680 X5.923 Y49.082
N18685 X5.769 Y48.122
N18690 X5.692 Y47.628
N18695 X5.401 Y45.654
N18700 X5.107 Y43.68
N18705 X5.053 Y43.297
N18710 X5.032 Y43.069
N18715 X5.029 Y42.86
N18720 X5.044 Y42.648
N18725 X5.075 Y42.446
N18730 X5.122 Y42.245
N18735 X5.183 Y42.055
N18740 X5.26 Y41.869
N18745 X5.348 Y41.694
N18750 X5.452 Y41.525
N18755 X5.565 Y41.371
N18760 X5.693 Y41.223
N18765 X5.827 Y41.091
N18770 X5.974 Y40.967
N18775 X6.128 Y40.858
N18780 X6.288 Y40.763
N18785 X6.453 Y40.682
N18790 X6.627 Y40.613
N18795 X6.801 Y40.56
N18800 X6.982 Y40.52
N18805 X7.014 Y40.516
N18810 X7.35 Y40.502
N18815 X7.682 Y40.553
N18820 X7.999 Y40.666
N18825 X8.288 Y40.838
N18830 X8.539 Y41.061
N18835 X8.744 Y41.328
N18840 X8.894 Y41.629
N18845 X8.983 Y41.952
N18850 X9.071 Y42.446
N18855 X9.196 Y43.186
N18860 X9.363 Y44.173
N18865 X9.502 Y44.914
N18870 X9.551 Y45.161
N18875 X9.851 Y46.641
N18880 X9.996 Y47.382
N18885 X10.118 Y47.974
N18890 X10.201 Y48.369
N18895 X10.365 Y49.132
N18900 X10.511 Y49.849
N18905 X10.657 Y50.59
N18910 X10.713 Y50.837
N18915 G3 X10.49 Y51.557 I-0.786 J0.152
N18920 G1 X10.416 Y51.63 Z-5.196
N18925 X10.343 Y51.703 Z-5.176
