%
(1002)
(T2 D=3.063 CR=1.6 TAPER=2.5deg - ZMIN=-8.5 - tapered mill)
N10 G90 G94
N15 G17
N20 G21
(When using Fusion 360 for Personal Use, the feedrate of)
(rapid moves is reduced to match the feedrate of cutting)
(moves, which can increase machining time. Unrestricted rapid)
(moves are available with a Fusion 360 Subscription.)
N25 G28

(Parallel1)
N30 T2 M6
N35 S5000 M3
N40 G17 G90 G94
N45 G54
N50 G0 X50.268 Y-50.009
N55 G43 Z15
N60 G1 Z-6.502 F1000
N65 Z-8.193 F333.3
N70 G18 G3 X49.961 Z-8.5 I-0.306 F1000
N75 G1 X47.32 Z-8.49
N80 X45.755 Z-8.463
N85 X44.698 Z-8.427
N90 X43.762 Z-8.38
N95 X42.656 Z-8.299
N100 X41.573 Z-8.183
N105 X40.682 Z-8.052
N110 X39.981 Z-7.918
N115 X39.469 Z-7.797
N120 X38.944 Z-7.651
N125 X38.445 Z-7.483
N130 X37.959 Z-7.28
N135 X37.636 Z-7.117
N140 X37.345 Z-6.946
N145 X37.046 Z-6.736
N150 X36.782 Z-6.522
N155 X36.519 Z-6.273
N160 X36.284 Z-6.019
N165 X36.018 Z-5.689
N170 X35.708 Z-5.237
N175 X35.471 Z-4.835
N180 X35.226 Z-4.365
N185 X34.813 Z-3.474
N190 X34.694 Z-3.219
N195 X34.612 Z-3.053
N200 X34.524 Z-2.893
N205 X34.392 Z-2.68
N210 X34.213 Z-2.449
N215 X34.019 Z-2.26
N220 X33.826 Z-2.117
N225 X33.641 Z-2.012
N230 X33.473 Z-1.94
N235 X33.251 Z-1.877
N240 X33.021 Z-1.84
N245 X32.733 Z-1.833
N250 X32.549 Z-1.846
N255 X32.299 Z-1.895
N260 X32.136 Z-1.948
N265 X31.922 Z-2.051
N270 X31.756 Z-2.155
N275 X31.556 Z-2.322
N280 X31.405 Z-2.482
N285 X31.245 Z-2.694
N290 X31.077 Z-2.97
N295 X30.857 Z-3.406
N300 X30.406 Z-4.374
N305 X30.134 Z-4.909
N310 X29.883 Z-5.341
N315 X29.683 Z-5.653
N320 X29.465 Z-5.959
N325 X29.168 Z-6.319
N330 X28.917 Z-6.582
N335 X28.714 Z-6.766
N340 X28.46 Z-6.971
N345 X28.269 Z-7.103
N350 X28.028 Z-7.248
N355 X27.729 Z-7.403
N360 X27.442 Z-7.526
N365 X27.178 Z-7.623
N370 X26.822 Z-7.73
N375 X26.549 Z-7.795
N380 X26.272 Z-7.847
N385 X25.994 Z-7.886
N390 X25.609 Z-7.919
N395 X25.316 Z-7.926
N400 X25.029 Z-7.914
N405 X24.672 Z-7.879
N410 X24.319 Z-7.822
N415 X23.99 Z-7.748
N420 X23.645 Z-7.647
N425 X23.308 Z-7.523
N430 X22.912 Z-7.343
N435 X22.532 Z-7.13
N440 X22.23 Z-6.924
N445 X21.944 Z-6.698
N450 X21.622 Z-6.399
N455 X21.436 Z-6.201
N460 X21.265 Z-5.998
N465 X21.101 Z-5.783
N470 X20.899 Z-5.485
N475 X20.667 Z-5.104
N480 X20.395 Z-4.611
N485 X19.872 Z-3.57
N490 X19.492 Z-2.821
N495 X19.21 Z-2.325
N500 X18.967 Z-1.966
N505 X18.855 Z-1.825
N510 X18.671 Z-1.623
N515 X18.439 Z-1.419
N520 X18.242 Z-1.283
N525 X17.999 Z-1.157
N530 X17.737 Z-1.065
N535 X17.51 Z-1.019
N540 X17.278 Z-1
N545 X17.005 Z-1.004
N550 X16.761 Z-1.036
N555 X16.515 Z-1.104
N560 X16.356 Z-1.166
N565 X16.128 Z-1.286
N570 X15.916 Z-1.435
N575 X15.676 Z-1.654
N580 X15.465 Z-1.899
N585 X15.282 Z-2.158
N590 X15.095 Z-2.471
N595 X14.891 Z-2.869
N600 X14.629 Z-3.45
N605 X14.232 Z-4.445
N610 X13.752 Z-5.668
N615 X13.533 Z-6.178
N620 X13.331 Z-6.6
N625 X13.104 Z-7.016
N630 X12.886 Z-7.357
N635 X12.682 Z-7.627
N640 X12.494 Z-7.832
N645 X12.394 Z-7.922
N650 X12.326 Z-7.978
N655 X12.133 Z-8.092
N660 X12.035 Z-8.122
N665 X11.909 Z-8.099
N670 X11.739 Z-8.04
N675 X11.549 Z-7.948
N680 X11.402 Z-7.863
N685 X11.181 Z-7.715
N690 X10.966 Z-7.55
N695 X10.672 Z-7.299
N700 X10.324 Z-6.963
N705 X9.763 Z-6.362
N710 X8.354 Z-4.749
N715 X7.855 Z-4.228
N720 X7.505 Z-3.902
N725 X7.221 Z-3.663
N730 X6.924 Z-3.443
N735 X6.692 Z-3.294
N740 X6.428 Z-3.146
N745 X6.112 Z-3.001
N750 X5.759 Z-2.883
N755 X5.394 Z-2.808
N760 X4.969 Z-2.779
N765 X4.678 Z-2.787
N770 X4.331 Z-2.826
N775 X3.9 Z-2.936
N780 X3.507 Z-3.1
N785 X3.355 Z-3.182
N790 X3.049 Z-3.373
N795 X2.777 Z-3.584
N800 X2.648 Z-3.698
N805 X2.464 Z-3.876
N810 X2.288 Z-4.065
N815 X2.067 Z-4.328
N820 X1.403 Z-5.163
N825 X1.038 Z-5.58
N830 X0.776 Z-5.846
N835 X0.501 Z-6.094
N840 X0.064 Z-6.439
N845 X-0.403 Z-6.747
N850 X-0.893 Z-7.02
N855 X-1.4 Z-7.257
N860 X-1.921 Z-7.466
N865 X-2.454 Z-7.646
N870 X-2.993 Z-7.803
N875 X-3.723 Z-7.976
N880 X-4.46 Z-8.118
N885 X-5.202 Z-8.229
N890 X-5.948 Z-8.313
N895 X-6.509 Z-8.362
N900 X-7.33 Z-8.407
N905 X-7.748 Z-8.403
N910 X-8.205 Z-8.376
N915 X-8.56 Z-8.333
N920 X-8.82 Z-8.291
N925 X-9.168 Z-8.211
N930 X-9.422 Z-8.139
N935 X-9.672 Z-8.053
N940 X-10 Z-7.911
N945 X-10.234 Z-7.791
N950 X-10.543 Z-7.601
N955 X-10.8 Z-7.416
N960 X-11.044 Z-7.212
N965 X-11.336 Z-6.931
N970 X-11.617 Z-6.627
N975 X-11.965 Z-6.213
N980 X-12.302 Z-5.781
N985 X-13.577 Z-4.076
N990 X-14.05 Z-3.487
N995 X-14.416 Z-3.08
N1000 X-14.748 Z-2.755
N1005 X-15.031 Z-2.517
N1010 X-15.332 Z-2.302
N1015 X-15.649 Z-2.123
N1020 X-15.907 Z-2.009
N1025 X-16.173 Z-1.922
N1030 X-16.446 Z-1.864
N1035 X-16.725 Z-1.837
N1040 X-17.027 Z-1.835
N1045 X-17.285 Z-1.855
N1050 X-17.618 Z-1.922
N1055 X-17.94 Z-2.033
N1060 X-18.266 Z-2.192
N1065 X-18.538 Z-2.364
N1070 X-18.745 Z-2.519
N1075 X-19.003 Z-2.745
N1080 X-19.126 Z-2.863
N1085 X-19.309 Z-3.056
N1090 X-19.487 Z-3.26
N1095 X-19.769 Z-3.613
N1100 X-20.134 Z-4.128
N1105 X-20.333 Z-4.424
N1110 X-20.892 Z-5.317
N1115 X-21.57 Z-6.42
N1120 X-21.984 Z-7.037
N1125 X-22.206 Z-7.334
N1130 X-22.444 Z-7.615
N1135 X-22.7 Z-7.863
N1140 X-22.842 Z-7.98
N1145 X-22.993 Z-8.088
N1150 X-23.152 Z-8.184
N1155 X-23.318 Z-8.264
N1160 X-23.491 Z-8.33
N1165 X-23.669 Z-8.38
N1170 X-23.851 Z-8.415
N1175 X-24.178 Z-8.447
N1180 X-24.541 Z-8.448
N1185 X-25.26 Z-8.412
N1190 X-26.111 Z-8.341
N1195 X-26.913 Z-8.248
N1200 X-27.619 Z-8.141
N1205 X-28.274 Z-8.017
N1210 X-28.878 Z-7.879
N1215 X-29.431 Z-7.729
N1220 X-30.091 Z-7.514
N1225 X-30.582 Z-7.325
N1230 X-31.064 Z-7.107
N1235 X-31.383 Z-6.946
N1240 X-31.774 Z-6.718
N1245 X-31.998 Z-6.574
N1250 X-32.288 Z-6.365
N1255 X-32.568 Z-6.137
N1260 X-32.835 Z-5.889
N1265 X-33.072 Z-5.641
N1270 X-33.304 Z-5.361
N1275 X-33.603 Z-4.942
N1280 X-34.068 Z-4.195
N1285 X-34.223 Z-3.968
N1290 X-34.394 Z-3.754
N1295 X-34.62 Z-3.532
N1300 X-34.806 Z-3.393
N1305 X-34.957 Z-3.3
N1310 X-35.12 Z-3.22
N1315 X-35.383 Z-3.132
N1320 X-35.565 Z-3.093
N1325 X-35.75 Z-3.076
N1330 X-36.127 Z-3.08
N1335 X-36.295 Z-3.101
N1340 X-36.542 Z-3.164
N1345 X-36.702 Z-3.221
N1350 X-37.007 Z-3.378
N1355 X-37.288 Z-3.578
N1360 X-37.543 Z-3.811
N1365 X-37.825 Z-4.116
N1370 X-38.166 Z-4.547
N1375 X-38.726 Z-5.325
N1380 X-39.325 Z-6.164
N1385 X-39.661 Z-6.611
N1390 X-39.89 Z-6.899
N1395 X-40.13 Z-7.186
N1400 X-40.512 Z-7.595
N1405 X-40.784 Z-7.85
N1410 X-41.003 Z-8.027
N1415 X-41.233 Z-8.187
N1420 X-41.401 Z-8.282
N1425 X-41.552 Z-8.097
N1430 X-41.749 Z-7.815
N1435 X-42.022 Z-7.36
N1440 X-42.451 Z-6.558
N1445 X-43.204 Z-5.089
N1450 X-43.468 Z-4.593
N1455 X-43.776 Z-4.044
N1460 X-44.027 Z-3.631
N1465 X-44.287 Z-3.243
N1470 X-44.449 Z-3.023
N1475 X-44.563 Z-2.881
N1480 X-44.747 Z-2.672
N1485 X-45.012 Z-2.417
N1490 X-45.24 Z-2.239
N1495 X-45.461 Z-2.101
N1500 X-45.709 Z-1.982
N1505 X-45.972 Z-1.896
N1510 X-46.2 Z-1.853
N1515 X-46.462 Z-1.833
N1520 X-46.747 Z-1.841
N1525 X-46.954 Z-1.868
N1530 X-47.181 Z-1.928
N1535 X-47.361 Z-1.994
N1540 X-47.603 Z-2.12
N1545 X-47.802 Z-2.256
N1550 X-48.006 Z-2.432
N1555 X-48.196 Z-2.639
N1560 X-48.344 Z-2.833
N1565 X-48.527 Z-3.127
N1570 X-48.69 Z-3.442
N1575 X-48.857 Z-3.837
N1580 X-48.987 Z-4.188
N1585 X-49.182 Z-4.794
N1590 X-49.424 Z-5.683
N1595 X-49.865 Z-7.442
N1600 X-49.961 Z-7.787
N1605 X-49.976 Z-7.824
N1610 X-50 Z-7.855
N1615 X-50.032 Z-7.879
N1620 X-50.069 Z-7.894
N1625 X-50.108 Z-7.899
N1630 X-50.157
N1635 X-50.18 Y-50.007 Z-7.901
N1640 X-50.203 Y-50.004 Z-7.904
N1645 X-50.225 Y-49.997 Z-7.909
N1650 X-50.245 Y-49.989 Z-7.916
N1655 X-50.264 Y-49.978 Z-7.925
N1660 X-50.28 Y-49.965 Z-7.935
N1665 X-50.294 Y-49.951 Z-7.947
N1670 X-50.305 Y-49.935 Z-7.959
N1675 X-50.313 Y-49.918 Z-7.973
N1680 X-50.318 Y-49.9 Z-7.987
N1685 X-50.32 Y-49.882 Z-8.002
N1690 X-50.318 Y-49.864 Z-8.017
N1695 X-50.313 Y-49.847 Z-8.031
N1700 X-50.305 Y-49.83 Z-8.045
N1705 X-50.294 Y-49.814 Z-8.057
N1710 X-50.28 Y-49.799 Z-8.069
N1715 X-50.264 Y-49.787 Z-8.079
N1720 X-50.245 Y-49.776 Z-8.088
N1725 X-50.225 Y-49.767 Z-8.095
N1730 X-50.203 Y-49.761 Z-8.1
N1735 X-50.18 Y-49.757 Z-8.103
N1740 X-50.157 Y-49.756 Z-8.104
N1745 X-50.109 Z-8.097
N1750 X-50.065 Z-8.074
N1755 X-50.031 Z-8.039
N1760 X-50.01 Z-7.995
N1765 X-49.875 Z-7.535
N1770 X-49.536 Z-6.197
N1775 X-49.291 Z-5.24
N1780 X-49.068 Z-4.484
N1785 X-48.921 Z-4.05
N1790 X-48.757 Z-3.635
N1795 X-48.686 Z-3.476
N1800 X-48.567 Z-3.235
N1805 X-48.397 Z-2.943
N1810 X-48.239 Z-2.72
N1815 X-48.084 Z-2.535
N1820 X-47.881 Z-2.338
N1825 X-47.674 Z-2.179
N1830 X-47.452 Z-2.049
N1835 X-47.232 Z-1.954
N1840 X-46.969 Z-1.877
N1845 X-46.714 Z-1.841
N1850 X-46.431 Z-1.833
N1855 X-46.178 Z-1.852
N1860 X-45.95 Z-1.893
N1865 X-45.686 Z-1.978
N1870 X-45.438 Z-2.095
N1875 X-45.211 Z-2.236
N1880 X-44.991 Z-2.405
N1885 X-44.737 Z-2.646
N1890 X-44.537 Z-2.871
N1895 X-44.423 Z-3.012
N1900 X-44.259 Z-3.232
N1905 X-43.999 Z-3.621
N1910 X-43.806 Z-3.936
N1915 X-43.527 Z-4.421
N1920 X-43.175 Z-5.079
N1925 X-42.46 Z-6.475
N1930 X-41.993 Z-7.354
N1935 X-41.72 Z-7.81
N1940 X-41.523 Z-8.093
N1945 X-41.372 Z-8.279
N1950 X-41.097 Z-8.112
N1955 X-40.804 Z-7.884
N1960 X-40.531 Z-7.635
N1965 X-40.15 Z-7.23
N1970 X-39.79 Z-6.802
N1975 X-39.339 Z-6.21
N1980 X-38.492 Z-5.02
N1985 X-38.181 Z-4.592
N1990 X-37.961 Z-4.307
N1995 X-37.741 Z-4.044
N2000 X-37.566 Z-3.855
N2005 X-37.379 Z-3.677
N2010 X-37.272 Z-3.584
N2015 X-37.001 Z-3.389
N2020 X-36.737 Z-3.248
N2025 X-36.517 Z-3.165
N2030 X-36.248 Z-3.098
N2035 X-36.067 Z-3.078
N2040 X-35.723 Z-3.076
N2045 X-35.491 Z-3.1
N2050 X-35.289 Z-3.15
N2055 X-35.052 Z-3.236
N2060 X-34.89 Z-3.32
N2065 X-34.662 Z-3.472
N2070 X-34.459 Z-3.652
N2075 X-34.29 Z-3.84
N2080 X-34.104 Z-4.089
N2085 X-33.603 Z-4.894
N2090 X-33.35 Z-5.26
N2095 X-33.077 Z-5.6
N2100 X-32.827 Z-5.871
N2105 X-32.506 Z-6.168
N2110 X-32.147 Z-6.451
N2115 X-31.709 Z-6.746
N2120 X-31.231 Z-7.014
N2125 X-30.755 Z-7.244
N2130 X-30.286 Z-7.437
N2135 X-29.79 Z-7.614
N2140 X-29.105 Z-7.819
N2145 X-28.411 Z-7.987
N2150 X-27.896 Z-8.092
N2155 X-27.025 Z-8.233
N2160 X-26.131 Z-8.341
N2165 X-25.233 Z-8.415
N2170 X-24.485 Z-8.451
N2175 X-24.059 Z-8.437
N2180 X-23.874 Z-8.415
N2185 X-23.692 Z-8.378
N2190 X-23.514 Z-8.327
N2195 X-23.342 Z-8.261
N2200 X-23.175 Z-8.179
N2205 X-23.016 Z-8.082
N2210 X-22.865 Z-7.972
N2215 X-22.723 Z-7.853
N2220 X-22.467 Z-7.601
N2225 X-22.229 Z-7.318
N2230 X-22.007 Z-7.02
N2235 X-21.594 Z-6.401
N2240 X-20.822 Z-5.149
N2245 X-20.441 Z-4.543
N2250 X-20.138 Z-4.087
N2255 X-19.829 Z-3.655
N2260 X-19.518 Z-3.262
N2265 X-19.269 Z-2.981
N2270 X-19.151 Z-2.859
N2275 X-19.027 Z-2.741
N2280 X-18.768 Z-2.516
N2285 X-18.569 Z-2.368
N2290 X-18.27 Z-2.179
N2295 X-17.962 Z-2.031
N2300 X-17.64 Z-1.922
N2305 X-17.391 Z-1.868
N2310 X-17.095 Z-1.837
N2315 X-16.76 Z-1.836
N2320 X-16.458 Z-1.865
N2325 X-16.185 Z-1.924
N2330 X-15.92 Z-2.011
N2335 X-15.685 Z-2.115
N2340 X-15.441 Z-2.247
N2345 X-15.201 Z-2.403
N2350 X-14.897 Z-2.637
N2355 X-14.691 Z-2.821
N2360 X-14.557 Z-2.95
N2365 X-14.302 Z-3.218
N2370 X-14.084 Z-3.464
N2375 X-13.817 Z-3.788
N2380 X-13.474 Z-4.227
N2385 X-12.477 Z-5.563
N2390 X-12.028 Z-6.147
N2395 X-11.692 Z-6.552
N2400 X-11.321 Z-6.959
N2405 X-11.063 Z-7.205
N2410 X-10.789 Z-7.435
N2415 X-10.57 Z-7.591
N2420 X-10.345 Z-7.733
N2425 X-10.027 Z-7.904
N2430 X-9.699 Z-8.048
N2435 X-9.358 Z-8.164
N2440 X-8.847 Z-8.289
N2445 X-8.494 Z-8.347
N2450 X-8.139 Z-8.383
N2455 X-7.655 Z-8.406
N2460 X-7.264 Z-8.403
N2465 X-6.506 Z-8.36
N2470 X-5.572 Z-8.269
N2475 X-4.828 Z-8.168
N2480 X-4.088 Z-8.042
N2485 X-3.356 Z-7.88
N2490 X-2.811 Z-7.736
N2495 X-2.276 Z-7.569
N2500 X-1.75 Z-7.375
N2505 X-1.423 Z-7.238
N2510 X-0.92 Z-6.997
N2515 X-0.592 Z-6.816
N2520 X-0.275 Z-6.621
N2525 X0.18 Z-6.296
N2530 X0.467 Z-6.058
N2535 X0.856 Z-5.689
N2540 X1.233 Z-5.273
N2545 X1.78 Z-4.589
N2550 X2.113 Z-4.177
N2555 X2.344 Z-3.919
N2560 X2.494 Z-3.768
N2565 X2.716 Z-3.57
N2570 X2.852 Z-3.461
N2575 X2.981 Z-3.366
N2580 X3.355 Z-3.138
N2585 X3.665 Z-2.998
N2590 X3.865 Z-2.923
N2595 X4.256 Z-2.826
N2600 X4.587 Z-2.788
N2605 X4.9 Z-2.779
N2610 X5.323 Z-2.806
N2615 X5.741 Z-2.892
N2620 X6.094 Z-3.012
N2625 X6.411 Z-3.157
N2630 X6.675 Z-3.304
N2635 X6.909 Z-3.455
N2640 X7.208 Z-3.677
N2645 X7.494 Z-3.916
N2650 X7.84 Z-4.239
N2655 X8.339 Z-4.761
N2660 X9.743 Z-6.367
N2665 X10.128 Z-6.784
N2670 X10.499 Z-7.161
N2675 X10.896 Z-7.514
N2680 X11.163 Z-7.719
N2685 X11.452 Z-7.907
N2690 X11.606 Z-7.989
N2695 X11.783 Z-8.065
N2700 X11.947 Z-8.112
N2705 X12.028 Z-8.121
N2710 X12.156 Z-8.079
N2715 X12.247 Z-8.029
N2720 X12.392 Z-7.922
N2725 X12.522 Z-7.802
N2730 X12.646 Z-7.668
N2735 X12.873 Z-7.377
N2740 X13.076 Z-7.066
N2745 X13.256 Z-6.75
N2750 X13.505 Z-6.251
N2755 X13.728 Z-5.741
N2760 X14.336 Z-4.189
N2765 X14.605 Z-3.521
N2770 X14.789 Z-3.094
N2775 X14.991 Z-2.673
N2780 X15.169 Z-2.347
N2785 X15.356 Z-2.052
N2790 X15.46 Z-1.909
N2795 X15.658 Z-1.677
N2800 X15.846 Z-1.497
N2805 X16.061 Z-1.332
N2810 X16.276 Z-1.207
N2815 X16.472 Z-1.12
N2820 X16.717 Z-1.046
N2825 X16.972 Z-1.008
N2830 X17.265 Z-1
N2835 X17.529 Z-1.021
N2840 X17.755 Z-1.07
N2845 X17.995 Z-1.154
N2850 X18.258 Z-1.292
N2855 X18.481 Z-1.45
N2860 X18.7 Z-1.65
N2865 X18.868 Z-1.838
N2870 X18.979 Z-1.981
N2875 X19.082 Z-2.126
N2880 X19.184 Z-2.283
N2885 X19.278 Z-2.436
N2890 X19.46 Z-2.759
N2895 X19.633 Z-3.09
N2900 X20.374 Z-4.569
N2905 X20.722 Z-5.198
N2910 X21.006 Z-5.645
N2915 X21.224 Z-5.943
N2920 X21.457 Z-6.222
N2925 X21.711 Z-6.485
N2930 X22.039 Z-6.775
N2935 X22.391 Z-7.033
N2940 X22.698 Z-7.224
N2945 X23.018 Z-7.392
N2950 X23.328 Z-7.527
N2955 X23.665 Z-7.65
N2960 X24.01 Z-7.75
N2965 X24.34 Z-7.823
N2970 X24.693 Z-7.879
N2975 X25.049 Z-7.914
N2980 X25.414 Z-7.926
N2985 X25.859 Z-7.903
N2990 X26.231 Z-7.858
N2995 X26.599 Z-7.79
N3000 X26.961 Z-7.699
N3005 X27.317 Z-7.585
N3010 X27.663 Z-7.445
N3015 X27.995 Z-7.282
N3020 X28.313 Z-7.092
N3025 X28.616 Z-6.871
N3030 X28.896 Z-6.626
N3035 X29.213 Z-6.297
N3040 X29.446 Z-6.012
N3045 X29.718 Z-5.636
N3050 X29.918 Z-5.32
N3055 X30.147 Z-4.923
N3060 X30.4 Z-4.428
N3065 X30.884 Z-3.394
N3070 X31.123 Z-2.926
N3075 X31.299 Z-2.647
N3080 X31.48 Z-2.424
N3085 X31.687 Z-2.23
N3090 X31.883 Z-2.094
N3095 X32.111 Z-1.975
N3100 X32.272 Z-1.915
N3105 X32.438 Z-1.873
N3110 X32.687 Z-1.837
N3115 X32.932 Z-1.833
N3120 X33.15 Z-1.848
N3125 X33.422 Z-1.904
N3130 X33.596 Z-1.964
N3135 X33.781 Z-2.055
N3140 X33.992 Z-2.19
N3145 X34.162 Z-2.335
N3150 X34.315 Z-2.498
N3155 X34.451 Z-2.678
N3160 X34.57 Z-2.869
N3165 X34.657 Z-3.028
N3170 X34.74 Z-3.193
N3175 X34.82 Z-3.362
N3180 X35.118 Z-4.022
N3185 X35.348 Z-4.501
N3190 X35.543 Z-4.869
N3195 X35.781 Z-5.276
N3200 X36.089 Z-5.721
N3205 X36.33 Z-6.02
N3210 X36.564 Z-6.275
N3215 X36.828 Z-6.525
N3220 X37.092 Z-6.741
N3225 X37.391 Z-6.95
N3230 X37.682 Z-7.122
N3235 X38.005 Z-7.285
N3240 X38.493 Z-7.488
N3245 X38.992 Z-7.656
N3250 X39.498 Z-7.798
N3255 X40.195 Z-7.956
N3260 X40.898 Z-8.083
N3265 X41.79 Z-8.207
N3270 X42.893 Z-8.316
N3275 X43.999 Z-8.392
N3280 X45.316 Z-8.451
N3285 X47.076 Z-8.488
N3290 X50.01 Z-8.5
N3295 X50.045 Z-8.496
N3300 X50.078 Z-8.484
N3305 X50.111 Z-8.473
N3310 X50.145 Z-8.469
N3315 G17 G3 Y-49.503 J0.126
N3320 G1 X50.111 Z-8.473
N3325 X50.078 Z-8.484
N3330 X50.045 Z-8.496
N3335 X50.01 Z-8.5
N3340 X47.076 Z-8.488
N3345 X45.316 Z-8.45
N3350 X43.999 Z-8.391
N3355 X43.268 Z-8.344
N3360 X42.351 Z-8.265
N3365 X41.416 Z-8.156
N3370 X40.732 Z-8.052
N3375 X40.031 Z-7.917
N3380 X39.521 Z-7.796
N3385 X38.996 Z-7.647
N3390 X38.458 Z-7.461
N3395 X37.974 Z-7.253
N3400 X37.692 Z-7.107
N3405 X37.366 Z-6.909
N3410 X37.108 Z-6.723
N3415 X36.751 Z-6.417
N3420 X36.469 Z-6.127
N3425 X36.244 Z-5.86
N3430 X36.014 Z-5.551
N3435 X35.838 Z-5.29
N3440 X35.662 Z-4.991
N3445 X35.44 Z-4.583
N3450 X35.165 Z-4.003
N3455 X34.867 Z-3.339
N3460 X34.787 Z-3.169
N3465 X34.705 Z-3.005
N3470 X34.618 Z-2.847
N3475 X34.524 Z-2.698
N3480 X34.381 Z-2.505
N3485 X34.218 Z-2.331
N3490 X34.036 Z-2.177
N3495 X33.803 Z-2.033
N3500 X33.636 Z-1.955
N3505 X33.417 Z-1.887
N3510 X33.189 Z-1.845
N3515 X32.994 Z-1.833
N3520 X32.737 Z-1.838
N3525 X32.499 Z-1.873
N3530 X32.333 Z-1.915
N3535 X32.172 Z-1.975
N3540 X31.944 Z-2.094
N3545 X31.801 Z-2.189
N3550 X31.601 Z-2.362
N3555 X31.427 Z-2.558
N3560 X31.25 Z-2.809
N3565 X31.056 Z-3.16
N3570 X30.41 Z-4.524
N3575 X30.155 Z-5.006
N3580 X29.869 Z-5.484
N3585 X29.551 Z-5.943
N3590 X29.205 Z-6.36
N3595 X28.946 Z-6.622
N3600 X28.666 Z-6.866
N3605 X28.364 Z-7.087
N3610 X28.122 Z-7.232
N3615 X27.893 Z-7.354
N3620 X27.553 Z-7.507
N3625 X27.2 Z-7.636
N3630 X26.843 Z-7.74
N3635 X26.476 Z-7.821
N3640 X25.92 Z-7.9
N3645 X25.436 Z-7.926
N3650 X25.071 Z-7.914
N3655 X24.714 Z-7.88
N3660 X24.196 Z-7.791
N3665 X23.687 Z-7.654
N3670 X23.35 Z-7.532
N3675 X23.04 Z-7.398
N3680 X22.719 Z-7.233
N3685 X22.412 Z-7.043
N3690 X22.136 Z-6.847
N3695 X21.856 Z-6.617
N3700 X21.595 Z-6.366
N3705 X21.348 Z-6.094
N3710 X21.078 Z-5.747
N3715 X20.835 Z-5.382
N3720 X20.557 Z-4.911
N3725 X20.234 Z-4.293
N3730 X19.562 Z-2.95
N3735 X19.26 Z-2.402
N3740 X19.006 Z-2.014
N3745 X18.807 Z-1.764
N3750 X18.585 Z-1.538
N3755 X18.412 Z-1.396
N3760 X18.26 Z-1.291
N3765 X17.996 Z-1.154
N3770 X17.758 Z-1.07
N3775 X17.531 Z-1.021
N3780 X17.26 Z-1
N3785 X16.966 Z-1.009
N3790 X16.766 Z-1.036
N3795 X16.52 Z-1.104
N3800 X16.296 Z-1.198
N3805 X16.133 Z-1.287
N3810 X15.921 Z-1.437
N3815 X15.681 Z-1.656
N3820 X15.492 Z-1.875
N3825 X15.387 Z-2.015
N3830 X15.289 Z-2.161
N3835 X15.126 Z-2.43
N3840 X14.933 Z-2.8
N3845 X14.711 Z-3.283
N3850 X14.499 Z-3.792
N3855 X13.773 Z-5.643
N3860 X13.476 Z-6.324
N3865 X13.228 Z-6.811
N3870 X13.042 Z-7.127
N3875 X12.84 Z-7.425
N3880 X12.613 Z-7.706
N3885 X12.489 Z-7.833
N3890 X12.351 Z-7.953
N3895 X12.2 Z-8.053
N3900 X12.112 Z-8.094
N3905 X12.006 Z-8.123
N3910 X11.839 Z-8.092
N3915 X11.656 Z-8.025
N3920 X11.503 Z-7.952
N3925 X11.274 Z-7.818
N3930 X11.05 Z-7.662
N3935 X10.782 Z-7.452
N3940 X10.391 Z-7.098
N3945 X10.023 Z-6.725
N3950 X9.638 Z-6.307
N3955 X8.442 Z-4.943
N3960 X8.191 Z-4.668
N3965 X8.063 Z-4.531
N3970 X7.603 Z-4.074
N3975 X7.231 Z-3.749
N3980 X6.95 Z-3.532
N3985 X6.661 Z-3.338
N3990 X6.359 Z-3.166
N3995 X6.02 Z-3.011
N4000 X5.668 Z-2.892
N4005 X5.253 Z-2.807
N4010 X4.829 Z-2.779
N4015 X4.512 Z-2.788
N4020 X4.181 Z-2.826
N4025 X3.79 Z-2.923
N4030 X3.59 Z-2.997
N4035 X3.28 Z-3.137
N4040 X2.905 Z-3.365
N4045 X2.776 Z-3.459
N4050 X2.64 Z-3.568
N4055 X2.418 Z-3.766
N4060 X2.267 Z-3.917
N4065 X2.037 Z-4.174
N4070 X1.704 Z-4.586
N4075 X1.157 Z-5.27
N4080 X0.795 Z-5.673
N4085 X0.396 Z-6.054
N4090 X0.109 Z-6.293
N4095 X-0.346 Z-6.62
N4100 X-0.825 Z-6.909
N4105 X-1.401 Z-7.199
N4110 X-1.951 Z-7.429
N4115 X-2.505 Z-7.624
N4120 X-3.044 Z-7.785
N4125 X-3.59 Z-7.924
N4130 X-4.324 Z-8.075
N4135 X-4.879 Z-8.169
N4140 X-5.623 Z-8.269
N4145 X-6.557 Z-8.361
N4150 X-7.315 Z-8.404
N4155 X-7.804 Z-8.403
N4160 X-8.168 Z-8.383
N4165 X-8.523 Z-8.347
N4170 X-8.875 Z-8.288
N4175 X-9.223 Z-8.207
N4180 X-9.567 Z-8.102
N4185 X-9.882 Z-7.979
N4190 X-10.289 Z-7.776
N4195 X-10.518 Z-7.639
N4200 X-10.816 Z-7.424
N4205 X-11.091 Z-7.191
N4210 X-11.349 Z-6.943
N4215 X-11.72 Z-6.534
N4220 X-12.173 Z-5.981
N4225 X-13.39 Z-4.356
N4230 X-13.788 Z-3.843
N4235 X-14.101 Z-3.463
N4240 X-14.321 Z-3.216
N4245 X-14.576 Z-2.948
N4250 X-14.71 Z-2.82
N4255 X-14.916 Z-2.637
N4260 X-15.211 Z-2.409
N4265 X-15.461 Z-2.247
N4270 X-15.686 Z-2.124
N4275 X-15.939 Z-2.012
N4280 X-16.204 Z-1.924
N4285 X-16.477 Z-1.866
N4290 X-16.779 Z-1.836
N4295 X-17.112 Z-1.837
N4300 X-17.367 Z-1.86
N4305 X-17.699 Z-1.932
N4310 X-18.02 Z-2.046
N4315 X-18.327 Z-2.198
N4320 X-18.472 Z-2.285
N4325 X-18.719 Z-2.457
N4330 X-19.032 Z-2.72
N4335 X-19.32 Z-3.006
N4340 X-19.603 Z-3.331
N4345 X-19.928 Z-3.749
N4350 X-20.137 Z-4.039
N4355 X-20.431 Z-4.477
N4360 X-20.816 Z-5.084
N4365 X-21.671 Z-6.468
N4370 X-22.079 Z-7.072
N4375 X-22.302 Z-7.366
N4380 X-22.539 Z-7.641
N4385 X-22.805 Z-7.893
N4390 X-22.947 Z-8.007
N4395 X-23.098 Z-8.112
N4400 X-23.257 Z-8.204
N4405 X-23.423 Z-8.282
N4410 X-23.596 Z-8.344
N4415 X-23.774 Z-8.39
N4420 X-23.958 Z-8.422
N4425 X-24.145 Z-8.442
N4430 X-24.528 Z-8.451
N4435 X-25.253 Z-8.415
N4440 X-26.151 Z-8.34
N4445 X-27.045 Z-8.231
N4450 X-27.75 Z-8.118
N4455 X-28.43 Z-7.982
N4460 X-29.124 Z-7.813
N4465 X-29.788 Z-7.612
N4470 X-30.282 Z-7.435
N4475 X-30.807 Z-7.213
N4480 X-31.242 Z-6.999
N4485 X-31.719 Z-6.726
N4490 X-31.98 Z-6.553
N4495 X-32.31 Z-6.308
N4500 X-32.64 Z-6.026
N4505 X-32.86 Z-5.806
N4510 X-33.075 Z-5.569
N4515 X-33.289 Z-5.301
N4520 X-33.594 Z-4.857
N4525 X-34.032 Z-4.147
N4530 X-34.223 Z-3.882
N4535 X-34.397 Z-3.681
N4540 X-34.598 Z-3.496
N4545 X-34.82 Z-3.342
N4550 X-35.022 Z-3.235
N4555 X-35.237 Z-3.156
N4560 X-35.417 Z-3.108
N4565 X-35.647 Z-3.078
N4570 X-36.038
N4575 X-36.219 Z-3.099
N4580 X-36.488 Z-3.166
N4585 X-36.708 Z-3.249
N4590 X-36.981 Z-3.397
N4595 X-37.247 Z-3.589
N4600 X-37.349 Z-3.678
N4605 X-37.536 Z-3.857
N4610 X-37.711 Z-4.046
N4615 X-37.957 Z-4.341
N4620 X-38.24 Z-4.714
N4625 X-38.645 Z-5.279
N4630 X-39.408 Z-6.345
N4635 X-39.748 Z-6.787
N4640 X-40.108 Z-7.216
N4645 X-40.489 Z-7.622
N4650 X-40.761 Z-7.873
N4655 X-41.055 Z-8.103
N4660 X-41.21 Z-8.205
N4665 X-41.341 Z-8.279
N4670 X-41.492 Z-8.092
N4675 X-41.689 Z-7.808
N4680 X-41.962 Z-7.351
N4685 X-42.391 Z-6.545
N4690 X-43.142 Z-5.076
N4695 X-43.495 Z-4.418
N4700 X-43.774 Z-3.933
N4705 X-43.967 Z-3.618
N4710 X-44.227 Z-3.229
N4715 X-44.391 Z-3.008
N4720 X-44.505 Z-2.867
N4725 X-44.705 Z-2.643
N4730 X-44.959 Z-2.404
N4735 X-45.18 Z-2.234
N4740 X-45.407 Z-2.093
N4745 X-45.655 Z-1.976
N4750 X-45.92 Z-1.892
N4755 X-46.148 Z-1.851
N4760 X-46.397 Z-1.833
N4765 X-46.685 Z-1.841
N4770 X-46.889 Z-1.868
N4775 X-47.126 Z-1.93
N4780 X-47.376 Z-2.027
N4785 X-47.638 Z-2.177
N4790 X-47.878 Z-2.363
N4795 X-48.064 Z-2.548
N4800 X-48.284 Z-2.822
N4805 X-48.471 Z-3.118
N4810 X-48.556 Z-3.274
N4815 X-48.686 Z-3.542
N4820 X-48.883 Z-4.025
N4825 X-49.024 Z-4.434
N4830 X-49.189 Z-4.976
N4835 X-49.285 Z-5.317
N4840 X-49.47 Z-6.027
N4845 X-49.832 Z-7.456
N4850 X-50.01 Z-8.05
N4855 X-50.031 Z-8.094
N4860 X-50.065 Z-8.129
N4865 X-50.109 Z-8.152
N4870 X-50.157 Z-8.16
N4875 X-50.179 Y-49.501
N4880 X-50.201 Y-49.495 Z-8.161
N4885 X-50.221 Y-49.486 Z-8.163
N4890 X-50.24 Y-49.473 Z-8.166
N4895 X-50.256 Y-49.458 Z-8.169
N4900 X-50.269 Y-49.439 Z-8.173
N4905 X-50.278 Y-49.42 Z-8.177
N4910 X-50.284 Y-49.398 Z-8.181
N4915 X-50.286 Y-49.376 Z-8.186
N4920 X-50.284 Y-49.354 Z-8.19
N4925 X-50.278 Y-49.333 Z-8.195
N4930 X-50.269 Y-49.313 Z-8.199
N4935 X-50.256 Y-49.295 Z-8.202
N4940 X-50.24 Y-49.279 Z-8.206
N4945 X-50.221 Y-49.267 Z-8.208
N4950 X-50.201 Y-49.257 Z-8.21
N4955 X-50.179 Y-49.252 Z-8.211
N4960 X-50.157 Y-49.25 Z-8.212
N4965 X-50.156
N4970 X-50.108 Z-8.204
N4975 X-50.066 Z-8.183
N4980 X-50.032 Z-8.149
N4985 X-50.01 Z-8.106
N4990 X-49.95 Z-7.923
N4995 X-49.794 Z-7.39
N5000 X-49.428 Z-5.954
N5005 X-49.259 Z-5.315
N5010 X-49.044 Z-4.588
N5015 X-48.862 Z-4.048
N5020 X-48.672 Z-3.577
N5025 X-48.582 Z-3.383
N5030 X-48.439 Z-3.115
N5035 X-48.251 Z-2.82
N5040 X-48.031 Z-2.547
N5045 X-47.845 Z-2.363
N5050 X-47.604 Z-2.177
N5055 X-47.342 Z-2.027
N5060 X-47.103 Z-1.933
N5065 X-46.856 Z-1.868
N5070 X-46.64 Z-1.84
N5075 X-46.328 Z-1.834
N5080 X-46.002 Z-1.867
N5085 X-45.823 Z-1.91
N5090 X-45.562 Z-2.001
N5095 X-45.316 Z-2.124
N5100 X-45.151 Z-2.231
N5105 X-44.944 Z-2.388
N5110 X-44.737 Z-2.576
N5115 X-44.61 Z-2.709
N5120 X-44.49 Z-2.844
N5125 X-44.239 Z-3.164
N5130 X-44.051 Z-3.436
N5135 X-43.852 Z-3.745
N5140 X-43.659 Z-4.067
N5145 X-43.386 Z-4.553
N5150 X-43.122 Z-5.049
N5155 X-42.117 Z-7.007
N5160 X-41.759 Z-7.644
N5165 X-41.532 Z-7.993
N5170 X-41.31 Z-8.278
N5175 X-41.106 Z-8.157
N5180 X-40.956 Z-8.053
N5185 X-40.674 Z-7.822
N5190 X-40.402 Z-7.564
N5195 X-40.027 Z-7.158
N5200 X-39.787 Z-6.869
N5205 X-39.333 Z-6.282
N5210 X-38.59 Z-5.243
N5215 X-38.171 Z-4.661
N5220 X-37.858 Z-4.256
N5225 X-37.697 Z-4.065
N5230 X-37.458 Z-3.81
N5235 X-37.202 Z-3.579
N5240 X-36.995 Z-3.426
N5245 X-36.771 Z-3.297
N5250 X-36.536 Z-3.192
N5255 X-36.291 Z-3.12
N5260 X-36.082 Z-3.084
N5265 X-35.783 Z-3.075
N5270 X-35.537 Z-3.084
N5275 X-35.354 Z-3.115
N5280 X-35.163 Z-3.169
N5285 X-34.936 Z-3.26
N5290 X-34.722 Z-3.384
N5295 X-34.54 Z-3.517
N5300 X-34.398 Z-3.648
N5305 X-34.211 Z-3.857
N5310 X-34.001 Z-4.145
N5315 X-33.532 Z-4.904
N5320 X-33.287 Z-5.261
N5325 X-33.008 Z-5.612
N5330 X-32.707 Z-5.934
N5335 X-32.439 Z-6.179
N5340 X-32.227 Z-6.355
N5345 X-31.944 Z-6.562
N5350 X-31.641 Z-6.762
N5355 X-31.246 Z-6.989
N5360 X-30.753 Z-7.231
N5365 X-30.207 Z-7.459
N5370 X-29.631 Z-7.661
N5375 X-28.964 Z-7.854
N5380 X-28.433 Z-7.981
N5385 X-27.754 Z-8.118
N5390 X-27.049 Z-8.232
N5395 X-26.155 Z-8.341
N5400 X-25.257 Z-8.416
N5405 X-24.559 Z-8.45
N5410 X-24.177 Z-8.442
N5415 X-23.99 Z-8.423
N5420 X-23.806 Z-8.391
N5425 X-23.628 Z-8.345
N5430 X-23.455 Z-8.282
N5435 X-23.288 Z-8.204
N5440 X-23.129 Z-8.111
N5445 X-22.978 Z-8.005
N5450 X-22.837 Z-7.89
N5455 X-22.571 Z-7.637
N5460 X-22.333 Z-7.361
N5465 X-22.111 Z-7.066
N5470 X-21.703 Z-6.463
N5475 X-20.933 Z-5.22
N5480 X-20.552 Z-4.614
N5485 X-20.189 Z-4.069
N5490 X-19.838 Z-3.586
N5495 X-19.517 Z-3.193
N5500 X-19.287 Z-2.942
N5505 X-19.102 Z-2.76
N5510 X-18.91 Z-2.59
N5515 X-18.742 Z-2.455
N5520 X-18.495 Z-2.284
N5525 X-18.359 Z-2.202
N5530 X-18.043 Z-2.045
N5535 X-17.722 Z-1.931
N5540 X-17.39 Z-1.86
N5545 X-17.141 Z-1.838
N5550 X-16.789 Z-1.837
N5555 X-16.494 Z-1.866
N5560 X-16.221 Z-1.926
N5565 X-15.957 Z-2.013
N5570 X-15.723 Z-2.116
N5575 X-15.482 Z-2.246
N5580 X-15.226 Z-2.412
N5585 X-14.936 Z-2.635
N5590 X-14.659 Z-2.886
N5595 X-14.433 Z-3.112
N5600 X-14.033 Z-3.561
N5605 X-13.805 Z-3.841
N5610 X-13.471 Z-4.269
N5615 X-12.161 Z-6.013
N5620 X-11.719 Z-6.55
N5625 X-11.349 Z-6.957
N5630 X-11.107 Z-7.189
N5635 X-10.817 Z-7.436
N5640 X-10.599 Z-7.593
N5645 X-10.29 Z-7.786
N5650 X-9.882 Z-7.987
N5655 X-9.567 Z-8.109
N5660 X-9.224 Z-8.213
N5665 X-8.875 Z-8.293
N5670 X-8.542 Z-8.348
N5675 X-8.018 Z-8.395
N5680 X-7.627 Z-8.408
N5685 X-6.967 Z-8.386
N5690 X-6.219 Z-8.328
N5695 X-5.472 Z-8.246
N5700 X-4.73 Z-8.139
N5705 X-3.993 Z-8
N5710 X-3.263 Z-7.829
N5715 X-2.722 Z-7.673
N5720 X-2.189 Z-7.494
N5725 X-1.668 Z-7.287
N5730 X-1.327 Z-7.13
N5735 X-0.883 Z-6.903
N5740 X-0.391 Z-6.602
N5745 X0.044 Z-6.285
N5750 X0.331 Z-6.044
N5755 X0.73 Z-5.659
N5760 X1.092 Z-5.254
N5765 X1.614 Z-4.6
N5770 X1.96 Z-4.172
N5775 X2.191 Z-3.915
N5780 X2.467 Z-3.649
N5785 X2.7 Z-3.458
N5790 X2.932 Z-3.296
N5795 X3.281 Z-3.097
N5800 X3.594 Z-2.964
N5805 X3.837 Z-2.889
N5810 X4.148 Z-2.818
N5815 X4.554 Z-2.78
N5820 X4.913 Z-2.785
N5825 X5.239 Z-2.816
N5830 X5.626 Z-2.901
N5835 X5.957 Z-3.015
N5840 X6.126 Z-3.089
N5845 X6.274 Z-3.159
N5850 X6.576 Z-3.33
N5855 X6.885 Z-3.535
N5860 X7.156 Z-3.745
N5865 X7.504 Z-4.043
N5870 X7.998 Z-4.53
N5875 X8.251 Z-4.799
N5880 X8.5 Z-5.074
N5885 X8.885 Z-5.512
N5890 X9.359 Z-6.05
N5895 X9.483 Z-6.191
N5900 X10.037 Z-6.792
N5905 X10.486 Z-7.23
N5910 X10.794 Z-7.491
N5915 X11.17 Z-7.773
N5920 X11.403 Z-7.914
N5925 X11.641 Z-8.031
N5930 X11.824 Z-8.093
N5935 X11.991 Z-8.123
N5940 X12.112 Z-8.092
N5945 X12.27 Z-8.008
N5950 X12.415 Z-7.899
N5955 X12.545 Z-7.777
N5960 X12.669 Z-7.642
N5965 X12.844 Z-7.421
N5970 X13.005 Z-7.191
N5975 X13.275 Z-6.733
N5980 X13.516 Z-6.25
N5985 X13.739 Z-5.742
N5990 X14.542 Z-3.698
N5995 X14.74 Z-3.229
N6000 X14.882 Z-2.917
N6005 X15.105 Z-2.479
N6010 X15.341 Z-2.087
N6015 X15.496 Z-1.876
N6020 X15.684 Z-1.657
N6025 X15.924 Z-1.437
N6030 X16.136 Z-1.288
N6035 X16.301 Z-1.198
N6040 X16.523 Z-1.104
N6045 X16.769 Z-1.036
N6050 X16.969 Z-1.009
N6055 X17.235 Z-1
N6060 X17.468 Z-1.013
N6065 X17.696 Z-1.052
N6070 X17.96 Z-1.138
N6075 X18.205 Z-1.258
N6080 X18.398 Z-1.384
N6085 X18.575 Z-1.527
N6090 X18.796 Z-1.748
N6095 X19.02 Z-2.032
N6100 X19.245 Z-2.375
N6105 X19.427 Z-2.693
N6110 X19.591 Z-3.004
N6115 X20.253 Z-4.331
N6120 X20.593 Z-4.974
N6125 X20.908 Z-5.497
N6130 X21.172 Z-5.872
N6135 X21.385 Z-6.135
N6140 X21.632 Z-6.402
N6145 X21.9 Z-6.652
N6150 X22.243 Z-6.923
N6155 X22.607 Z-7.162
N6160 X22.904 Z-7.327
N6165 X23.232 Z-7.481
N6170 X23.708 Z-7.657
N6175 X24.217 Z-7.793
N6180 X24.736 Z-7.881
N6185 X25.092 Z-7.914
N6190 X25.42 Z-7.926
N6195 X25.803 Z-7.911
N6200 X26.176 Z-7.874
N6205 X26.546 Z-7.813
N6210 X26.91 Z-7.731
N6215 X27.268 Z-7.625
N6220 X27.618 Z-7.496
N6225 X27.958 Z-7.341
N6230 X28.281 Z-7.165
N6235 X28.589 Z-6.96
N6240 X28.88 Z-6.725
N6245 X29.149 Z-6.469
N6250 X29.394 Z-6.2
N6255 X29.622 Z-5.916
N6260 X29.855 Z-5.59
N6265 X30.03 Z-5.315
N6270 X30.302 Z-4.842
N6275 X30.545 Z-4.367
N6280 X30.964 Z-3.476
N6285 X31.21 Z-2.984
N6290 X31.388 Z-2.694
N6295 X31.572 Z-2.458
N6300 X31.739 Z-2.291
N6305 X31.932 Z-2.14
N6310 X32.088 Z-2.046
N6315 X32.314 Z-1.943
N6320 X32.477 Z-1.892
N6325 X32.728 Z-1.845
N6330 X32.862 Z-1.834
N6335 X33.055 Z-1.833
N6340 X33.244 Z-1.844
N6345 X33.473 Z-1.885
N6350 X33.692 Z-1.953
N6355 X33.859 Z-2.03
N6360 X34.092 Z-2.174
N6365 X34.275 Z-2.328
N6370 X34.441 Z-2.505
N6375 X34.581 Z-2.693
N6380 X34.675 Z-2.843
N6385 X34.759 Z-2.995
N6390 X34.836 Z-3.148
N6395 X35.264 Z-4.095
N6400 X35.468 Z-4.525
N6405 X35.602 Z-4.784
N6410 X35.674 Z-4.926
N6415 X35.878 Z-5.273
N6420 X36.153 Z-5.68
N6425 X36.368 Z-5.959
N6430 X36.552 Z-6.169
N6435 X36.728 Z-6.352
N6440 X37.02 Z-6.618
N6445 X37.224 Z-6.78
N6450 X37.545 Z-6.999
N6455 X37.862 Z-7.18
N6460 X38.342 Z-7.402
N6465 X38.658 Z-7.523
N6470 X39.178 Z-7.694
N6475 X39.665 Z-7.825
N6480 X40.382 Z-7.983
N6485 X41.084 Z-8.105
N6490 X41.79 Z-8.202
N6495 X42.893 Z-8.313
N6500 X43.999 Z-8.39
N6505 X45.316 Z-8.45
N6510 X47.076 Z-8.488
N6515 X50.01 Z-8.5
N6520 X50.045 Z-8.496
N6525 X50.078 Z-8.484
N6530 X50.111 Z-8.473
N6535 X50.145 Z-8.469
N6540 G3 Y-48.997 J0.126
N6545 G1 X50.111 Z-8.473
N6550 X50.078 Z-8.484
N6555 X50.045 Z-8.496
N6560 X50.01 Z-8.5
N6565 X47.076 Z-8.487
N6570 X45.316 Z-8.45
N6575 X44.001 Z-8.389
N6580 X42.895 Z-8.312
N6585 X41.811 Z-8.202
N6590 X40.939 Z-8.077
N6595 X40.238 Z-7.948
N6600 X39.544 Z-7.787
N6605 X39.019 Z-7.635
N6610 X38.679 Z-7.519
N6615 X38.363 Z-7.397
N6620 X37.883 Z-7.173
N6625 X37.567 Z-6.989
N6630 X37.249 Z-6.769
N6635 X37.003 Z-6.57
N6640 X36.659 Z-6.238
N6645 X36.411 Z-5.955
N6650 X36.183 Z-5.656
N6655 X35.934 Z-5.286
N6660 X35.703 Z-4.878
N6665 X35.541 Z-4.573
N6670 X35.474 Z-4.427
N6675 X35.235 Z-3.915
N6680 X34.906 Z-3.171
N6685 X34.727 Z-2.83
N6690 X34.555 Z-2.572
N6695 X34.387 Z-2.377
N6700 X34.211 Z-2.218
N6705 X34.065 Z-2.114
N6710 X33.907 Z-2.023
N6715 X33.74 Z-1.949
N6720 X33.509 Z-1.88
N6725 X33.291 Z-1.843
N6730 X33.105 Z-1.833
N6735 X32.92 Z-1.835
N6740 X32.705 Z-1.857
N6745 X32.456 Z-1.915
N6750 X32.295 Z-1.975
N6755 X32.066 Z-2.094
N6760 X31.923 Z-2.19
N6765 X31.724 Z-2.362
N6770 X31.549 Z-2.56
N6775 X31.372 Z-2.811
N6780 X31.177 Z-3.162
N6785 X30.529 Z-4.518
N6790 X30.275 Z-4.993
N6795 X29.989 Z-5.467
N6800 X29.677 Z-5.911
N6805 X29.449 Z-6.194
N6810 X29.204 Z-6.462
N6815 X28.935 Z-6.717
N6820 X28.718 Z-6.895
N6825 X28.489 Z-7.06
N6830 X28.192 Z-7.238
N6835 X27.839 Z-7.416
N6840 X27.534 Z-7.543
N6845 X27.181 Z-7.663
N6850 X26.819 Z-7.761
N6855 X26.452 Z-7.836
N6860 X26.081 Z-7.888
N6865 X25.609 Z-7.922
N6870 X25.283 Z-7.923
N6875 X24.77 Z-7.883
N6880 X24.27 Z-7.801
N6885 X23.941 Z-7.721
N6890 X23.457 Z-7.567
N6895 X22.989 Z-7.367
N6900 X22.543 Z-7.121
N6905 X22.24 Z-6.918
N6910 X21.954 Z-6.695
N6915 X21.633 Z-6.401
N6920 X21.447 Z-6.205
N6925 X21.214 Z-5.926
N6930 X20.997 Z-5.628
N6935 X20.712 Z-5.179
N6940 X20.364 Z-4.549
N6945 X19.566 Z-2.955
N6950 X19.346 Z-2.547
N6955 X19.206 Z-2.31
N6960 X19.105 Z-2.154
N6965 X19.002 Z-2.005
N6970 X18.891 Z-1.859
N6975 X18.675 Z-1.619
N6980 X18.508 Z-1.467
N6985 X18.288 Z-1.306
N6990 X18.048 Z-1.175
N6995 X17.833 Z-1.091
N7000 X17.608 Z-1.033
N7005 X17.331 Z-1.001
N7010 X17.068
N7015 X16.772 Z-1.036
N7020 X16.526 Z-1.105
N7025 X16.308 Z-1.196
N7030 X16.139 Z-1.288
N7035 X15.927 Z-1.438
N7040 X15.687 Z-1.658
N7045 X15.499 Z-1.877
N7050 X15.344 Z-2.088
N7055 X15.112 Z-2.473
N7060 X14.885 Z-2.923
N7065 X14.675 Z-3.393
N7070 X14.404 Z-4.061
N7075 X13.747 Z-5.736
N7080 X13.524 Z-6.244
N7085 X13.283 Z-6.726
N7090 X13.013 Z-7.183
N7095 X12.8 Z-7.483
N7100 X12.673 Z-7.637
N7105 X12.549 Z-7.772
N7110 X12.419 Z-7.893
N7115 X12.274 Z-8.003
N7120 X12.116 Z-8.087
N7125 X11.976 Z-8.124
N7130 X11.809 Z-8.095
N7135 X11.626 Z-8.035
N7140 X11.467 Z-7.963
N7145 X11.167 Z-7.792
N7150 X10.85 Z-7.566
N7155 X10.601 Z-7.362
N7160 X10.326 Z-7.119
N7165 X10.048 Z-6.85
N7170 X9.572 Z-6.351
N7175 X9.212 Z-5.947
N7180 X8.97 Z-5.676
N7185 X8.847 Z-5.534
N7190 X8.33 Z-4.953
N7195 X7.864 Z-4.458
N7200 X7.475 Z-4.077
N7205 X7.099 Z-3.753
N7210 X6.763 Z-3.498
N7215 X6.61 Z-3.393
N7220 X6.289 Z-3.203
N7225 X5.954 Z-3.043
N7230 X5.559 Z-2.903
N7235 X5.241 Z-2.83
N7240 X4.969 Z-2.794
N7245 X4.674 Z-2.779
N7250 X4.365 Z-2.787
N7255 X4.022 Z-2.827
N7260 X3.797 Z-2.879
N7265 X3.553 Z-2.95
N7270 X3.161 Z-3.118
N7275 X2.866 Z-3.289
N7280 X2.653 Z-3.435
N7285 X2.347 Z-3.686
N7290 X2.109 Z-3.919
N7295 X1.851 Z-4.207
N7300 X1.428 Z-4.737
N7305 X0.984 Z-5.289
N7310 X0.622 Z-5.691
N7315 X0.223 Z-6.072
N7320 X-0.139 Z-6.367
N7325 X-0.502 Z-6.627
N7330 X-0.981 Z-6.917
N7335 X-1.295 Z-7.082
N7340 X-1.786 Z-7.31
N7345 X-2.271 Z-7.5
N7350 X-2.606 Z-7.618
N7355 X-3.126 Z-7.775
N7360 X-3.853 Z-7.959
N7365 X-4.588 Z-8.105
N7370 X-5.33 Z-8.222
N7375 X-6.075 Z-8.31
N7380 X-6.823 Z-8.374
N7385 X-7.491 Z-8.407
N7390 X-8.036 Z-8.396
N7395 X-8.559 Z-8.349
N7400 X-8.934 Z-8.285
N7405 X-9.404 Z-8.17
N7410 X-9.744 Z-8.054
N7415 X-10.073 Z-7.907
N7420 X-10.391 Z-7.735
N7425 X-10.616 Z-7.592
N7430 X-10.834 Z-7.434
N7435 X-11.109 Z-7.2
N7440 X-11.365 Z-6.954
N7445 X-11.735 Z-6.547
N7450 X-12.177 Z-6.009
N7455 X-13.487 Z-4.267
N7460 X-13.821 Z-3.84
N7465 X-14.049 Z-3.561
N7470 X-14.471 Z-3.091
N7475 X-14.769 Z-2.798
N7480 X-14.944 Z-2.644
N7485 X-15.159 Z-2.474
N7490 X-15.466 Z-2.266
N7495 X-15.707 Z-2.133
N7500 X-16.004 Z-2.003
N7505 X-16.226 Z-1.93
N7510 X-16.498 Z-1.87
N7515 X-16.683 Z-1.846
N7520 X-16.964 Z-1.833
N7525 X-17.286 Z-1.846
N7530 X-17.517 Z-1.879
N7535 X-17.744 Z-1.931
N7540 X-18.066 Z-2.044
N7545 X-18.373 Z-2.195
N7550 X-18.519 Z-2.283
N7555 X-18.731 Z-2.428
N7560 X-18.934 Z-2.588
N7565 X-19.064 Z-2.699
N7570 X-19.188 Z-2.815
N7575 X-19.428 Z-3.062
N7580 X-19.653 Z-3.32
N7585 X-19.877 Z-3.598
N7590 X-20.235 Z-4.091
N7595 X-20.607 Z-4.649
N7600 X-20.955 Z-5.201
N7605 X-21.34 Z-5.825
N7610 X-21.827 Z-6.595
N7615 X-22.141 Z-7.058
N7620 X-22.363 Z-7.353
N7625 X-22.601 Z-7.631
N7630 X-22.866 Z-7.885
N7635 X-23.008 Z-8.001
N7640 X-23.158 Z-8.108
N7645 X-23.318 Z-8.202
N7650 X-23.484 Z-8.281
N7655 X-23.657 Z-8.344
N7660 X-23.835 Z-8.391
N7665 X-24.019 Z-8.423
N7670 X-24.206 Z-8.442
N7675 X-24.589 Z-8.45
N7680 X-25.464 Z-8.402
N7685 X-26.343 Z-8.322
N7690 X-27.236 Z-8.206
N7695 X-27.938 Z-8.085
N7700 X-28.635 Z-7.936
N7705 X-29.306 Z-7.758
N7710 X-29.808 Z-7.6
N7715 X-30.304 Z-7.417
N7720 X-30.826 Z-7.19
N7725 X-31.34 Z-6.926
N7730 X-31.57 Z-6.795
N7735 X-31.87 Z-6.6
N7740 X-32.29 Z-6.286
N7745 X-32.634 Z-5.978
N7750 X-32.969 Z-5.624
N7755 X-33.172 Z-5.375
N7760 X-33.424 Z-5.019
N7765 X-33.982 Z-4.124
N7770 X-34.186 Z-3.847
N7775 X-34.365 Z-3.648
N7780 X-34.517 Z-3.509
N7785 X-34.7 Z-3.377
N7790 X-34.91 Z-3.257
N7795 X-35.138 Z-3.167
N7800 X-35.333 Z-3.112
N7805 X-35.563 Z-3.079
N7810 X-35.899 Z-3.075
N7815 X-36.116 Z-3.093
N7820 X-36.344 Z-3.143
N7825 X-36.586 Z-3.224
N7830 X-36.873 Z-3.369
N7835 X-37.139 Z-3.553
N7840 X-37.398 Z-3.781
N7845 X-37.608 Z-4
N7850 X-37.936 Z-4.392
N7855 X-38.141 Z-4.661
N7860 X-38.559 Z-5.242
N7865 X-39.301 Z-6.278
N7870 X-39.755 Z-6.866
N7875 X-39.995 Z-7.155
N7880 X-40.37 Z-7.561
N7885 X-40.637 Z-7.815
N7890 X-40.919 Z-8.047
N7895 X-41.069 Z-8.152
N7900 X-41.279 Z-8.277
N7905 X-41.487 Z-8.012
N7910 X-41.728 Z-7.642
N7915 X-42.086 Z-7.003
N7920 X-43.091 Z-5.042
N7925 X-43.355 Z-4.547
N7930 X-43.628 Z-4.061
N7935 X-43.821 Z-3.739
N7940 X-44.02 Z-3.431
N7945 X-44.211 Z-3.154
N7950 X-44.46 Z-2.839
N7955 X-44.58 Z-2.704
N7960 X-44.707 Z-2.571
N7965 X-44.914 Z-2.384
N7970 X-45.113 Z-2.233
N7975 X-45.287 Z-2.121
N7980 X-45.534 Z-1.998
N7985 X-45.794 Z-1.908
N7990 X-45.974 Z-1.866
N7995 X-46.287 Z-1.834
N8000 X-46.606 Z-1.84
N8005 X-46.822 Z-1.868
N8010 X-47.069 Z-1.933
N8015 X-47.309 Z-2.027
N8020 X-47.571 Z-2.176
N8025 X-47.812 Z-2.362
N8030 X-47.998 Z-2.546
N8035 X-48.218 Z-2.819
N8040 X-48.406 Z-3.113
N8045 X-48.568 Z-3.419
N8050 X-48.641 Z-3.576
N8055 X-48.809 Z-3.984
N8060 X-48.988 Z-4.498
N8065 X-49.125 Z-4.945
N8070 X-49.277 Z-5.479
N8075 X-49.372 Z-5.828
N8080 X-49.787 Z-7.445
N8085 X-49.997 Z-8.119
N8090 X-50.01 Z-8.152
N8095 X-50.033 Z-8.191
N8100 X-50.066 Z-8.223
N8105 X-50.108 Z-8.243
N8110 X-50.153 Z-8.25
N8115 X-50.154
N8120 X-50.176 Y-48.995
N8125 X-50.198 Y-48.989 Z-8.251
N8130 X-50.218 Y-48.98 Z-8.253
N8135 X-50.237 Y-48.967 Z-8.255
N8140 X-50.253 Y-48.952 Z-8.258
N8145 X-50.266 Y-48.934 Z-8.262
N8150 X-50.275 Y-48.914 Z-8.266
N8155 X-50.281 Y-48.892 Z-8.27
N8160 X-50.283 Y-48.87 Z-8.274
N8165 X-50.281 Y-48.848 Z-8.278
N8170 X-50.275 Y-48.827 Z-8.283
N8175 X-50.266 Y-48.807 Z-8.286
N8180 X-50.253 Y-48.789 Z-8.29
N8185 X-50.237 Y-48.773 Z-8.293
N8190 X-50.218 Y-48.761 Z-8.295
N8195 X-50.198 Y-48.751 Z-8.297
N8200 X-50.176 Y-48.746 Z-8.298
N8205 X-50.154 Y-48.744 Z-8.299
N8210 X-50.108 Z-8.292
N8215 X-50.066 Z-8.271
N8220 X-50.032 Z-8.239
N8225 X-50.01 Z-8.198
N8230 X-49.947 Z-8.026
N8235 X-49.816 Z-7.609
N8240 X-49.62 Z-6.89
N8245 X-49.436 Z-6.181
N8250 X-49.257 Z-5.502
N8255 X-49.075 Z-4.864
N8260 X-48.882 Z-4.271
N8265 X-48.763 Z-3.944
N8270 X-48.63 Z-3.62
N8275 X-48.559 Z-3.466
N8280 X-48.397 Z-3.152
N8285 X-48.307 Z-3.001
N8290 X-48.213 Z-2.858
N8295 X-48.108 Z-2.717
N8300 X-47.952 Z-2.532
N8305 X-47.748 Z-2.336
N8310 X-47.54 Z-2.178
N8315 X-47.318 Z-2.048
N8320 X-47.1 Z-1.954
N8325 X-46.835 Z-1.877
N8330 X-46.58 Z-1.841
N8335 X-46.296 Z-1.833
N8340 X-46.125 Z-1.843
N8345 X-45.863 Z-1.881
N8350 X-45.64 Z-1.946
N8355 X-45.426 Z-2.032
N8360 X-45.183 Z-2.163
N8365 X-44.958 Z-2.32
N8370 X-44.75 Z-2.498
N8375 X-44.685 Z-2.56
N8380 X-44.462 Z-2.795
N8385 X-44.258 Z-3.047
N8390 X-44.097 Z-3.267
N8395 X-43.839 Z-3.655
N8400 X-43.554 Z-4.129
N8405 X-43.37 Z-4.456
N8410 X-43.019 Z-5.115
N8415 X-42.432 Z-6.267
N8420 X-41.938 Z-7.214
N8425 X-41.62 Z-7.764
N8430 X-41.415 Z-8.068
N8435 X-41.248 Z-8.277
N8440 X-41.017 Z-8.137
N8445 X-40.868 Z-8.03
N8450 X-40.585 Z-7.795
N8455 X-40.319 Z-7.539
N8460 X-40.064 Z-7.264
N8465 X-39.704 Z-6.84
N8470 X-39.251 Z-6.251
N8475 X-38.618 Z-5.367
N8480 X-38.118 Z-4.671
N8485 X-37.799 Z-4.259
N8490 X-37.578 Z-4.001
N8495 X-37.368 Z-3.783
N8500 X-37.109 Z-3.555
N8505 X-36.843 Z-3.371
N8510 X-36.557 Z-3.225
N8515 X-36.315 Z-3.144
N8520 X-36.107 Z-3.096
N8525 X-35.894 Z-3.076
N8530 X-35.558 Z-3.077
N8535 X-35.327 Z-3.107
N8540 X-35.11 Z-3.165
N8545 X-34.891 Z-3.25
N8550 X-34.73 Z-3.337
N8555 X-34.504 Z-3.493
N8560 X-34.337 Z-3.644
N8565 X-34.177 Z-3.819
N8570 X-33.988 Z-4.067
N8575 X-33.814 Z-4.337
N8580 X-33.554 Z-4.765
N8585 X-33.258 Z-5.216
N8590 X-33.038 Z-5.507
N8595 X-32.813 Z-5.764
N8600 X-32.618 Z-5.967
N8605 X-32.395 Z-6.172
N8610 X-32.152 Z-6.375
N8615 X-31.706 Z-6.694
N8620 X-31.257 Z-6.963
N8625 X-30.941 Z-7.125
N8630 X-30.459 Z-7.348
N8635 X-29.988 Z-7.533
N8640 X-29.488 Z-7.701
N8645 X-28.8 Z-7.895
N8650 X-27.939 Z-8.085
N8655 X-27.237 Z-8.207
N8660 X-26.344 Z-8.323
N8665 X-25.465 Z-8.403
N8670 X-24.58 Z-8.452
N8675 X-24.197 Z-8.44
N8680 X-24.011 Z-8.418
N8685 X-23.83 Z-8.383
N8690 X-23.652 Z-8.332
N8695 X-23.479 Z-8.265
N8700 X-23.312 Z-8.182
N8705 X-23.159 Z-8.087
N8710 X-23.008 Z-7.976
N8715 X-22.866 Z-7.855
N8720 X-22.61 Z-7.602
N8725 X-22.372 Z-7.319
N8730 X-22.15 Z-7.021
N8735 X-21.746 Z-6.418
N8740 X-20.983 Z-5.191
N8745 X-20.691 Z-4.729
N8750 X-20.4 Z-4.287
N8755 X-20.195 Z-3.99
N8760 X-19.891 Z-3.579
N8765 X-19.731 Z-3.38
N8770 X-19.466 Z-3.072
N8775 X-19.212 Z-2.812
N8780 X-19.088 Z-2.696
N8785 X-18.958 Z-2.585
N8790 X-18.755 Z-2.426
N8795 X-18.542 Z-2.281
N8800 X-18.396 Z-2.194
N8805 X-18.088 Z-2.043
N8810 X-17.767 Z-1.931
N8815 X-17.435 Z-1.86
N8820 X-17.203 Z-1.839
N8825 X-16.944 Z-1.833
N8830 X-16.756 Z-1.843
N8835 X-16.502 Z-1.873
N8840 X-16.207 Z-1.942
N8845 X-15.945 Z-2.034
N8850 X-15.631 Z-2.184
N8855 X-15.373 Z-2.338
N8860 X-15.183 Z-2.47
N8865 X-14.929 Z-2.675
N8870 X-14.7 Z-2.882
N8875 X-14.41 Z-3.173
N8880 X-14.052 Z-3.578
N8885 X-13.824 Z-3.855
N8890 X-13.49 Z-4.282
N8895 X-12.169 Z-6.035
N8900 X-11.755 Z-6.538
N8905 X-11.417 Z-6.912
N8910 X-11.093 Z-7.229
N8915 X-10.829 Z-7.449
N8920 X-10.553 Z-7.647
N8925 X-10.408 Z-7.734
N8930 X-10.09 Z-7.907
N8935 X-9.762 Z-8.054
N8940 X-9.421 Z-8.171
N8945 X-8.91 Z-8.296
N8950 X-8.577 Z-8.35
N8955 X-8.053 Z-8.397
N8960 X-7.554 Z-8.407
N8965 X-6.886 Z-8.376
N8970 X-6.138 Z-8.313
N8975 X-5.207 Z-8.197
N8980 X-4.466 Z-8.075
N8985 X-3.733 Z-7.918
N8990 X-3.189 Z-7.777
N8995 X-2.669 Z-7.619
N9000 X-2.003 Z-7.373
N9005 X-1.527 Z-7.162
N9010 X-1.027 Z-6.905
N9015 X-0.552 Z-6.612
N9020 X-0.117 Z-6.294
N9025 X0.17 Z-6.052
N9030 X0.569 Z-5.665
N9035 X0.926 Z-5.265
N9040 X1.486 Z-4.562
N9045 X1.807 Z-4.166
N9050 X2.038 Z-3.911
N9055 X2.309 Z-3.651
N9060 X2.549 Z-3.455
N9065 X2.759 Z-3.307
N9070 X2.978 Z-3.176
N9075 X3.169 Z-3.078
N9080 X3.524 Z-2.934
N9085 X3.768 Z-2.867
N9090 X3.955 Z-2.826
N9095 X4.265 Z-2.789
N9100 X4.61 Z-2.779
N9105 X4.891 Z-2.793
N9110 X5.168 Z-2.83
N9115 X5.486 Z-2.903
N9120 X5.83 Z-3.022
N9125 X6.229 Z-3.209
N9130 X6.617 Z-3.444
N9135 X6.883 Z-3.637
N9140 X7.16 Z-3.859
N9145 X7.44 Z-4.106
N9150 X7.837 Z-4.495
N9155 X8.269 Z-4.953
N9160 X8.697 Z-5.43
N9165 X9.052 Z-5.839
N9170 X9.15 Z-5.939
N9175 X9.419 Z-6.236
N9180 X9.865 Z-6.714
N9185 X10.002 Z-6.849
N9190 X10.387 Z-7.217
N9195 X10.795 Z-7.552
N9200 X11.151 Z-7.803
N9205 X11.451 Z-7.968
N9210 X11.61 Z-8.038
N9215 X11.793 Z-8.096
N9220 X11.961 Z-8.124
N9225 X12.121 Z-8.082
N9230 X12.279 Z-7.996
N9235 X12.407 Z-7.901
N9240 X12.618 Z-7.7
N9245 X12.803 Z-7.481
N9250 X13.024 Z-7.171
N9255 X13.294 Z-6.714
N9260 X13.535 Z-6.232
N9265 X13.758 Z-5.723
N9270 X14.547 Z-3.716
N9275 X14.745 Z-3.243
N9280 X14.924 Z-2.852
N9285 X15.12 Z-2.468
N9290 X15.348 Z-2.09
N9295 X15.502 Z-1.879
N9300 X15.615 Z-1.741
N9305 X15.799 Z-1.553
N9310 X15.998 Z-1.387
N9315 X16.217 Z-1.245
N9320 X16.449 Z-1.134
N9325 X16.693 Z-1.055
N9330 X16.901 Z-1.017
N9335 X17.138 Z-1
N9340 X17.436 Z-1.009
N9345 X17.699 Z-1.052
N9350 X17.963 Z-1.137
N9355 X18.208 Z-1.256
N9360 X18.438 Z-1.41
N9365 X18.643 Z-1.586
N9370 X18.814 Z-1.765
N9375 X19.037 Z-2.05
N9380 X19.248 Z-2.376
N9385 X19.43 Z-2.695
N9390 X19.594 Z-3.008
N9395 X20.247 Z-4.318
N9400 X20.575 Z-4.939
N9405 X20.836 Z-5.381
N9410 X21.083 Z-5.752
N9415 X21.354 Z-6.095
N9420 X21.584 Z-6.348
N9425 X21.845 Z-6.599
N9430 X22.05 Z-6.771
N9435 X22.401 Z-7.025
N9440 X22.69 Z-7.204
N9445 X23.011 Z-7.373
N9450 X23.478 Z-7.571
N9455 X23.962 Z-7.724
N9460 X24.292 Z-7.802
N9465 X24.624 Z-7.86
N9470 X24.959 Z-7.901
N9475 X25.4 Z-7.926
N9480 X25.783 Z-7.916
N9485 X26.157 Z-7.882
N9490 X26.527 Z-7.828
N9495 X27.055 Z-7.71
N9500 X27.413 Z-7.598
N9505 X27.743 Z-7.475
N9510 X28.042 Z-7.337
N9515 X28.407 Z-7.138
N9520 X28.7 Z-6.943
N9525 X28.922 Z-6.767
N9530 X29.147 Z-6.565
N9535 X29.508 Z-6.185
N9540 X29.735 Z-5.901
N9545 X30.049 Z-5.459
N9550 X30.335 Z-4.986
N9555 X30.589 Z-4.514
N9560 X31.084 Z-3.477
N9565 X31.331 Z-2.986
N9570 X31.506 Z-2.702
N9575 X31.679 Z-2.476
N9580 X31.858 Z-2.295
N9585 X32.054 Z-2.14
N9590 X32.211 Z-2.046
N9595 X32.437 Z-1.943
N9600 X32.6 Z-1.892
N9605 X32.85 Z-1.845
N9610 X33.037 Z-1.833
N9615 X33.35 Z-1.842
N9620 X33.568 Z-1.879
N9625 X33.799 Z-1.948
N9630 X33.966 Z-2.022
N9635 X34.201 Z-2.164
N9640 X34.389 Z-2.321
N9645 X34.562 Z-2.505
N9650 X34.739 Z-2.751
N9655 X34.87 Z-2.981
N9660 X34.965 Z-3.173
N9665 X35.37 Z-4.083
N9670 X35.432 Z-4.232
N9675 X35.516 Z-4.403
N9680 X35.583 Z-4.548
N9685 X35.745 Z-4.859
N9690 X35.975 Z-5.271
N9695 X36.224 Z-5.648
N9700 X36.44 Z-5.936
N9705 X36.697 Z-6.231
N9710 X37.033 Z-6.56
N9715 X37.314 Z-6.788
N9720 X37.684 Z-7.039
N9725 X38.02 Z-7.223
N9730 X38.386 Z-7.393
N9735 X38.878 Z-7.579
N9740 X39.393 Z-7.738
N9745 X40.074 Z-7.908
N9750 X40.773 Z-8.046
N9755 X41.664 Z-8.18
N9760 X42.372 Z-8.261
N9765 X43.27 Z-8.34
N9770 X44.189 Z-8.399
N9775 X45.316 Z-8.449
N9780 X47.076 Z-8.487
N9785 X50.01 Z-8.5
N9790 X50.045 Z-8.496
N9795 X50.078 Z-8.484
N9800 X50.111 Z-8.473
N9805 X50.145 Z-8.469
N9810 G3 Y-48.491 J0.126
N9815 G1 X50.111 Z-8.473
N9820 X50.078 Z-8.484
N9825 X50.045 Z-8.496
N9830 X50.01 Z-8.5
N9835 X47.076 Z-8.487
N9840 X45.316 Z-8.449
N9845 X44.189 Z-8.398
N9850 X43.27 Z-8.338
N9855 X42.372 Z-8.259
N9860 X41.664 Z-8.178
N9865 X40.773 Z-8.041
N9870 X40.074 Z-7.902
N9875 X39.564 Z-7.777
N9880 X39.039 Z-7.621
N9885 X38.543 Z-7.442
N9890 X38.233 Z-7.309
N9895 X37.91 Z-7.147
N9900 X37.6 Z-6.963
N9905 X37.318 Z-6.76
N9910 X37.024 Z-6.513
N9915 X36.791 Z-6.285
N9920 X36.502 Z-5.956
N9925 X36.217 Z-5.568
N9930 X36.045 Z-5.31
N9935 X35.877 Z-5.01
N9940 X35.781 Z-4.828
N9945 X35.619 Z-4.509
N9950 X35.336 Z-3.888
N9955 X35.008 Z-3.138
N9960 X34.834 Z-2.808
N9965 X34.669 Z-2.563
N9970 X34.495 Z-2.365
N9975 X34.363 Z-2.243
N9980 X34.17 Z-2.104
N9985 X33.98 Z-1.999
N9990 X33.811 Z-1.93
N9995 X33.577 Z-1.869
N10000 X33.359 Z-1.838
N10005 X33.043 Z-1.835
N10010 X32.827 Z-1.857
N10015 X32.578 Z-1.915
N10020 X32.417 Z-1.975
N10025 X32.189 Z-2.094
N10030 X32.045 Z-2.19
N10035 X31.846 Z-2.363
N10040 X31.665 Z-2.569
N10045 X31.494 Z-2.813
N10050 X31.298 Z-3.165
N10055 X30.649 Z-4.509
N10060 X30.387 Z-4.993
N10065 X30.11 Z-5.448
N10070 X29.797 Z-5.887
N10075 X29.569 Z-6.172
N10080 X29.291 Z-6.47
N10085 X29.052 Z-6.695
N10090 X28.757 Z-6.933
N10095 X28.39 Z-7.174
N10100 X27.975 Z-7.389
N10105 X27.486 Z-7.585
N10110 X27.119 Z-7.701
N10115 X26.775 Z-7.785
N10120 X26.407 Z-7.852
N10125 X26.035 Z-7.899
N10130 X25.522 Z-7.927
N10135 X25.15 Z-7.914
N10140 X24.813 Z-7.884
N10145 X24.313 Z-7.803
N10150 X23.984 Z-7.726
N10155 X23.5 Z-7.575
N10160 X23.165 Z-7.44
N10165 X22.861 Z-7.293
N10170 X22.485 Z-7.077
N10175 X22.128 Z-6.827
N10180 X21.848 Z-6.598
N10185 X21.48 Z-6.238
N10190 X21.24 Z-5.956
N10195 X20.938 Z-5.539
N10200 X20.666 Z-5.099
N10205 X20.33 Z-4.483
N10210 X19.556 Z-2.932
N10215 X19.348 Z-2.547
N10220 X19.255 Z-2.385
N10225 X19.057 Z-2.077
N10230 X18.838 Z-1.791
N10235 X18.652 Z-1.593
N10240 X18.448 Z-1.415
N10245 X18.219 Z-1.261
N10250 X17.974 Z-1.14
N10255 X17.8 Z-1.079
N10260 X17.572 Z-1.026
N10265 X17.311 Z-1.001
N10270 X16.994 Z-1.007
N10275 X16.778 Z-1.036
N10280 X16.532 Z-1.105
N10285 X16.315 Z-1.196
N10290 X16.091 Z-1.324
N10295 X15.933 Z-1.439
N10300 X15.686 Z-1.668
N10305 X15.506 Z-1.88
N10310 X15.4 Z-2.02
N10315 X15.302 Z-2.168
N10320 X15.212 Z-2.314
N10325 X15.043 Z-2.622
N10330 X14.889 Z-2.934
N10335 X14.679 Z-3.408
N10340 X14.424 Z-4.039
N10345 X13.76 Z-5.731
N10350 X13.537 Z-6.238
N10355 X13.296 Z-6.718
N10360 X13.026 Z-7.172
N10365 X12.805 Z-7.48
N10370 X12.62 Z-7.698
N10375 X12.438 Z-7.873
N10380 X12.279 Z-7.993
N10385 X12.12 Z-8.079
N10390 X12.043 Z-8.105
N10395 X11.943 Z-8.124
N10400 X11.776 Z-8.097
N10405 X11.612 Z-8.047
N10410 X11.453 Z-7.981
N10415 X11.152 Z-7.824
N10420 X10.888 Z-7.645
N10425 X10.588 Z-7.419
N10430 X10.317 Z-7.193
N10435 X10.075 Z-6.957
N10440 X9.801 Z-6.699
N10445 X9.316 Z-6.178
N10450 X9.067 Z-5.909
N10455 X8.825 Z-5.641
N10460 X8.61 Z-5.4
N10465 X8.337 Z-5.091
N10470 X7.968 Z-4.697
N10475 X7.683 Z-4.409
N10480 X7.327 Z-4.062
N10485 X6.967 Z-3.756
N10490 X6.607 Z-3.486
N10495 X6.454 Z-3.384
N10500 X6.295 Z-3.288
N10505 X6.133 Z-3.196
N10510 X5.798 Z-3.038
N10515 X5.624 Z-2.973
N10520 X5.447 Z-2.914
N10525 X5.267 Z-2.867
N10530 X4.946 Z-2.806
N10535 X4.573 Z-2.78
N10540 X4.283 Z-2.782
N10545 X3.922 Z-2.819
N10550 X3.647 Z-2.878
N10555 X3.403 Z-2.949
N10560 X3.011 Z-3.116
N10565 X2.714 Z-3.287
N10570 X2.501 Z-3.433
N10575 X2.298 Z-3.594
N10580 X2.17 Z-3.706
N10585 X1.927 Z-3.945
N10590 X1.698 Z-4.202
N10595 X1.378 Z-4.599
N10600 X0.83 Z-5.285
N10605 X0.469 Z-5.689
N10610 X0.07 Z-6.073
N10615 X-0.218 Z-6.314
N10620 X-0.655 Z-6.633
N10625 X-1.13 Z-6.923
N10630 X-1.612 Z-7.171
N10635 X-2.088 Z-7.381
N10640 X-2.754 Z-7.627
N10645 X-3.274 Z-7.784
N10650 X-3.818 Z-7.925
N10655 X-4.552 Z-8.081
N10660 X-5.293 Z-8.203
N10665 X-6.224 Z-8.317
N10670 X-6.972 Z-8.379
N10675 X-7.619 Z-8.408
N10680 X-8.071 Z-8.397
N10685 X-8.575 Z-8.353
N10690 X-8.929 Z-8.297
N10695 X-9.439 Z-8.172
N10700 X-9.78 Z-8.055
N10705 X-10.087 Z-7.917
N10710 X-10.409 Z-7.743
N10715 X-10.554 Z-7.656
N10720 X-10.83 Z-7.46
N10725 X-11.094 Z-7.241
N10730 X-11.411 Z-6.933
N10735 X-11.722 Z-6.592
N10740 X-12.075 Z-6.169
N10745 X-12.614 Z-5.47
N10750 X-13.55 Z-4.224
N10755 X-13.886 Z-3.8
N10760 X-14.171 Z-3.457
N10765 X-14.411 Z-3.19
N10770 X-14.687 Z-2.909
N10775 X-15.001 Z-2.628
N10780 X-15.306 Z-2.397
N10785 X-15.547 Z-2.243
N10790 X-15.794 Z-2.111
N10795 X-16.026 Z-2.01
N10800 X-16.292 Z-1.924
N10805 X-16.565 Z-1.866
N10810 X-16.867 Z-1.836
N10815 X-17.201 Z-1.837
N10820 X-17.457 Z-1.86
N10825 X-17.789 Z-1.93
N10830 X-18.111 Z-2.042
N10835 X-18.437 Z-2.203
N10840 X-18.565 Z-2.28
N10845 X-18.778 Z-2.424
N10850 X-19.063 Z-2.65
N10855 X-19.236 Z-2.809
N10860 X-19.491 Z-3.068
N10865 X-19.703 Z-3.31
N10870 X-19.917 Z-3.575
N10875 X-20.122 Z-3.847
N10880 X-20.331 Z-4.14
N10885 X-20.625 Z-4.577
N10890 X-21.01 Z-5.179
N10895 X-21.772 Z-6.405
N10900 X-22.177 Z-7.008
N10905 X-22.399 Z-7.307
N10910 X-22.636 Z-7.591
N10915 X-22.892 Z-7.848
N10920 X-23.034 Z-7.969
N10925 X-23.178 Z-8.076
N10930 X-23.332 Z-8.173
N10935 X-23.493 Z-8.258
N10940 X-23.662 Z-8.325
N10945 X-23.84 Z-8.378
N10950 X-24.022 Z-8.416
N10955 X-24.208 Z-8.438
N10960 X-24.591 Z-8.452
N10965 X-25.486 Z-8.403
N10970 X-26.345 Z-8.324
N10975 X-27.238 Z-8.208
N10980 X-27.94 Z-8.085
N10985 X-28.801 Z-7.894
N10990 X-29.469 Z-7.705
N10995 X-29.967 Z-7.536
N11000 X-30.457 Z-7.344
N11005 X-30.939 Z-7.118
N11010 X-31.399 Z-6.87
N11015 X-31.783 Z-6.63
N11020 X-32.15 Z-6.357
N11025 X-32.283 Z-6.251
N11030 X-32.611 Z-5.947
N11035 X-32.915 Z-5.618
N11040 X-33.128 Z-5.354
N11045 X-33.433 Z-4.909
N11050 X-33.796 Z-4.312
N11055 X-33.957 Z-4.064
N11060 X-34.142 Z-3.822
N11065 X-34.303 Z-3.645
N11070 X-34.493 Z-3.476
N11075 X-34.721 Z-3.323
N11080 X-34.884 Z-3.239
N11085 X-35.099 Z-3.158
N11090 X-35.322 Z-3.101
N11095 X-35.558 Z-3.076
N11100 X-35.902 Z-3.077
N11105 X-36.083 Z-3.098
N11110 X-36.351 Z-3.163
N11115 X-36.572 Z-3.246
N11120 X-36.827 Z-3.381
N11125 X-37.082 Z-3.558
N11130 X-37.214 Z-3.669
N11135 X-37.401 Z-3.847
N11140 X-37.578 Z-4.036
N11145 X-37.798 Z-4.296
N11150 X-38.11 Z-4.702
N11155 X-38.615 Z-5.405
N11160 X-39.248 Z-6.287
N11165 X-39.704 Z-6.875
N11170 X-39.944 Z-7.163
N11175 X-40.322 Z-7.571
N11180 X-40.593 Z-7.828
N11185 X-40.878 Z-8.06
N11190 X-41.028 Z-8.164
N11195 X-41.217 Z-8.276
N11200 X-41.429 Z-8.003
N11205 X-41.629 Z-7.698
N11210 X-41.895 Z-7.235
N11215 X-42.391 Z-6.283
N11220 X-42.978 Z-5.128
N11225 X-43.328 Z-4.469
N11230 X-43.512 Z-4.142
N11235 X-43.797 Z-3.666
N11240 X-44.054 Z-3.278
N11245 X-44.214 Z-3.059
N11250 X-44.419 Z-2.806
N11255 X-44.639 Z-2.571
N11260 X-44.704 Z-2.509
N11265 X-44.912 Z-2.329
N11270 X-45.138 Z-2.171
N11275 X-45.337 Z-2.06
N11280 X-45.549 Z-1.965
N11285 X-45.815 Z-1.885
N11290 X-46.044 Z-1.848
N11295 X-46.263 Z-1.833
N11300 X-46.563 Z-1.842
N11305 X-46.755 Z-1.867
N11310 X-47.012 Z-1.936
N11315 X-47.242 Z-2.027
N11320 X-47.504 Z-2.176
N11325 X-47.712 Z-2.334
N11330 X-47.902 Z-2.513
N11335 X-48.047 Z-2.681
N11340 X-48.227 Z-2.925
N11345 X-48.342 Z-3.11
N11350 X-48.504 Z-3.413
N11355 X-48.649 Z-3.734
N11360 X-48.811 Z-4.15
N11365 X-48.927 Z-4.483
N11370 X-49.069 Z-4.941
N11375 X-49.222 Z-5.465
N11380 X-49.365 Z-5.991
N11385 X-49.735 Z-7.408
N11390 X-49.92 Z-7.997
N11395 X-50.01 Z-8.244
N11400 X-50.032 Z-8.285
N11405 X-50.066 Z-8.317
N11410 X-50.108 Z-8.338
N11415 X-50.154 Z-8.345
N11420 X-50.176 Y-48.489
N11425 X-50.198 Y-48.483 Z-8.346
N11430 X-50.218 Y-48.474 Z-8.347
N11435 X-50.236 Y-48.461 Z-8.349
N11440 X-50.252 Y-48.446 Z-8.352
N11445 X-50.265 Y-48.428 Z-8.355
N11450 X-50.274 Y-48.408 Z-8.358
N11455 X-50.28 Y-48.386 Z-8.361
N11460 X-50.282 Y-48.364 Z-8.365
N11465 X-50.28 Y-48.342 Z-8.368
N11470 X-50.274 Y-48.321 Z-8.372
N11475 X-50.265 Y-48.301 Z-8.375
N11480 X-50.252 Y-48.283 Z-8.378
N11485 X-50.236 Y-48.267 Z-8.38
N11490 X-50.218 Y-48.255 Z-8.382
N11495 X-50.198 Y-48.245 Z-8.384
N11500 X-50.176 Y-48.24
N11505 X-50.154 Y-48.238 Z-8.385
N11510 X-50.153
N11515 X-50.108 Z-8.378
N11520 X-50.066 Z-8.358
N11525 X-50.033 Z-8.326
N11530 X-50.01 Z-8.286
N11535 X-49.907 Z-8.013
N11540 X-49.708 Z-7.384
N11545 X-49.519 Z-6.662
N11550 X-49.336 Z-5.97
N11555 X-49.192 Z-5.453
N11560 X-49.04 Z-4.935
N11565 X-48.914 Z-4.532
N11570 X-48.78 Z-4.146
N11575 X-48.617 Z-3.73
N11580 X-48.471 Z-3.409
N11585 X-48.309 Z-3.108
N11590 X-48.194 Z-2.924
N11595 X-48.014 Z-2.68
N11600 X-47.868 Z-2.512
N11605 X-47.679 Z-2.333
N11610 X-47.462 Z-2.17
N11615 X-47.208 Z-2.027
N11620 X-46.979 Z-1.935
N11625 X-46.722 Z-1.867
N11630 X-46.532 Z-1.843
N11635 X-46.229 Z-1.833
N11640 X-46.015 Z-1.847
N11645 X-45.786 Z-1.884
N11650 X-45.52 Z-1.964
N11655 X-45.307 Z-2.058
N11660 X-45.108 Z-2.168
N11665 X-44.882 Z-2.326
N11670 X-44.674 Z-2.505
N11675 X-44.609 Z-2.567
N11680 X-44.388 Z-2.802
N11685 X-44.183 Z-3.055
N11690 X-44.022 Z-3.274
N11695 X-43.765 Z-3.662
N11700 X-43.48 Z-4.137
N11705 X-43.297 Z-4.465
N11710 X-42.946 Z-5.124
N11715 X-42.445 Z-6.11
N11720 X-41.864 Z-7.231
N11725 X-41.598 Z-7.696
N11730 X-41.398 Z-8.002
N11735 X-41.186 Z-8.275
N11740 X-41.015 Z-8.175
N11745 X-40.862 Z-8.07
N11750 X-40.577 Z-7.84
N11755 X-40.306 Z-7.583
N11760 X-39.928 Z-7.177
N11765 X-39.687 Z-6.89
N11770 X-39.232 Z-6.305
N11775 X-38.293 Z-4.995
N11780 X-37.94 Z-4.517
N11785 X-37.674 Z-4.183
N11790 X-37.424 Z-3.902
N11795 X-37.199 Z-3.684
N11800 X-37.07 Z-3.574
N11805 X-36.932 Z-3.471
N11810 X-36.789 Z-3.377
N11815 X-36.639 Z-3.294
N11820 X-36.542 Z-3.246
N11825 X-36.322 Z-3.164
N11830 X-36.074 Z-3.101
N11835 X-35.892 Z-3.079
N11840 X-35.485 Z-3.078
N11845 X-35.254 Z-3.108
N11850 X-35.089 Z-3.151
N11855 X-34.859 Z-3.235
N11860 X-34.657 Z-3.341
N11865 X-34.435 Z-3.496
N11870 X-34.234 Z-3.68
N11875 X-34.055 Z-3.886
N11880 X-33.857 Z-4.165
N11885 X-33.423 Z-4.875
N11890 X-33.121 Z-5.32
N11895 X-32.907 Z-5.592
N11900 X-32.668 Z-5.862
N11905 X-32.476 Z-6.053
N11910 X-32.15 Z-6.338
N11915 X-31.827 Z-6.581
N11920 X-31.581 Z-6.747
N11925 X-31.281 Z-6.926
N11930 X-30.956 Z-7.099
N11935 X-30.478 Z-7.329
N11940 X-29.987 Z-7.526
N11945 X-29.489 Z-7.697
N11950 X-28.821 Z-7.888
N11955 X-28.125 Z-8.048
N11960 X-27.425 Z-8.178
N11965 X-26.719 Z-8.281
N11970 X-25.862 Z-8.374
N11975 X-24.901 Z-8.441
N11980 X-24.48 Z-8.451
N11985 X-24.196 Z-8.435
N11990 X-24.011 Z-8.408
N11995 X-23.829 Z-8.368
N12000 X-23.654 Z-8.311
N12005 X-23.484 Z-8.237
N12010 X-23.325 Z-8.149
N12015 X-23.175 Z-8.049
N12020 X-22.894 Z-7.818
N12025 X-22.761 Z-7.686
N12030 X-22.52 Z-7.415
N12035 X-22.188 Z-6.973
N12040 X-21.798 Z-6.39
N12045 X-21.086 Z-5.248
N12050 X-20.654 Z-4.573
N12055 X-20.359 Z-4.134
N12060 X-20.048 Z-3.706
N12065 X-19.729 Z-3.306
N12070 X-19.516 Z-3.065
N12075 X-19.261 Z-2.806
N12080 X-19.071 Z-2.634
N12085 X-18.801 Z-2.422
N12090 X-18.588 Z-2.279
N12095 X-18.459 Z-2.201
N12100 X-18.133 Z-2.042
N12105 X-17.812 Z-1.93
N12110 X-17.48 Z-1.86
N12115 X-17.268 Z-1.84
N12120 X-16.988 Z-1.833
N12125 X-16.755 Z-1.846
N12130 X-16.57 Z-1.868
N12135 X-16.298 Z-1.928
N12140 X-16.077 Z-2
N12145 X-15.82 Z-2.109
N12150 X-15.564 Z-2.245
N12155 X-15.304 Z-2.411
N12160 X-15.008 Z-2.638
N12165 X-14.694 Z-2.919
N12170 X-14.419 Z-3.201
N12175 X-14.211 Z-3.432
N12180 X-13.894 Z-3.808
N12185 X-13.528 Z-4.27
N12190 X-12.622 Z-5.478
N12195 X-12.082 Z-6.177
N12200 X-11.745 Z-6.58
N12205 X-11.469 Z-6.884
N12210 X-11.111 Z-7.238
N12215 X-10.847 Z-7.458
N12220 X-10.571 Z-7.655
N12225 X-10.342 Z-7.793
N12230 X-9.954 Z-7.989
N12235 X-9.638 Z-8.113
N12240 X-9.335 Z-8.207
N12245 X-8.946 Z-8.298
N12250 X-8.593 Z-8.355
N12255 X-8.257 Z-8.387
N12260 X-7.743 Z-8.407
N12265 X-7.164 Z-8.39
N12270 X-6.415 Z-8.332
N12275 X-5.669 Z-8.249
N12280 X-4.927 Z-8.139
N12285 X-4.19 Z-7.998
N12290 X-3.461 Z-7.82
N12295 X-2.94 Z-7.666
N12300 X-2.427 Z-7.488
N12305 X-1.924 Z-7.284
N12310 X-1.436 Z-7.05
N12315 X-0.963 Z-6.784
N12320 X-0.669 Z-6.591
N12325 X-0.219 Z-6.253
N12330 X0.061 Z-6.013
N12335 X0.426 Z-5.652
N12340 X0.785 Z-5.247
N12345 X1.544 Z-4.293
N12350 X1.767 Z-4.033
N12355 X1.945 Z-3.847
N12360 X2.197 Z-3.613
N12365 X2.398 Z-3.451
N12370 X2.608 Z-3.304
N12375 X2.827 Z-3.175
N12380 X3.057 Z-3.06
N12385 X3.374 Z-2.934
N12390 X3.618 Z-2.866
N12395 X3.826 Z-2.822
N12400 X4.12 Z-2.788
N12405 X4.449 Z-2.779
N12410 X4.736 Z-2.792
N12415 X4.903 Z-2.81
N12420 X5.287 Z-2.889
N12425 X5.659 Z-3.012
N12430 X5.984 Z-3.157
N12435 X6.29 Z-3.327
N12440 X6.602 Z-3.531
N12445 X6.901 Z-3.758
N12450 X7.292 Z-4.09
N12455 X7.646 Z-4.433
N12460 X8.174 Z-4.98
N12465 X8.662 Z-5.519
N12470 X8.89 Z-5.784
N12475 X9.085 Z-5.98
N12480 X9.383 Z-6.314
N12485 X9.756 Z-6.704
N12490 X9.897 Z-6.835
N12495 X10.223 Z-7.145
N12500 X10.708 Z-7.541
N12505 X10.986 Z-7.74
N12510 X11.282 Z-7.913
N12515 X11.435 Z-7.986
N12520 X11.594 Z-8.05
N12525 X11.758 Z-8.098
N12530 X11.926 Z-8.124
N12535 X12.039 Z-8.104
N12540 X12.121 Z-8.076
N12545 X12.267 Z-7.998
N12550 X12.432 Z-7.876
N12555 X12.622 Z-7.695
N12560 X12.809 Z-7.477
N12565 X13.03 Z-7.171
N12570 X13.299 Z-6.72
N12575 X13.54 Z-6.243
N12580 X13.764 Z-5.738
N12585 X14.427 Z-4.046
N12590 X14.683 Z-3.414
N12595 X14.893 Z-2.938
N12600 X15.046 Z-2.624
N12605 X15.216 Z-2.316
N12610 X15.404 Z-2.021
N12615 X15.509 Z-1.881
N12620 X15.689 Z-1.669
N12625 X15.936 Z-1.439
N12630 X16.094 Z-1.324
N12635 X16.318 Z-1.196
N12640 X16.535 Z-1.105
N12645 X16.781 Z-1.036
N12650 X16.981 Z-1.009
N12655 X17.272 Z-1
N12660 X17.525 Z-1.019
N12665 X17.753 Z-1.064
N12670 X18.002 Z-1.151
N12675 X18.257 Z-1.282
N12680 X18.41 Z-1.386
N12685 X18.601 Z-1.542
N12690 X18.818 Z-1.765
N12695 X19.033 Z-2.041
N12700 X19.205 Z-2.301
N12705 X19.416 Z-2.667
N12710 X19.58 Z-2.978
N12715 X20.139 Z-4.106
N12720 X20.54 Z-4.875
N12725 X20.812 Z-5.339
N12730 X21.096 Z-5.766
N12735 X21.307 Z-6.037
N12740 X21.534 Z-6.291
N12745 X21.776 Z-6.529
N12750 X22.037 Z-6.754
N12755 X22.311 Z-6.958
N12760 X22.597 Z-7.142
N12765 X22.895 Z-7.307
N12770 X23.203 Z-7.452
N12775 X23.519 Z-7.578
N12780 X24.005 Z-7.729
N12785 X24.335 Z-7.804
N12790 X24.667 Z-7.862
N12795 X25.172 Z-7.914
N12800 X25.541 Z-7.927
N12805 X26.088 Z-7.896
N12810 X26.46 Z-7.849
N12815 X26.829 Z-7.78
N12820 X27.173 Z-7.695
N12825 X27.531 Z-7.582
N12830 X27.878 Z-7.447
N12835 X28.199 Z-7.298
N12840 X28.525 Z-7.117
N12845 X28.812 Z-6.924
N12850 X29.107 Z-6.687
N12855 X29.315 Z-6.494
N12860 X29.526 Z-6.275
N12865 X29.748 Z-6.014
N12870 X29.955 Z-5.737
N12875 X30.07 Z-5.586
N12880 X30.271 Z-5.281
N12885 X30.447 Z-4.986
N12890 X30.71 Z-4.504
N12895 X31.242 Z-3.401
N12900 X31.485 Z-2.931
N12905 X31.628 Z-2.703
N12910 X31.802 Z-2.476
N12915 X31.978 Z-2.298
N12920 X32.176 Z-2.141
N12925 X32.332 Z-2.047
N12930 X32.559 Z-1.943
N12935 X32.722 Z-1.892
N12940 X32.972 Z-1.845
N12945 X33.136 Z-1.834
N12950 X33.459 Z-1.841
N12955 X33.677 Z-1.877
N12960 X33.909 Z-1.943
N12965 X34.076 Z-2.016
N12970 X34.234 Z-2.106
N12975 X34.382 Z-2.209
N12980 X34.55 Z-2.359
N12985 X34.701 Z-2.527
N12990 X34.853 Z-2.741
N12995 X34.984 Z-2.97
N13000 X35.061 Z-3.125
N13005 X35.133 Z-3.283
N13010 X35.49 Z-4.105
N13015 X35.65 Z-4.46
N13020 X35.848 Z-4.862
N13025 X36.12 Z-5.353
N13030 X36.411 Z-5.78
N13035 X36.688 Z-6.125
N13040 X36.912 Z-6.365
N13045 X37.211 Z-6.642
N13050 X37.586 Z-6.929
N13055 X37.913 Z-7.128
N13060 X38.236 Z-7.295
N13065 X38.723 Z-7.5
N13070 X39.059 Z-7.618
N13075 X39.564 Z-7.77
N13080 X40.074 Z-7.895
N13085 X40.773 Z-8.037
N13090 X41.664 Z-8.175
N13095 X42.372 Z-8.258
N13100 X43.27 Z-8.337
N13105 X44.189 Z-8.397
N13110 X45.316 Z-8.448
N13115 X47.076 Z-8.487
N13120 X50.01 Z-8.5
N13125 X50.045 Z-8.496
N13130 X50.078 Z-8.484
N13135 X50.111 Z-8.473
N13140 X50.145 Z-8.469
N13145 G3 Y-47.985 J0.126
N13150 G1 X50.111 Z-8.473
N13155 X50.078 Z-8.484
N13160 X50.045 Z-8.496
N13165 X50.01 Z-8.5
N13170 X47.174 Z-8.489
N13175 X45.413 Z-8.451
N13180 X44.189 Z-8.397
N13185 X43.438 Z-8.349
N13190 X42.372 Z-8.256
N13195 X41.664 Z-8.172
N13200 X40.773 Z-8.032
N13205 X40.074 Z-7.889
N13210 X39.564 Z-7.762
N13215 X39.059 Z-7.608
N13220 X38.722 Z-7.489
N13225 X38.236 Z-7.28
N13230 X37.845 Z-7.069
N13235 X37.631 Z-6.934
N13240 X37.273 Z-6.662
N13245 X37.018 Z-6.429
N13250 X36.843 Z-6.251
N13255 X36.531 Z-5.873
N13260 X36.3 Z-5.549
N13265 X36.15 Z-5.322
N13270 X35.889 Z-4.842
N13275 X35.705 Z-4.464
N13280 X35.54 Z-4.094
N13285 X35.144 Z-3.177
N13290 X34.992 Z-2.875
N13295 X34.828 Z-2.616
N13300 X34.748 Z-2.511
N13305 X34.63 Z-2.379
N13310 X34.5 Z-2.256
N13315 X34.309 Z-2.115
N13320 X34.12 Z-2.008
N13325 X33.952 Z-1.937
N13330 X33.731 Z-1.875
N13335 X33.501 Z-1.839
N13340 X33.165 Z-1.835
N13345 X32.95 Z-1.857
N13350 X32.701 Z-1.915
N13355 X32.54 Z-1.975
N13360 X32.311 Z-2.094
N13365 X32.167 Z-2.191
N13370 X31.969 Z-2.363
N13375 X31.794 Z-2.562
N13380 X31.639 Z-2.779
N13385 X31.459 Z-3.089
N13390 X31.043 Z-3.944
N13395 X30.77 Z-4.499
N13400 X30.507 Z-4.979
N13405 X30.331 Z-5.272
N13410 X30.131 Z-5.577
N13415 X29.817 Z-5.993
N13420 X29.579 Z-6.27
N13425 X29.313 Z-6.543
N13430 X29.027 Z-6.793
N13435 X28.751 Z-6.998
N13440 X28.438 Z-7.191
N13445 X28.04 Z-7.394
N13450 X27.607 Z-7.568
N13455 X27.27 Z-7.676
N13460 X26.907 Z-7.769
N13465 X26.539 Z-7.84
N13470 X26.168 Z-7.89
N13475 X25.696 Z-7.923
N13480 X25.37
N13485 X25.005 Z-7.9
N13490 X24.503 Z-7.834
N13495 X24.008 Z-7.726
N13500 X23.523 Z-7.575
N13505 X23.207 Z-7.45
N13510 X22.899 Z-7.305
N13515 X22.602 Z-7.14
N13520 X22.316 Z-6.957
N13525 X22.041 Z-6.754
N13530 X21.781 Z-6.53
N13535 X21.534 Z-6.289
N13540 X21.307 Z-6.034
N13545 X21.095 Z-5.764
N13550 X20.812 Z-5.338
N13555 X20.541 Z-4.876
N13560 X20.14 Z-4.107
N13565 X19.581 Z-2.978
N13570 X19.417 Z-2.666
N13575 X19.206 Z-2.3
N13580 X19.034 Z-2.041
N13585 X18.819 Z-1.765
N13590 X18.602 Z-1.541
N13595 X18.411 Z-1.386
N13600 X18.258 Z-1.281
N13605 X18.003 Z-1.151
N13610 X17.754 Z-1.064
N13615 X17.526 Z-1.019
N13620 X17.275 Z-1
N13625 X16.984 Z-1.009
N13630 X16.784 Z-1.036
N13635 X16.538 Z-1.105
N13640 X16.321 Z-1.196
N13645 X16.097 Z-1.325
N13650 X15.939 Z-1.44
N13655 X15.746 Z-1.616
N13660 X15.561 Z-1.82
N13665 X15.407 Z-2.023
N13670 X15.219 Z-2.317
N13675 X15.05 Z-2.626
N13680 X14.897 Z-2.94
N13685 X14.687 Z-3.417
N13690 X14.431 Z-4.051
N13695 X13.839 Z-5.568
N13700 X13.549 Z-6.235
N13705 X13.308 Z-6.713
N13710 X13.037 Z-7.164
N13715 X12.817 Z-7.469
N13720 X12.601 Z-7.716
N13725 X12.379 Z-7.917
N13730 X12.252 Z-8.005
N13735 X12.104 Z-8.079
N13740 X11.929 Z-8.122
N13745 X11.741 Z-8.099
N13750 X11.558 Z-8.046
N13755 X11.246 Z-7.91
N13760 X10.95 Z-7.738
N13765 X10.54 Z-7.44
N13770 X10.184 Z-7.149
N13775 X9.856 Z-6.839
N13780 X9.715 Z-6.71
N13785 X9.477 Z-6.458
N13790 X9.214 Z-6.182
N13795 X8.978 Z-5.926
N13800 X8.728 Z-5.661
N13805 X8.618 Z-5.533
N13810 X8.129 Z-4.995
N13815 X7.818 Z-4.672
N13820 X7.571 Z-4.422
N13825 X7.244 Z-4.108
N13830 X6.965 Z-3.865
N13835 X6.838 Z-3.762
N13840 X6.479 Z-3.493
N13845 X6.063 Z-3.235
N13850 X5.751 Z-3.081
N13855 X5.598 Z-3.017
N13860 X5.334 Z-2.924
N13865 X5.065 Z-2.855
N13870 X4.765 Z-2.802
N13875 X4.374 Z-2.779
N13880 X4.024 Z-2.79
N13885 X3.751 Z-2.822
N13890 X3.543 Z-2.865
N13895 X3.298 Z-2.934
N13900 X3.059 Z-3.026
N13905 X2.828 Z-3.131
N13910 X2.532 Z-3.303
N13915 X2.322 Z-3.45
N13920 X2.122 Z-3.611
N13925 X1.869 Z-3.845
N13930 X1.691 Z-4.031
N13935 X1.467 Z-4.29
N13940 X0.696 Z-5.258
N13945 X0.338 Z-5.663
N13950 X-0.027 Z-6.023
N13955 X-0.379 Z-6.324
N13960 X-0.756 Z-6.601
N13965 X-1.051 Z-6.793
N13970 X-1.523 Z-7.059
N13975 X-1.842 Z-7.217
N13980 X-2.358 Z-7.437
N13985 X-2.849 Z-7.618
N13990 X-3.367 Z-7.778
N13995 X-3.911 Z-7.921
N14000 X-4.645 Z-8.08
N14005 X-5.385 Z-8.203
N14010 X-6.316 Z-8.318
N14015 X-7.064 Z-8.381
N14020 X-7.715 Z-8.408
N14025 X-8.106 Z-8.399
N14030 X-8.611 Z-8.356
N14035 X-8.964 Z-8.3
N14040 X-9.474 Z-8.174
N14045 X-9.815 Z-8.056
N14050 X-10.127 Z-7.915
N14055 X-10.444 Z-7.742
N14060 X-10.588 Z-7.653
N14065 X-10.865 Z-7.455
N14070 X-11.128 Z-7.235
N14075 X-11.451 Z-6.918
N14080 X-11.761 Z-6.577
N14085 X-12.097 Z-6.174
N14090 X-12.649 Z-5.458
N14095 X-13.545 Z-4.268
N14100 X-13.911 Z-3.806
N14105 X-14.199 Z-3.461
N14110 X-14.439 Z-3.197
N14115 X-14.715 Z-2.916
N14120 X-15.029 Z-2.635
N14125 X-15.343 Z-2.398
N14130 X-15.596 Z-2.238
N14135 X-15.842 Z-2.108
N14140 X-16.099 Z-1.999
N14145 X-16.32 Z-1.928
N14150 X-16.592 Z-1.869
N14155 X-16.777 Z-1.846
N14160 X-17.01 Z-1.833
N14165 X-17.291 Z-1.84
N14170 X-17.503 Z-1.859
N14175 X-17.834 Z-1.93
N14180 X-18.156 Z-2.041
N14185 X-18.464 Z-2.19
N14190 X-18.611 Z-2.277
N14195 X-18.755 Z-2.371
N14200 X-18.892 Z-2.469
N14205 X-19.159 Z-2.687
N14210 X-19.408 Z-2.924
N14215 X-19.643 Z-3.174
N14220 X-19.863 Z-3.434
N14225 X-20.074 Z-3.699
N14230 X-20.384 Z-4.126
N14235 X-20.68 Z-4.563
N14240 X-21.067 Z-5.164
N14245 X-21.458 Z-5.79
N14250 X-21.937 Z-6.548
N14255 X-22.242 Z-6.999
N14260 X-22.46 Z-7.294
N14265 X-22.698 Z-7.58
N14270 X-22.954 Z-7.84
N14275 X-23.096 Z-7.962
N14280 X-23.24 Z-8.07
N14285 X-23.393 Z-8.169
N14290 X-23.555 Z-8.255
N14295 X-23.724 Z-8.325
N14300 X-23.902 Z-8.379
N14305 X-24.084 Z-8.416
N14310 X-24.27 Z-8.439
N14315 X-24.628 Z-8.453
N14320 X-25.523 Z-8.403
N14325 X-26.382 Z-8.323
N14330 X-27.275 Z-8.204
N14335 X-27.977 Z-8.079
N14340 X-28.674 Z-7.925
N14345 X-29.344 Z-7.739
N14350 X-29.845 Z-7.573
N14355 X-30.413 Z-7.351
N14360 X-30.88 Z-7.132
N14365 X-31.282 Z-6.915
N14370 X-31.592 Z-6.727
N14375 X-31.872 Z-6.531
N14380 X-32.14 Z-6.326
N14385 X-32.481 Z-6.021
N14390 X-32.815 Z-5.666
N14395 X-33.1 Z-5.306
N14400 X-33.421 Z-4.825
N14405 X-33.789 Z-4.22
N14410 X-33.89 Z-4.066
N14415 X-34.078 Z-3.819
N14420 X-34.246 Z-3.636
N14425 X-34.435 Z-3.47
N14430 X-34.66 Z-3.32
N14435 X-34.822 Z-3.237
N14440 X-35.049 Z-3.153
N14445 X-35.263 Z-3.1
N14450 X-35.5 Z-3.075
N14455 X-35.863 Z-3.079
N14460 X-36.045 Z-3.102
N14465 X-36.293 Z-3.164
N14470 X-36.532 Z-3.257
N14475 X-36.61 Z-3.295
N14480 X-36.76 Z-3.379
N14485 X-36.903 Z-3.473
N14490 X-37.04 Z-3.576
N14495 X-37.17 Z-3.686
N14500 X-37.402 Z-3.911
N14505 X-37.645 Z-4.185
N14510 X-37.911 Z-4.519
N14515 X-38.263 Z-4.996
N14520 X-39.182 Z-6.277
N14525 X-39.637 Z-6.864
N14530 X-39.999 Z-7.288
N14535 X-40.387 Z-7.692
N14540 X-40.659 Z-7.934
N14545 X-40.805 Z-8.049
N14550 X-40.955 Z-8.154
N14555 X-41.155 Z-8.275
N14560 X-41.367 Z-8
N14565 X-41.567 Z-7.694
N14570 X-41.833 Z-7.228
N14575 X-42.414 Z-6.105
N14580 X-42.914 Z-5.12
N14585 X-43.264 Z-4.461
N14590 X-43.448 Z-4.134
N14595 X-43.732 Z-3.659
N14600 X-43.99 Z-3.27
N14605 X-44.151 Z-3.051
N14610 X-44.356 Z-2.798
N14615 X-44.578 Z-2.564
N14620 X-44.643 Z-2.502
N14625 X-44.851 Z-2.324
N14630 X-45.077 Z-2.166
N14635 X-45.309 Z-2.04
N14640 X-45.49 Z-1.962
N14645 X-45.756 Z-1.883
N14650 X-46.009 Z-1.844
N14655 X-46.196 Z-1.833
N14660 X-46.496 Z-1.842
N14665 X-46.688 Z-1.867
N14670 X-46.945 Z-1.935
N14675 X-47.175 Z-2.027
N14680 X-47.428 Z-2.169
N14685 X-47.646 Z-2.333
N14690 X-47.835 Z-2.511
N14695 X-47.981 Z-2.679
N14700 X-48.137 Z-2.885
N14705 X-48.277 Z-3.106
N14710 X-48.439 Z-3.406
N14715 X-48.595 Z-3.749
N14720 X-48.758 Z-4.164
N14725 X-48.875 Z-4.497
N14730 X-49.017 Z-4.951
N14735 X-49.174 Z-5.482
N14740 X-49.323 Z-6.013
N14745 X-49.481 Z-6.613
N14750 X-49.695 Z-7.413
N14755 X-49.913 Z-8.086
N14760 X-50.01 Z-8.321
N14765 X-50.033 Z-8.36
N14770 X-50.066 Z-8.39
N14775 X-50.107 Z-8.409
N14780 X-50.152 Z-8.416
N14785 X-50.174 Y-47.983
N14790 X-50.195 Y-47.977 Z-8.417
N14795 X-50.215 Y-47.968 Z-8.418
N14800 X-50.234 Y-47.955 Z-8.42
N14805 X-50.249 Y-47.94 Z-8.422
N14810 X-50.262 Y-47.922 Z-8.425
N14815 X-50.272 Y-47.902 Z-8.428
N14820 X-50.277 Y-47.88 Z-8.431
N14825 X-50.279 Y-47.858 Z-8.434
N14830 X-50.277 Y-47.836 Z-8.437
N14835 X-50.272 Y-47.815 Z-8.44
N14840 X-50.262 Y-47.795 Z-8.443
N14845 X-50.249 Y-47.777 Z-8.445
N14850 X-50.234 Y-47.761 Z-8.448
N14855 X-50.215 Y-47.749 Z-8.449
N14860 X-50.195 Y-47.739 Z-8.451
N14865 X-50.174 Y-47.734 Z-8.452
N14870 X-50.152 Y-47.732
N14875 X-50.151
N14880 X-50.107 Z-8.445
N14885 X-50.066 Z-8.426
N14890 X-50.033 Z-8.396
N14895 X-50.01 Z-8.358
N14900 X-49.892 Z-8.078
N14905 X-49.666 Z-7.384
N14910 X-49.472 Z-6.662
N14915 X-49.306 Z-6.043
N14920 X-49.162 Z-5.534
N14925 X-48.983 Z-4.928
N14930 X-48.809 Z-4.389
N14935 X-48.628 Z-3.903
N14940 X-48.45 Z-3.493
N14945 X-48.308 Z-3.216
N14950 X-48.104 Z-2.884
N14955 X-47.948 Z-2.678
N14960 X-47.802 Z-2.51
N14965 X-47.612 Z-2.332
N14970 X-47.395 Z-2.169
N14975 X-47.141 Z-2.027
N14980 X-46.922 Z-1.938
N14985 X-46.654 Z-1.867
N14990 X-46.454 Z-1.842
N14995 X-46.162 Z-1.833
N15000 X-45.975 Z-1.844
N15005 X-45.722 Z-1.883
N15010 X-45.456 Z-1.962
N15015 X-45.275 Z-2.04
N15020 X-45.044 Z-2.166
N15025 X-44.818 Z-2.323
N15030 X-44.609 Z-2.501
N15035 X-44.544 Z-2.563
N15040 X-44.322 Z-2.798
N15045 X-44.117 Z-3.05
N15050 X-43.956 Z-3.269
N15055 X-43.699 Z-3.658
N15060 X-43.414 Z-4.132
N15065 X-43.231 Z-4.459
N15070 X-42.882 Z-5.116
N15075 X-42.382 Z-6.103
N15080 X-41.802 Z-7.224
N15085 X-41.536 Z-7.691
N15090 X-41.336 Z-7.999
N15095 X-41.124 Z-8.274
N15100 X-40.909 Z-8.143
N15105 X-40.613 Z-7.92
N15110 X-40.341 Z-7.675
N15115 X-39.953 Z-7.27
N15120 X-39.591 Z-6.843
N15125 X-39.247 Z-6.403
N15130 X-38.572 Z-5.47
N15135 X-38.017 Z-4.701
N15140 X-37.705 Z-4.295
N15145 X-37.485 Z-4.037
N15150 X-37.307 Z-3.847
N15155 X-37.12 Z-3.67
N15160 X-37.021 Z-3.587
N15165 X-36.814 Z-3.433
N15170 X-36.566 Z-3.289
N15175 X-36.319 Z-3.183
N15180 X-36.073 Z-3.114
N15185 X-35.829 Z-3.079
N15190 X-35.417 Z-3.078
N15195 X-35.186 Z-3.109
N15200 X-35.007 Z-3.156
N15205 X-34.792 Z-3.236
N15210 X-34.59 Z-3.342
N15215 X-34.366 Z-3.499
N15220 X-34.23 Z-3.62
N15225 X-34.05 Z-3.813
N15230 X-33.856 Z-4.069
N15235 X-33.682 Z-4.339
N15240 X-33.412 Z-4.787
N15245 X-33.165 Z-5.172
N15250 X-32.896 Z-5.536
N15255 X-32.542 Z-5.934
N15260 X-32.269 Z-6.192
N15265 X-32.038 Z-6.388
N15270 X-31.597 Z-6.711
N15275 X-31.147 Z-6.984
N15280 X-30.911 Z-7.106
N15285 X-30.483 Z-7.313
N15290 X-29.954 Z-7.53
N15295 X-29.38 Z-7.726
N15300 X-28.687 Z-7.921
N15305 X-27.991 Z-8.076
N15310 X-27.288 Z-8.203
N15315 X-26.395 Z-8.323
N15320 X-25.536 Z-8.403
N15325 X-24.648 Z-8.453
N15330 X-24.385 Z-8.446
N15335 X-24.198 Z-8.428
N15340 X-24.015 Z-8.398
N15345 X-23.834 Z-8.351
N15350 X-23.661 Z-8.289
N15355 X-23.495 Z-8.209
N15360 X-23.336 Z-8.114
N15365 X-23.185 Z-8.005
N15370 X-23.043 Z-7.887
N15375 X-22.783 Z-7.635
N15380 X-22.545 Z-7.358
N15385 X-22.322 Z-7.06
N15390 X-21.912 Z-6.459
N15395 X-21.212 Z-5.343
N15400 X-20.781 Z-4.667
N15405 X-20.448 Z-4.174
N15410 X-20.105 Z-3.701
N15415 X-19.78 Z-3.298
N15420 X-19.55 Z-3.041
N15425 X-19.432 Z-2.92
N15430 X-19.182 Z-2.684
N15435 X-18.916 Z-2.467
N15440 X-18.778 Z-2.369
N15445 X-18.634 Z-2.276
N15450 X-18.487 Z-2.188
N15455 X-18.179 Z-2.04
N15460 X-17.938 Z-1.954
N15465 X-17.692 Z-1.891
N15470 X-17.441 Z-1.85
N15475 X-17.138 Z-1.833
N15480 X-16.809 Z-1.845
N15485 X-16.578 Z-1.876
N15490 X-16.307 Z-1.938
N15495 X-16 Z-2.046
N15500 X-15.708 Z-2.185
N15505 X-15.468 Z-2.327
N15510 X-15.242 Z-2.484
N15515 X-15.059 Z-2.625
N15520 X-14.815 Z-2.84
N15525 X-14.56 Z-3.087
N15530 X-14.226 Z-3.45
N15535 X-13.967 Z-3.759
N15540 X-13.558 Z-4.269
N15545 X-12.65 Z-5.476
N15550 X-12.109 Z-6.174
N15555 X-11.757 Z-6.597
N15560 X-11.514 Z-6.863
N15565 X-11.131 Z-7.245
N15570 X-10.868 Z-7.464
N15575 X-10.649 Z-7.622
N15580 X-10.341 Z-7.814
N15585 X-9.953 Z-8.006
N15590 X-9.636 Z-8.128
N15595 X-9.293 Z-8.231
N15600 X-8.962 Z-8.305
N15605 X-8.628 Z-8.357
N15610 X-8.292 Z-8.389
N15615 X-7.75 Z-8.408
N15620 X-7.359 Z-8.396
N15625 X-6.61 Z-8.343
N15630 X-5.863 Z-8.262
N15635 X-5.12 Z-8.155
N15640 X-4.383 Z-8.016
N15645 X-3.654 Z-7.842
N15650 X-3.132 Z-7.689
N15655 X-2.62 Z-7.512
N15660 X-2.117 Z-7.31
N15665 X-1.798 Z-7.162
N15670 X-1.32 Z-6.911
N15675 X-0.845 Z-6.612
N15680 X-0.505 Z-6.362
N15685 X-0.117 Z-6.035
N15690 X0.136 Z-5.791
N15695 X0.485 Z-5.414
N15700 X0.947 Z-4.848
N15705 X1.391 Z-4.288
N15710 X1.615 Z-4.029
N15715 X1.733 Z-3.903
N15720 X1.886 Z-3.752
N15725 X2.111 Z-3.554
N15730 X2.247 Z-3.448
N15735 X2.457 Z-3.302
N15740 X2.752 Z-3.13
N15745 X2.984 Z-3.025
N15750 X3.223 Z-2.933
N15755 X3.468 Z-2.865
N15760 X3.707 Z-2.817
N15765 X4.053 Z-2.783
N15770 X4.426 Z-2.782
N15775 X4.754 Z-2.811
N15780 X5.03 Z-2.863
N15785 X5.209 Z-2.908
N15790 X5.387 Z-2.966
N15795 X5.518 Z-3.014
N15800 X5.815 Z-3.145
N15805 X6.059 Z-3.274
N15810 X6.374 Z-3.469
N15815 X6.75 Z-3.747
N15820 X7.094 Z-4.033
N15825 X7.23 Z-4.157
N15830 X7.487 Z-4.405
N15835 X7.738 Z-4.655
N15840 X8.05 Z-4.977
N15845 X8.225 Z-5.168
N15850 X8.454 Z-5.415
N15855 X8.718 Z-5.717
N15860 X8.969 Z-5.971
N15865 X9.339 Z-6.369
N15870 X9.582 Z-6.623
N15875 X9.846 Z-6.869
N15880 X10.089 Z-7.1
N15885 X10.366 Z-7.328
N15890 X10.65 Z-7.554
N15895 X10.928 Z-7.745
N15900 X11.228 Z-7.915
N15905 X11.381 Z-7.986
N15910 X11.54 Z-8.048
N15915 X11.724 Z-8.1
N15920 X11.856 Z-8.121
N15925 X11.927
N15930 X12.102 Z-8.077
N15935 X12.176 Z-8.044
N15940 X12.329 Z-7.951
N15945 X12.5 Z-7.812
N15950 X12.719 Z-7.589
N15955 X12.829 Z-7.454
N15960 X13.044 Z-7.159
N15965 X13.314 Z-6.709
N15970 X13.555 Z-6.233
N15975 X13.845 Z-5.566
N15980 X14.438 Z-4.05
N15985 X14.693 Z-3.416
N15990 X14.903 Z-2.938
N15995 X15.017 Z-2.702
N16000 X15.225 Z-2.316
N16005 X15.413 Z-2.021
N16010 X15.516 Z-1.884
N16015 X15.684 Z-1.682
N16020 X15.874 Z-1.499
N16025 X16.011 Z-1.388
N16030 X16.1 Z-1.325
N16035 X16.324 Z-1.197
N16040 X16.541 Z-1.105
N16045 X16.787 Z-1.036
N16050 X16.987 Z-1.009
N16055 X17.278 Z-1
N16060 X17.531 Z-1.019
N16065 X17.77 Z-1.067
N16070 X17.945 Z-1.126
N16075 X18.192 Z-1.242
N16080 X18.387 Z-1.366
N16085 X18.565 Z-1.506
N16090 X18.631 Z-1.567
N16095 X18.819 Z-1.762
N16100 X18.996 Z-1.985
N16105 X19.146 Z-2.206
N16110 X19.241 Z-2.357
N16115 X19.335 Z-2.518
N16120 X19.588 Z-2.99
N16125 X20.317 Z-4.454
N16130 X20.651 Z-5.07
N16135 X20.922 Z-5.512
N16140 X21.121 Z-5.796
N16145 X21.334 Z-6.065
N16150 X21.565 Z-6.318
N16155 X21.811 Z-6.556
N16160 X22.076 Z-6.778
N16165 X22.351 Z-6.977
N16170 X22.64 Z-7.159
N16175 X22.939 Z-7.321
N16180 X23.247 Z-7.463
N16185 X23.564 Z-7.585
N16190 X24.051 Z-7.733
N16195 X24.38 Z-7.807
N16200 X24.714 Z-7.864
N16205 X25.219 Z-7.915
N16210 X25.586 Z-7.927
N16215 X26.057 Z-7.904
N16220 X26.429 Z-7.862
N16225 X26.798 Z-7.799
N16230 X27.163 Z-7.715
N16235 X27.678 Z-7.556
N16240 X28.112 Z-7.378
N16245 X28.511 Z-7.174
N16250 X28.823 Z-6.977
N16255 X29.115 Z-6.757
N16260 X29.378 Z-6.526
N16265 X29.645 Z-6.253
N16270 X29.86 Z-6.001
N16275 X30.027 Z-5.78
N16280 X30.193 Z-5.564
N16285 X30.383 Z-5.276
N16290 X30.568 Z-4.971
N16295 X30.83 Z-4.494
N16300 X31.479 Z-3.168
N16305 X31.676 Z-2.816
N16310 X31.855 Z-2.562
N16315 X32.03 Z-2.363
N16320 X32.228 Z-2.191
N16325 X32.372 Z-2.094
N16330 X32.601 Z-1.975
N16335 X32.762 Z-1.915
N16340 X33.011 Z-1.857
N16345 X33.226 Z-1.835
N16350 X33.554 Z-1.839
N16355 X33.783 Z-1.873
N16360 X34.005 Z-1.934
N16365 X34.174 Z-2.004
N16370 X34.373 Z-2.117
N16375 X34.555 Z-2.251
N16380 X34.744 Z-2.435
N16385 X34.884 Z-2.61
N16390 X35.047 Z-2.868
N16395 X35.222 Z-3.219
N16400 X35.605 Z-4.12
N16405 X35.766 Z-4.484
N16410 X35.929 Z-4.817
N16415 X36.221 Z-5.359
N16420 X36.455 Z-5.707
N16425 X36.747 Z-6.091
N16430 X36.97 Z-6.336
N16435 X37.157 Z-6.522
N16440 X37.501 Z-6.814
N16445 X37.851 Z-7.052
N16450 X38.243 Z-7.265
N16455 X38.726 Z-7.477
N16460 X39.063 Z-7.599
N16465 X39.646 Z-7.776
N16470 X40.259 Z-7.925
N16475 X40.96 Z-8.061
N16480 X41.665 Z-8.169
N16485 X42.373 Z-8.254
N16490 X43.457 Z-8.349
N16495 X44.189 Z-8.396
N16500 X45.413 Z-8.451
N16505 X47.174 Z-8.488
N16510 X50.01 Z-8.5
N16515 X50.045 Z-8.496
N16520 X50.078 Z-8.484
N16525 X50.111 Z-8.473
N16530 X50.145 Z-8.469
N16535 G3 Y-47.479 J0.126
N16540 G1 X50.111 Z-8.473
N16545 X50.078 Z-8.484
N16550 X50.045 Z-8.496
N16555 X50.01 Z-8.5
N16560 X47.174 Z-8.488
N16565 X45.413 Z-8.451
N16570 X44.189 Z-8.395
N16575 X43.271 Z-8.333
N16580 X42.373 Z-8.252
N16585 X41.479 Z-8.139
N16590 X40.775 Z-8.023
N16595 X40.075 Z-7.877
N16600 X39.567 Z-7.746
N16605 X38.975 Z-7.557
N16610 X38.572 Z-7.4
N16615 X38.245 Z-7.248
N16620 X37.927 Z-7.074
N16625 X37.637 Z-6.882
N16630 X37.371 Z-6.678
N16635 X37.04 Z-6.366
N16640 X36.807 Z-6.109
N16645 X36.52 Z-5.736
N16650 X36.29 Z-5.392
N16655 X36.022 Z-4.907
N16660 X35.813 Z-4.47
N16665 X35.664 Z-4.132
N16670 X35.315 Z-3.3
N16675 X35.242 Z-3.138
N16680 X35.166 Z-2.979
N16685 X35.035 Z-2.744
N16690 X34.853 Z-2.492
N16695 X34.651 Z-2.282
N16700 X34.494 Z-2.157
N16705 X34.259 Z-2.016
N16710 X34.091 Z-1.943
N16715 X33.859 Z-1.876
N16720 X33.642 Z-1.841
N16725 X33.319 Z-1.834
N16730 X33.156 Z-1.845
N16735 X32.906 Z-1.892
N16740 X32.743 Z-1.943
N16745 X32.517 Z-2.047
N16750 X32.359 Z-2.141
N16755 X32.156 Z-2.303
N16760 X31.986 Z-2.477
N16765 X31.805 Z-2.714
N16770 X31.667 Z-2.935
N16775 X31.505 Z-3.237
N16780 X30.964 Z-4.346
N16785 X30.723 Z-4.801
N16790 X30.544 Z-5.109
N16795 X30.253 Z-5.554
N16800 X29.871 Z-6.051
N16805 X29.572 Z-6.382
N16810 X29.318 Z-6.622
N16815 X29.001 Z-6.881
N16820 X28.735 Z-7.064
N16825 X28.454 Z-7.225
N16830 X28.248 Z-7.33
N16835 X27.904 Z-7.483
N16840 X27.482 Z-7.633
N16845 X27.031 Z-7.755
N16850 X26.664 Z-7.829
N16855 X26.293 Z-7.882
N16860 X25.92 Z-7.915
N16865 X25.537 Z-7.926
N16870 X25.073 Z-7.903
N16875 X24.571 Z-7.839
N16880 X24.075 Z-7.735
N16885 X23.749 Z-7.643
N16890 X23.271 Z-7.469
N16895 X22.963 Z-7.329
N16900 X22.664 Z-7.169
N16905 X22.375 Z-6.989
N16910 X22.1 Z-6.793
N16915 X21.836 Z-6.575
N16920 X21.586 Z-6.337
N16925 X21.354 Z-6.085
N16930 X21.14 Z-5.819
N16935 X20.941 Z-5.539
N16940 X20.67 Z-5.102
N16945 X20.332 Z-4.484
N16950 X19.623 Z-3.058
N16955 X19.407 Z-2.644
N16960 X19.272 Z-2.406
N16965 X19.1 Z-2.133
N16970 X18.97 Z-1.948
N16975 X18.858 Z-1.807
N16980 X18.737 Z-1.67
N16985 X18.54 Z-1.482
N16990 X18.322 Z-1.319
N16995 X18.125 Z-1.205
N17000 X17.914 Z-1.113
N17005 X17.739 Z-1.058
N17010 X17.557 Z-1.023
N17015 X17.307 Z-1
N17020 X17.006 Z-1.007
N17025 X16.79 Z-1.036
N17030 X16.544 Z-1.105
N17035 X16.327 Z-1.197
N17040 X16.121 Z-1.314
N17045 X16.014 Z-1.389
N17050 X15.877 Z-1.5
N17055 X15.684 Z-1.687
N17060 X15.468 Z-1.95
N17065 X15.273 Z-2.244
N17070 X15.051 Z-2.643
N17075 X14.785 Z-3.214
N17080 X14.57 Z-3.731
N17085 X13.851 Z-5.564
N17090 X13.562 Z-6.23
N17095 X13.321 Z-6.706
N17100 X13.05 Z-7.153
N17105 X12.836 Z-7.447
N17110 X12.725 Z-7.582
N17115 X12.507 Z-7.805
N17120 X12.334 Z-7.945
N17125 X12.18 Z-8.039
N17130 X12.1 Z-8.074
N17135 X11.925 Z-8.12
N17140 X11.837
N17145 X11.706 Z-8.1
N17150 X11.523 Z-8.051
N17155 X11.364 Z-7.991
N17160 X11.058 Z-7.84
N17165 X10.91 Z-7.754
N17170 X10.551 Z-7.504
N17175 X10.337 Z-7.337
N17180 X10.06 Z-7.113
N17185 X9.937 Z-6.993
N17190 X9.553 Z-6.644
N17195 X9.301 Z-6.38
N17200 X9.167 Z-6.246
N17205 X9.055 Z-6.12
N17210 X8.931 Z-5.986
N17215 X8.666 Z-5.719
N17220 X8.375 Z-5.393
N17225 X8.11 Z-5.104
N17230 X7.693 Z-4.673
N17235 X7.443 Z-4.422
N17240 X7.032 Z-4.037
N17245 X6.689 Z-3.752
N17250 X6.313 Z-3.475
N17255 X5.998 Z-3.279
N17260 X5.754 Z-3.15
N17265 X5.458 Z-3.018
N17270 X5.326 Z-2.97
N17275 X5.149 Z-2.912
N17280 X4.969 Z-2.866
N17285 X4.648 Z-2.807
N17290 X4.368 Z-2.783
N17295 X3.998 Z-2.781
N17300 X3.638 Z-2.816
N17305 X3.392 Z-2.864
N17310 X3.148 Z-2.933
N17315 X2.909 Z-3.024
N17320 X2.639 Z-3.15
N17325 X2.381 Z-3.3
N17330 X2.052 Z-3.538
N17335 X1.81 Z-3.749
N17340 X1.657 Z-3.901
N17345 X1.539 Z-4.026
N17350 X1.315 Z-4.284
N17355 X0.987 Z-4.697
N17360 X0.531 Z-5.268
N17365 X0.16 Z-5.687
N17370 X-0.206 Z-6.046
N17375 X-0.485 Z-6.287
N17380 X-0.855 Z-6.566
N17385 X-1.165 Z-6.775
N17390 X-1.551 Z-6.999
N17395 X-2.034 Z-7.244
N17400 X-2.549 Z-7.462
N17405 X-3.041 Z-7.641
N17410 X-3.559 Z-7.799
N17415 X-4.103 Z-7.941
N17420 X-4.837 Z-8.097
N17425 X-5.577 Z-8.218
N17430 X-6.323 Z-8.311
N17435 X-7.071 Z-8.377
N17440 X-7.75 Z-8.408
N17445 X-8.142 Z-8.4
N17450 X-8.646 Z-8.358
N17455 X-8.98 Z-8.306
N17460 X-9.31 Z-8.232
N17465 X-9.654 Z-8.129
N17470 X-9.97 Z-8.007
N17475 X-10.358 Z-7.814
N17480 X-10.586 Z-7.676
N17485 X-10.863 Z-7.479
N17490 X-11.126 Z-7.261
N17495 X-11.442 Z-6.957
N17500 X-11.861 Z-6.489
N17505 X-12.315 Z-5.933
N17510 X-13.514 Z-4.345
N17515 X-13.961 Z-3.783
N17520 X-14.25 Z-3.441
N17525 X-14.585 Z-3.08
N17530 X-14.871 Z-2.804
N17535 X-15.174 Z-2.55
N17540 X-15.415 Z-2.376
N17545 X-15.632 Z-2.24
N17550 X-15.886 Z-2.106
N17555 X-16.153 Z-1.995
N17560 X-16.375 Z-1.924
N17565 X-16.649 Z-1.866
N17570 X-16.946 Z-1.837
N17575 X-17.299 Z-1.838
N17580 X-17.548 Z-1.859
N17585 X-17.879 Z-1.929
N17590 X-18.201 Z-2.04
N17595 X-18.51 Z-2.187
N17600 X-18.819 Z-2.379
N17605 X-18.939 Z-2.465
N17610 X-19.19 Z-2.667
N17615 X-19.457 Z-2.917
N17620 X-19.575 Z-3.038
N17625 X-19.805 Z-3.293
N17630 X-20.176 Z-3.756
N17635 X-20.488 Z-4.187
N17640 X-20.739 Z-4.555
N17645 X-21.028 Z-5
N17650 X-21.554 Z-5.834
N17655 X-21.98 Z-6.507
N17660 X-22.282 Z-6.954
N17665 X-22.615 Z-7.4
N17670 X-22.856 Z-7.675
N17675 X-22.989 Z-7.807
N17680 X-23.27 Z-8.042
N17685 X-23.423 Z-8.147
N17690 X-23.584 Z-8.238
N17695 X-23.754 Z-8.312
N17700 X-23.929 Z-8.37
N17705 X-24.11 Z-8.411
N17710 X-24.294 Z-8.437
N17715 X-24.651 Z-8.453
N17720 X-25.533 Z-8.405
N17725 X-26.411 Z-8.323
N17730 X-27.304 Z-8.201
N17735 X-28.006 Z-8.073
N17740 X-28.703 Z-7.916
N17745 X-29.382 Z-7.723
N17750 X-29.888 Z-7.55
N17755 X-30.359 Z-7.362
N17760 X-30.838 Z-7.137
N17765 X-31.298 Z-6.884
N17770 X-31.681 Z-6.639
N17775 X-32.048 Z-6.36
N17780 X-32.37 Z-6.077
N17785 X-32.609 Z-5.832
N17790 X-32.885 Z-5.51
N17795 X-33.137 Z-5.166
N17800 X-33.384 Z-4.78
N17805 X-33.654 Z-4.33
N17810 X-33.828 Z-4.061
N17815 X-34.021 Z-3.809
N17820 X-34.203 Z-3.614
N17825 X-34.404 Z-3.445
N17830 X-34.565 Z-3.338
N17835 X-34.768 Z-3.233
N17840 X-34.982 Z-3.154
N17845 X-35.162 Z-3.108
N17850 X-35.392 Z-3.077
N17855 X-35.728 Z-3.075
N17860 X-35.92 Z-3.093
N17865 X-36.149 Z-3.141
N17870 X-36.391 Z-3.223
N17875 X-36.642 Z-3.347
N17880 X-36.893 Z-3.511
N17885 X-37.126 Z-3.703
N17890 X-37.311 Z-3.882
N17895 X-37.556 Z-4.152
N17900 X-37.759 Z-4.402
N17905 X-38.091 Z-4.842
N17910 X-39.095 Z-6.238
N17915 X-39.538 Z-6.815
N17920 X-39.901 Z-7.244
N17925 X-40.155 Z-7.519
N17930 X-40.422 Z-7.777
N17935 X-40.704 Z-8.017
N17940 X-40.854 Z-8.126
N17945 X-41.094 Z-8.273
N17950 X-41.305 Z-7.997
N17955 X-41.49 Z-7.714
N17960 X-41.833 Z-7.104
N17965 X-42.407 Z-5.984
N17970 X-42.832 Z-5.147
N17975 X-43.181 Z-4.487
N17980 X-43.364 Z-4.16
N17985 X-43.662 Z-3.662
N17990 X-43.853 Z-3.368
N17995 X-43.956 Z-3.221
N18000 X-44.065 Z-3.073
N18005 X-44.24 Z-2.855
N18010 X-44.504 Z-2.568
N18015 X-44.689 Z-2.4
N18020 X-44.91 Z-2.231
N18025 X-45.142 Z-2.089
N18030 X-45.394 Z-1.972
N18035 X-45.659 Z-1.89
N18040 X-45.888 Z-1.85
N18045 X-46.128 Z-1.833
N18050 X-46.421 Z-1.842
N18055 X-46.621 Z-1.867
N18060 X-46.888 Z-1.938
N18065 X-47.108 Z-2.026
N18070 X-47.359 Z-2.168
N18075 X-47.546 Z-2.305
N18080 X-47.738 Z-2.478
N18085 X-47.915 Z-2.677
N18090 X-48.071 Z-2.882
N18095 X-48.277 Z-3.215
N18100 X-48.419 Z-3.492
N18105 X-48.599 Z-3.904
N18110 X-48.662 Z-4.061
N18115 X-48.828 Z-4.53
N18120 X-48.955 Z-4.924
N18125 X-49.159 Z-5.62
N18130 X-49.295 Z-6.092
N18135 X-49.447 Z-6.658
N18140 X-49.641 Z-7.37
N18145 X-49.87 Z-8.067
N18150 X-50.01 Z-8.394
N18155 X-50.03 Z-8.426
N18160 X-50.057 Z-8.451
N18165 X-50.091 Z-8.467
N18170 X-50.128 Z-8.472
N18175 X-50.15 Y-47.477
N18180 X-50.172 Y-47.471 Z-8.473
N18185 X-50.192 Y-47.462 Z-8.474
N18190 X-50.21 Y-47.449 Z-8.475
N18195 X-50.225 Y-47.434 Z-8.476
N18200 X-50.238 Y-47.416 Z-8.478
N18205 X-50.248 Y-47.396 Z-8.48
N18210 X-50.253 Y-47.374 Z-8.482
N18215 X-50.255 Y-47.352 Z-8.484
N18220 X-50.253 Y-47.33 Z-8.486
N18225 X-50.248 Y-47.309 Z-8.488
N18230 X-50.238 Y-47.289 Z-8.49
N18235 X-50.225 Y-47.271 Z-8.492
N18240 X-50.21 Y-47.255 Z-8.493
N18245 X-50.192 Y-47.243 Z-8.494
N18250 X-50.172 Y-47.233 Z-8.495
N18255 X-50.15 Y-47.228 Z-8.496
N18260 X-50.128 Y-47.226
N18265 X-50.126
N18270 X-50.09 Z-8.491
N18275 X-50.057 Z-8.476
N18280 X-50.03 Z-8.453
N18285 X-50.01 Z-8.423
N18290 X-49.936 Z-8.268
N18295 X-49.816 Z-7.96
N18300 X-49.62 Z-7.37
N18305 X-49.287 Z-6.156
N18310 X-49.114 Z-5.546
N18315 X-48.932 Z-4.942
N18320 X-48.822 Z-4.601
N18325 X-48.667 Z-4.154
N18330 X-48.569 Z-3.905
N18335 X-48.41 Z-3.538
N18340 X-48.245 Z-3.214
N18345 X-48.038 Z-2.881
N18350 X-47.882 Z-2.676
N18355 X-47.705 Z-2.477
N18360 X-47.513 Z-2.305
N18365 X-47.319 Z-2.163
N18370 X-47.074 Z-2.026
N18375 X-46.855 Z-1.938
N18380 X-46.587 Z-1.867
N18385 X-46.355 Z-1.839
N18390 X-46.017 Z-1.835
N18395 X-45.739 Z-1.866
N18400 X-45.557 Z-1.908
N18405 X-45.295 Z-1.999
N18410 X-45.048 Z-2.121
N18415 X-44.874 Z-2.232
N18420 X-44.671 Z-2.386
N18425 X-44.471 Z-2.567
N18430 X-44.25 Z-2.802
N18435 X-44.045 Z-3.055
N18440 X-43.884 Z-3.274
N18445 X-43.627 Z-3.662
N18450 X-43.342 Z-4.138
N18455 X-43.159 Z-4.465
N18460 X-42.895 Z-4.958
N18465 X-42.471 Z-5.791
N18470 X-41.812 Z-7.082
N18475 X-41.472 Z-7.692
N18480 X-41.23 Z-8.059
N18485 X-41.063 Z-8.273
N18490 X-40.872 Z-8.158
N18495 X-40.719 Z-8.05
N18500 X-40.573 Z-7.934
N18505 X-40.301 Z-7.693
N18510 X-39.913 Z-7.289
N18515 X-39.55 Z-6.865
N18520 X-39.095 Z-6.279
N18525 X-38.176 Z-5
N18530 X-37.848 Z-4.557
N18535 X-37.557 Z-4.191
N18540 X-37.314 Z-3.917
N18545 X-37.082 Z-3.692
N18550 X-36.952 Z-3.582
N18555 X-36.815 Z-3.477
N18560 X-36.671 Z-3.384
N18565 X-36.522 Z-3.299
N18570 X-36.286 Z-3.194
N18575 X-36.041 Z-3.121
N18580 X-35.776 Z-3.08
N18585 X-35.483 Z-3.074
N18590 X-35.248 Z-3.088
N18595 X-35.065 Z-3.122
N18600 X-34.803 Z-3.204
N18605 X-34.556 Z-3.324
N18610 X-34.38 Z-3.439
N18615 X-34.193 Z-3.593
N18620 X-34.017 Z-3.776
N18625 X-33.838 Z-4.001
N18630 X-33.682 Z-4.232
N18635 X-33.234 Z-4.97
N18640 X-32.916 Z-5.433
N18645 X-32.741 Z-5.649
N18650 X-32.445 Z-5.975
N18655 X-32.181 Z-6.225
N18660 X-31.973 Z-6.401
N18665 X-31.624 Z-6.663
N18670 X-31.318 Z-6.862
N18675 X-30.858 Z-7.117
N18680 X-30.458 Z-7.312
N18685 X-29.893 Z-7.545
N18690 X-29.396 Z-7.717
N18695 X-28.728 Z-7.909
N18700 X-28.032 Z-8.068
N18705 X-27.329 Z-8.198
N18710 X-26.436 Z-8.321
N18715 X-25.558 Z-8.404
N18720 X-24.672 Z-8.453
N18725 X-24.336 Z-8.438
N18730 X-24.152 Z-8.413
N18735 X-23.971 Z-8.373
N18740 X-23.796 Z-8.316
N18745 X-23.627 Z-8.242
N18750 X-23.465 Z-8.152
N18755 X-23.312 Z-8.048
N18760 X-23.031 Z-7.813
N18765 X-22.898 Z-7.682
N18770 X-22.657 Z-7.407
N18775 X-22.433 Z-7.116
N18780 X-22.127 Z-6.673
N18785 X-21.641 Z-5.919
N18790 X-21.149 Z-5.138
N18795 X-20.769 Z-4.552
N18800 X-20.468 Z-4.114
N18805 X-20.357 Z-3.96
N18810 X-20.048 Z-3.552
N18815 X-19.717 Z-3.161
N18820 X-19.481 Z-2.914
N18825 X-19.213 Z-2.664
N18830 X-18.963 Z-2.464
N18835 X-18.859 Z-2.39
N18840 X-18.569 Z-2.207
N18845 X-18.224 Z-2.039
N18850 X-17.902 Z-1.929
N18855 X-17.654 Z-1.873
N18860 X-17.402 Z-1.843
N18865 X-17.078 Z-1.833
N18870 X-16.774 Z-1.852
N18875 X-16.454 Z-1.91
N18880 X-16.143 Z-2.006
N18885 X-15.907 Z-2.106
N18890 X-15.643 Z-2.244
N18895 X-15.406 Z-2.394
N18900 X-15.186 Z-2.555
N18905 X-14.899 Z-2.794
N18910 X-14.611 Z-3.07
N18915 X-14.276 Z-3.431
N18920 X-13.986 Z-3.772
N18925 X-13.599 Z-4.254
N18930 X-12.335 Z-5.923
N18935 X-11.881 Z-6.481
N18940 X-11.53 Z-6.875
N18945 X-11.146 Z-7.255
N18950 X-10.883 Z-7.474
N18955 X-10.606 Z-7.672
N18960 X-10.378 Z-7.811
N18965 X-9.99 Z-8.007
N18970 X-9.674 Z-8.129
N18975 X-9.33 Z-8.233
N18980 X-9 Z-8.306
N18985 X-8.666 Z-8.359
N18990 X-8.33 Z-8.39
N18995 X-7.95 Z-8.405
N19000 X-7.559 Z-8.4
N19005 X-6.988 Z-8.368
N19010 X-6.241 Z-8.297
N19015 X-5.497 Z-8.199
N19020 X-4.757 Z-8.071
N19025 X-4.025 Z-7.908
N19030 X-3.503 Z-7.767
N19035 X-2.969 Z-7.595
N19040 X-2.462 Z-7.401
N19045 X-1.972 Z-7.182
N19050 X-1.496 Z-6.931
N19055 X-1.021 Z-6.632
N19060 X-0.576 Z-6.3
N19065 X-0.296 Z-6.06
N19070 X0.027 Z-5.745
N19075 X0.455 Z-5.265
N19080 X0.911 Z-4.693
N19085 X1.239 Z-4.281
N19090 X1.462 Z-4.023
N19095 X1.734 Z-3.747
N19100 X1.977 Z-3.537
N19105 X2.306 Z-3.299
N19110 X2.525 Z-3.17
N19115 X2.698 Z-3.082
N19120 X3.033 Z-2.945
N19125 X3.317 Z-2.864
N19130 X3.567 Z-2.815
N19135 X3.819 Z-2.788
N19140 X4.148 Z-2.779
N19145 X4.406 Z-2.789
N19150 X4.592 Z-2.809
N19155 X4.776 Z-2.84
N19160 X4.924 Z-2.872
N19165 X5.226 Z-2.96
N19170 X5.529 Z-3.078
N19175 X5.823 Z-3.221
N19180 X5.984 Z-3.313
N19185 X6.297 Z-3.511
N19190 X6.653 Z-3.776
N19195 X6.976 Z-4.046
N19200 X7.34 Z-4.387
N19205 X7.679 Z-4.719
N19210 X7.925 Z-4.973
N19215 X8.291 Z-5.366
N19220 X8.524 Z-5.624
N19225 X8.907 Z-6.016
N19230 X9.086 Z-6.213
N19235 X9.524 Z-6.659
N19240 X9.806 Z-6.913
N19245 X10.055 Z-7.145
N19250 X10.399 Z-7.419
N19255 X10.76 Z-7.678
N19260 X11.053 Z-7.853
N19265 X11.363 Z-8
N19270 X11.524 Z-8.058
N19275 X11.689 Z-8.101
N19280 X11.857 Z-8.125
N19285 X12.012 Z-8.099
N19290 X12.139 Z-8.055
N19295 X12.256 Z-7.993
N19300 X12.42 Z-7.878
N19305 X12.591 Z-7.724
N19310 X12.823 Z-7.467
N19315 X13.051 Z-7.156
N19320 X13.327 Z-6.703
N19325 X13.568 Z-6.229
N19330 X13.857 Z-5.564
N19335 X14.514 Z-3.883
N19340 X14.778 Z-3.24
N19345 X15.051 Z-2.653
N19350 X15.277 Z-2.245
N19355 X15.472 Z-1.951
N19360 X15.687 Z-1.688
N19365 X15.88 Z-1.5
N19370 X16.017 Z-1.389
N19375 X16.235 Z-1.247
N19380 X16.467 Z-1.134
N19385 X16.639 Z-1.076
N19390 X16.877 Z-1.022
N19395 X17.089 Z-1.001
N19400 X17.397 Z-1.004
N19405 X17.673 Z-1.043
N19410 X17.895 Z-1.105
N19415 X18.148 Z-1.216
N19420 X18.344 Z-1.333
N19425 X18.561 Z-1.499
N19430 X18.756 Z-1.687
N19435 X18.986 Z-1.968
N19440 X19.143 Z-2.196
N19445 X19.238 Z-2.347
N19450 X19.422 Z-2.671
N19455 X19.585 Z-2.982
N19460 X20.066 Z-3.958
N19465 X20.482 Z-4.766
N19470 X20.746 Z-5.227
N19475 X21.024 Z-5.658
N19480 X21.23 Z-5.934
N19485 X21.453 Z-6.195
N19490 X21.694 Z-6.441
N19495 X21.951 Z-6.67
N19500 X22.241 Z-6.894
N19505 X22.669 Z-7.169
N19510 X22.969 Z-7.327
N19515 X23.277 Z-7.467
N19520 X23.773 Z-7.647
N19525 X24.263 Z-7.777
N19530 X24.595 Z-7.841
N19535 X25.097 Z-7.903
N19540 X25.535 Z-7.926
N19545 X25.918 Z-7.917
N19550 X26.292 Z-7.885
N19555 X26.663 Z-7.834
N19560 X27.031 Z-7.762
N19565 X27.394 Z-7.668
N19570 X27.732 Z-7.561
N19575 X28.166 Z-7.388
N19580 X28.565 Z-7.188
N19585 X28.862 Z-7.01
N19590 X29.166 Z-6.789
N19595 X29.451 Z-6.544
N19600 X29.718 Z-6.279
N19605 X29.905 Z-6.071
N19610 X30.093 Z-5.832
N19615 X30.295 Z-5.57
N19620 X30.504 Z-5.258
N19625 X30.783 Z-4.794
N19630 X31.024 Z-4.343
N19635 X31.565 Z-3.238
N19640 X31.727 Z-2.936
N19645 X31.821 Z-2.782
N19650 X31.977 Z-2.562
N19655 X32.152 Z-2.364
N19660 X32.351 Z-2.192
N19665 X32.495 Z-2.095
N19670 X32.723 Z-1.975
N19675 X32.884 Z-1.915
N19680 X33.133 Z-1.857
N19685 X33.349 Z-1.835
N19690 X33.544 Z-1.833
N19695 X33.777 Z-1.85
N19700 X34.05 Z-1.909
N19705 X34.223 Z-1.971
N19710 X34.386 Z-2.052
N19715 X34.612 Z-2.199
N19720 X34.781 Z-2.348
N19725 X34.932 Z-2.514
N19730 X35.085 Z-2.729
N19735 X35.216 Z-2.961
N19740 X35.293 Z-3.119
N19745 X35.366 Z-3.282
N19750 X35.596 Z-3.839
N19755 X35.857 Z-4.45
N19760 X36.065 Z-4.89
N19765 X36.333 Z-5.382
N19770 X36.569 Z-5.739
N19775 X36.84 Z-6.097
N19780 X37.103 Z-6.389
N19785 X37.382 Z-6.651
N19790 X37.719 Z-6.915
N19795 X37.955 Z-7.069
N19800 X38.249 Z-7.232
N19805 X38.578 Z-7.389
N19810 X39.067 Z-7.58
N19815 X39.569 Z-7.738
N19820 X40.096 Z-7.875
N19825 X40.775 Z-8.018
N19830 X41.499 Z-8.139
N19835 X42.373 Z-8.25
N19840 X43.271 Z-8.332
N19845 X44.189 Z-8.394
N19850 X45.413 Z-8.45
N19855 X47.174 Z-8.488
N19860 X50.01 Z-8.5
N19865 X50.045 Z-8.496
N19870 X50.078 Z-8.484
N19875 X50.111 Z-8.473
N19880 X50.145 Z-8.469
N19885 G3 Y-46.973 J0.126
N19890 G1 X50.111 Z-8.473
N19895 X50.078 Z-8.484
N19900 X50.045 Z-8.496
N19905 X50.01 Z-8.5
N19910 X47.174 Z-8.488
N19915 X45.413 Z-8.45
N19920 X44.189 Z-8.393
N19925 X43.271 Z-8.33
N19930 X42.373 Z-8.248
N19935 X41.499 Z-8.135
N19940 X40.796 Z-8.018
N19945 X40.099 Z-7.869
N19950 X39.572 Z-7.73
N19955 X38.991 Z-7.539
N19960 X38.58 Z-7.375
N19965 X38.257 Z-7.218
N19970 X37.962 Z-7.052
N19975 X37.703 Z-6.875
N19980 X37.528 Z-6.739
N19985 X37.273 Z-6.514
N19990 X37.006 Z-6.238
N19995 X36.8 Z-5.989
N20000 X36.593 Z-5.706
N20005 X36.358 Z-5.339
N20010 X36.09 Z-4.834
N20015 X35.924 Z-4.484
N20020 X35.68 Z-3.913
N20025 X35.419 Z-3.271
N20030 X35.347 Z-3.109
N20035 X35.27 Z-2.951
N20040 X35.139 Z-2.72
N20045 X34.985 Z-2.504
N20050 X34.793 Z-2.301
N20055 X34.665 Z-2.193
N20060 X34.437 Z-2.046
N20065 X34.273 Z-1.967
N20070 X34.1 Z-1.906
N20075 X33.827 Z-1.848
N20080 X33.605 Z-1.833
N20085 X33.41 Z-1.835
N20090 X33.195 Z-1.857
N20095 X32.945 Z-1.915
N20100 X32.785 Z-1.975
N20105 X32.556 Z-2.095
N20110 X32.412 Z-2.192
N20115 X32.214 Z-2.364
N20120 X32.039 Z-2.562
N20125 X31.882 Z-2.783
N20130 X31.788 Z-2.937
N20135 X31.621 Z-3.248
N20140 X31.085 Z-4.339
N20145 X30.748 Z-4.95
N20150 X30.463 Z-5.406
N20155 X30.247 Z-5.699
N20160 X29.912 Z-6.125
N20165 X29.674 Z-6.376
N20170 X29.398 Z-6.635
N20175 X29.132 Z-6.849
N20180 X28.828 Z-7.058
N20185 X28.669 Z-7.154
N20190 X28.339 Z-7.324
N20195 X27.995 Z-7.476
N20200 X27.662 Z-7.596
N20205 X27.303 Z-7.703
N20210 X26.939 Z-7.788
N20215 X26.384 Z-7.878
N20220 X26.011 Z-7.912
N20225 X25.628 Z-7.927
N20230 X25.122 Z-7.903
N20235 X24.786 Z-7.867
N20240 X24.287 Z-7.779
N20245 X23.797 Z-7.651
N20250 X23.317 Z-7.48
N20255 X22.854 Z-7.266
N20260 X22.557 Z-7.097
N20265 X22.272 Z-6.912
N20270 X21.998 Z-6.705
N20275 X21.74 Z-6.481
N20280 X21.499 Z-6.242
N20285 X21.272 Z-5.984
N20290 X21.059 Z-5.706
N20295 X20.866 Z-5.422
N20300 X20.591 Z-4.962
N20305 X20.261 Z-4.344
N20310 X19.627 Z-3.064
N20315 X19.456 Z-2.732
N20320 X19.277 Z-2.412
N20325 X19.119 Z-2.156
N20330 X18.893 Z-1.844
N20335 X18.744 Z-1.673
N20340 X18.547 Z-1.484
N20345 X18.33 Z-1.321
N20350 X18.175 Z-1.228
N20355 X17.966 Z-1.131
N20360 X17.748 Z-1.059
N20365 X17.52 Z-1.017
N20370 X17.287 Z-1
N20375 X17 Z-1.008
N20380 X16.796 Z-1.036
N20385 X16.55 Z-1.105
N20390 X16.333 Z-1.197
N20395 X16.127 Z-1.314
N20400 X15.918 Z-1.47
N20405 X15.698 Z-1.681
N20410 X15.501 Z-1.919
N20415 X15.327 Z-2.173
N20420 X15.151 Z-2.474
N20425 X14.911 Z-2.955
N20430 X14.618 Z-3.639
N20435 X14.143 Z-4.859
N20440 X13.796 Z-5.728
N20445 X13.569 Z-6.238
N20450 X13.315 Z-6.731
N20455 X13.122 Z-7.053
N20460 X12.93 Z-7.331
N20465 X12.691 Z-7.621
N20470 X12.495 Z-7.814
N20475 X12.279 Z-7.976
N20480 X12.119 Z-8.061
N20485 X11.944 Z-8.111
N20490 X11.84 Z-8.125
N20495 X11.653 Z-8.097
N20500 X11.488 Z-8.054
N20505 X11.327 Z-7.996
N20510 X11.017 Z-7.85
N20515 X10.724 Z-7.677
N20520 X10.431 Z-7.47
N20525 X10.019 Z-7.149
N20530 X9.77 Z-6.921
N20535 X9.365 Z-6.549
N20540 X8.984 Z-6.157
N20545 X8.74 Z-5.902
N20550 X8.424 Z-5.574
N20555 X8.248 Z-5.381
N20560 X8.018 Z-5.134
N20565 X7.872 Z-4.981
N20570 X7.626 Z-4.728
N20575 X7.234 Z-4.349
N20580 X6.905 Z-4.043
N20585 X6.564 Z-3.761
N20590 X6.282 Z-3.549
N20595 X6.128 Z-3.446
N20600 X5.849 Z-3.275
N20605 X5.56 Z-3.127
N20610 X5.476 Z-3.087
N20615 X5.218 Z-2.983
N20620 X4.953 Z-2.898
N20625 X4.589 Z-2.819
N20630 X4.31 Z-2.788
N20635 X3.877 Z-2.78
N20640 X3.534 Z-2.808
N20645 X3.222 Z-2.868
N20650 X2.917 Z-2.959
N20655 X2.526 Z-3.127
N20660 X2.231 Z-3.297
N20665 X2.021 Z-3.443
N20670 X1.883 Z-3.549
N20675 X1.625 Z-3.776
N20680 X1.386 Z-4.021
N20685 X1.109 Z-4.344
N20690 X0.393 Z-5.246
N20695 X0.025 Z-5.663
N20700 X-0.368 Z-6.055
N20705 X-0.648 Z-6.297
N20710 X-1.093 Z-6.632
N20715 X-1.568 Z-6.931
N20720 X-2.043 Z-7.184
N20725 X-2.379 Z-7.338
N20730 X-2.899 Z-7.545
N20735 X-3.431 Z-7.726
N20740 X-3.972 Z-7.881
N20745 X-4.703 Z-8.05
N20750 X-5.442 Z-8.184
N20755 X-6.186 Z-8.285
N20760 X-6.933 Z-8.361
N20765 X-7.592 Z-8.4
N20770 X-7.886 Z-8.407
N20775 X-8.36 Z-8.39
N20780 X-8.864 Z-8.334
N20785 X-9.196 Z-8.269
N20790 X-9.523 Z-8.185
N20795 X-9.864 Z-8.066
N20800 X-10.174 Z-7.928
N20805 X-10.49 Z-7.753
N20810 X-10.774 Z-7.567
N20815 X-11.045 Z-7.356
N20820 X-11.243 Z-7.176
N20825 X-11.57 Z-6.846
N20830 X-11.812 Z-6.577
N20835 X-12.148 Z-6.174
N20840 X-12.814 Z-5.311
N20845 X-13.614 Z-4.254
N20850 X-13.921 Z-3.866
N20855 X-14.271 Z-3.454
N20860 X-14.638 Z-3.06
N20865 X-14.971 Z-2.746
N20870 X-15.252 Z-2.519
N20875 X-15.476 Z-2.361
N20880 X-15.716 Z-2.215
N20885 X-15.941 Z-2.1
N20890 X-16.211 Z-1.99
N20895 X-16.487 Z-1.907
N20900 X-16.763 Z-1.855
N20905 X-17.1 Z-1.833
N20910 X-17.378 Z-1.84
N20915 X-17.593 Z-1.859
N20920 X-17.925 Z-1.928
N20925 X-18.247 Z-2.038
N20930 X-18.592 Z-2.205
N20935 X-18.883 Z-2.388
N20940 X-18.986 Z-2.462
N20945 X-19.221 Z-2.648
N20950 X-19.382 Z-2.793
N20955 X-19.506 Z-2.91
N20960 X-19.741 Z-3.157
N20965 X-20.08 Z-3.556
N20970 X-20.283 Z-3.819
